<?xml version="1.0" encoding="UTF-8"?>
<map version="1.10" tiledversion="1.11.2" orientation="orthogonal" renderorder="right-down" compressionlevel="0" width="32" height="32" tilewidth="32" tileheight="32" infinite="1" nextlayerid="227" nextobjectid="1">
 <tileset firstgid="1" source="../Tilesets/Borders.tsx"/>
 <tileset firstgid="193" source="../Tilesets/systemtags.tsx"/>
 <tileset firstgid="321" source="../Tilesets/passages.tsx"/>
 <layer id="205" name="Floor_A_1" width="32" height="32">
  <data encoding="csv">
   <chunk x="0" y="16" width="16" height="16">
0,0,0,0,0,0,0,0,0,0,0,0,0,0,0,0,
0,0,0,0,0,0,0,0,0,0,0,0,0,0,0,0,
0,0,0,0,0,0,0,0,0,0,0,0,0,0,0,0,
0,0,0,0,0,0,0,0,0,0,0,0,0,0,0,0,
0,0,0,0,0,0,0,0,0,0,6,0,0,0,0,0,
0,0,0,0,0,0,0,0,0,0,0,0,0,0,0,0,
0,0,0,0,0,0,0,0,0,0,0,0,0,0,0,0,
0,0,0,0,0,0,0,0,0,0,0,0,0,0,0,0,
0,0,0,0,0,0,0,0,0,0,0,0,0,0,0,0,
0,0,0,0,0,0,0,0,0,0,0,0,0,0,0,0,
0,0,0,0,0,0,0,0,0,0,0,0,0,0,0,0,
0,0,0,0,0,0,0,0,0,0,0,0,0,0,0,0,
0,0,0,0,0,0,0,0,0,0,0,0,0,0,0,0,
0,0,0,0,0,0,0,0,0,0,0,0,0,0,0,0,
0,0,0,0,0,0,0,0,0,0,0,0,0,0,0,0,
0,0,0,0,0,0,0,0,0,0,0,0,0,0,0,0
</chunk>
  </data>
 </layer>
 <layer id="206" name="Floor_B_1" width="32" height="32">
  <data encoding="csv"/>
 </layer>
 <layer id="221" name="Wall_A_1" width="32" height="32">
  <data encoding="csv"/>
 </layer>
 <layer id="222" name="Wall_B_1" width="32" height="32">
  <data encoding="csv"/>
 </layer>
 <layer id="223" name="Wall_C_1" width="32" height="32">
  <data encoding="csv"/>
 </layer>
 <layer id="207" name="Shadow_A_1" width="32" height="32">
  <data encoding="csv"/>
 </layer>
 <layer id="43" name="Props_A_1" width="32" height="32">
  <data encoding="csv"/>
 </layer>
 <layer id="44" name="Props_B_1" width="32" height="32">
  <data encoding="csv"/>
 </layer>
 <layer id="175" name="Props_C_1" width="32" height="32">
  <data encoding="csv"/>
 </layer>
 <layer id="211" name="Props_D_1" width="32" height="32">
  <data encoding="csv"/>
 </layer>
 <group id="4" name="Z=0"/>
 <layer id="208" name="Wall_A_2" width="32" height="32">
  <data encoding="csv"/>
 </layer>
 <layer id="210" name="Wall_B_2" width="32" height="32">
  <data encoding="csv"/>
 </layer>
 <layer id="224" name="Wall_C_2" width="32" height="32">
  <data encoding="csv"/>
 </layer>
 <layer id="45" name="Props_A_2" width="32" height="32">
  <data encoding="csv"/>
 </layer>
 <layer id="62" name="Props_B_2" width="32" height="32">
  <data encoding="csv"/>
 </layer>
 <group id="3" name="Z=1"/>
 <layer id="217" name="Wall_A_3" width="32" height="32">
  <data encoding="csv"/>
 </layer>
 <layer id="218" name="Wall_B_3" width="32" height="32">
  <data encoding="csv"/>
 </layer>
 <layer id="225" name="Wall_C_3" width="32" height="32">
  <data encoding="csv"/>
 </layer>
 <layer id="63" name="Props_A_3" width="32" height="32">
  <data encoding="csv"/>
 </layer>
 <layer id="64" name="Props_B_3" width="32" height="32">
  <data encoding="csv"/>
 </layer>
 <group id="2" name="Z=2"/>
 <layer id="219" name="Wall_A_4" width="32" height="32">
  <data encoding="csv"/>
 </layer>
 <layer id="220" name="Wall_B_4" width="32" height="32">
  <data encoding="csv"/>
 </layer>
 <layer id="226" name="Wall_C_4" width="32" height="32">
  <data encoding="csv"/>
 </layer>
 <layer id="199" name="Props_A_4" width="32" height="32">
  <data encoding="csv"/>
 </layer>
 <layer id="212" name="Props_B_4" width="32" height="32">
  <data encoding="csv"/>
 </layer>
 <group id="48" name="Z=3"/>
 <layer id="61" name="Props_A_5" width="32" height="32">
  <data encoding="csv"/>
 </layer>
 <layer id="213" name="Props_B_5" width="32" height="32">
  <data encoding="csv"/>
 </layer>
 <group id="214" name="Z=4"/>
 <layer id="215" name="Props_A_6" width="32" height="32">
  <data encoding="csv"/>
 </layer>
 <layer id="216" name="Props_B_6" width="32" height="32">
  <data encoding="csv"/>
 </layer>
 <layer id="209" name="Black_6" width="32" height="32">
  <data encoding="csv">
   <chunk x="0" y="0" width="16" height="16">
49,49,49,49,49,49,49,49,49,49,0,0,0,0,0,0,
49,49,49,49,49,49,49,49,49,49,0,0,0,0,0,0,
49,49,49,49,49,49,49,49,49,49,0,0,0,0,0,0,
49,49,49,49,49,49,49,49,49,49,0,0,0,0,0,0,
49,49,49,49,49,49,49,49,49,49,0,0,0,0,0,0,
49,49,49,49,49,49,49,49,49,49,0,0,0,0,0,0,
49,49,49,49,49,49,49,49,49,49,0,0,0,0,0,0,
49,49,49,49,49,49,49,49,49,49,0,0,0,0,0,0,
0,0,0,0,0,0,0,0,0,0,0,0,0,0,0,0,
0,0,0,0,0,0,0,0,0,0,0,0,0,0,0,0,
0,0,0,0,0,0,0,0,0,0,0,0,0,0,0,0,
0,0,0,0,0,0,0,0,0,0,0,0,0,0,0,0,
0,0,0,0,0,0,0,0,0,0,0,0,0,0,0,0,
0,0,0,0,0,0,0,0,0,0,0,0,0,0,0,0,
0,0,0,0,0,0,0,0,0,0,0,0,0,0,0,0,
0,0,0,0,0,0,0,0,0,0,0,0,0,0,0,0
</chunk>
  </data>
 </layer>
 <group id="49" name="Z=5"/>
 <layer id="168" name="systemtags" width="32" height="32">
  <data encoding="csv"/>
 </layer>
 <layer id="15" name="passages" width="32" height="32" opacity="0.34">
  <data encoding="csv"/>
 </layer>
 <layer id="1" name="borders" width="32" height="32">
  <data encoding="csv">
   <chunk x="0" y="0" width="16" height="16">
65,66,67,68,69,70,71,72,73,74,0,0,0,0,0,0,
81,0,0,0,0,0,0,0,0,90,0,0,0,0,0,0,
97,0,0,0,0,0,0,0,0,106,0,0,0,0,0,0,
113,0,0,0,0,0,0,0,0,122,0,0,0,0,0,0,
129,0,0,0,0,0,0,0,0,138,0,0,0,0,0,0,
145,0,0,0,0,0,0,0,0,154,0,0,0,0,0,0,
161,0,0,0,0,0,0,0,0,170,0,0,0,0,0,0,
177,178,179,180,181,182,183,184,185,186,0,0,0,0,0,0,
0,0,0,0,0,0,0,0,0,0,0,0,0,0,0,0,
0,0,0,0,0,0,0,0,0,0,0,0,0,0,0,0,
0,0,0,0,0,0,0,0,0,0,0,0,0,0,0,0,
0,0,0,0,0,0,0,0,0,0,0,0,0,0,0,0,
0,0,0,0,0,0,0,0,0,0,0,0,0,0,0,0,
0,0,0,0,0,0,0,0,0,0,0,0,0,0,0,0,
0,0,0,0,0,0,0,0,0,0,0,0,0,0,0,0,
0,0,0,0,0,0,0,0,0,0,0,0,0,0,0,0
</chunk>
  </data>
 </layer>
</map>
