<?xml version="1.0" encoding="UTF-8"?>
<map version="1.10" tiledversion="1.11.2" orientation="orthogonal" renderorder="right-down" compressionlevel="0" width="32" height="32" tilewidth="32" tileheight="32" infinite="1" nextlayerid="227" nextobjectid="1">
 <tileset firstgid="1" source="../Tilesets/Borders.tsx"/>
 <tileset firstgid="193" source="../Tilesets/systemtags.tsx"/>
 <tileset firstgid="321" source="../Tilesets/passages.tsx"/>
 <tileset firstgid="465" source="../Tilesets/int_Goldenrod.tsx"/>
 <layer id="205" name="Floor_A_1" width="32" height="32">
  <data encoding="csv">
   <chunk x="0" y="0" width="16" height="16">
0,0,0,0,0,0,0,0,0,0,0,0,0,0,0,0,
0,0,0,0,0,0,0,0,0,0,0,0,0,0,0,0,
0,0,0,0,0,0,0,0,0,0,0,0,0,0,0,0,
0,0,0,0,0,0,0,0,0,0,0,0,0,0,0,0,
0,0,0,0,0,0,0,0,0,0,0,0,0,0,0,0,
0,0,0,0,0,0,0,0,0,0,0,0,0,0,0,0,
0,0,0,0,0,0,0,0,0,0,0,0,0,0,0,0,
0,0,0,0,0,0,0,0,0,0,0,0,0,0,0,0,
0,0,0,0,0,0,0,0,0,0,0,0,0,0,0,0,
0,0,0,0,0,0,0,0,0,0,0,0,0,0,0,0,
0,0,0,0,0,0,0,0,0,0,0,0,0,0,0,0,
0,0,0,0,0,0,0,0,0,0,0,0,0,0,0,0,
0,0,0,0,0,0,0,0,0,0,0,0,0,0,0,0,
0,0,0,0,0,0,0,0,0,0,1156,1155,1156,1155,1156,1155,
0,0,0,0,0,0,0,0,0,0,1220,1221,1222,1219,1220,1221,
0,0,0,0,0,0,0,0,0,0,1284,1285,1286,1283,1284,1285
</chunk>
   <chunk x="16" y="0" width="16" height="16">
0,0,0,0,0,0,0,0,0,0,0,0,0,0,0,0,
0,0,0,0,0,0,0,0,0,0,0,0,0,0,0,0,
0,0,0,0,0,0,0,0,0,0,0,0,0,0,0,0,
0,0,0,0,0,0,0,0,0,0,0,0,0,0,0,0,
0,0,0,0,0,0,0,0,0,0,0,0,0,0,0,0,
0,0,0,0,0,0,0,0,0,0,0,0,0,0,0,0,
0,0,0,0,0,0,0,0,0,0,0,0,0,0,0,0,
0,0,0,0,0,0,0,0,0,0,0,0,0,0,0,0,
0,0,0,0,0,0,0,0,0,0,0,0,0,0,0,0,
0,0,0,0,0,0,0,0,0,0,0,0,0,0,0,0,
0,0,0,0,0,0,0,0,0,0,0,0,0,0,0,0,
0,0,0,0,0,0,0,0,0,0,0,0,0,0,0,0,
0,0,0,0,0,0,0,0,0,0,0,0,0,0,0,0,
1156,1155,1156,1155,1156,1155,1156,1155,1156,1155,1156,1155,1156,1155,1156,1155,
1222,1219,1220,1221,1222,1219,1220,1221,1222,1219,1220,1221,1222,1219,1220,1221,
1286,1283,1284,1285,1286,1283,1284,1285,1286,1283,1284,1285,1286,1283,1284,1285
</chunk>
   <chunk x="32" y="0" width="16" height="16">
0,0,0,0,0,0,0,0,0,0,0,0,0,0,0,0,
0,0,0,0,0,0,0,0,0,0,0,0,0,0,0,0,
0,0,0,0,0,0,0,0,0,0,0,0,0,0,0,0,
0,0,0,0,0,0,0,0,0,0,0,0,0,0,0,0,
0,0,0,0,0,0,0,0,0,0,0,0,0,0,0,0,
0,0,0,0,0,0,0,0,0,0,0,0,0,0,0,0,
0,0,0,0,0,0,0,0,0,0,0,0,0,0,0,0,
0,0,0,0,0,0,0,0,0,0,0,0,0,0,0,0,
0,0,0,0,0,0,0,0,0,0,0,0,0,0,0,0,
0,0,0,0,0,0,0,0,0,0,0,0,0,0,0,0,
0,0,0,0,0,0,0,0,0,0,0,0,0,0,0,0,
0,0,0,0,0,0,0,0,0,0,0,0,0,0,0,0,
0,0,0,0,0,0,0,0,0,0,0,0,0,0,0,0,
1156,1155,1156,1155,1156,1155,1156,1155,1156,1155,0,0,0,0,0,0,
1222,1219,1220,1221,1222,1219,1220,1221,1222,1219,0,0,0,0,0,0,
1286,1283,1284,1285,1286,1283,1284,1285,1286,1283,0,0,0,0,0,0
</chunk>
   <chunk x="0" y="16" width="16" height="16">
0,0,0,0,0,0,0,0,0,0,1348,1349,1350,1347,1348,1349,
0,0,0,0,0,0,0,0,0,0,1157,1157,1157,1157,1157,1157,
0,0,0,0,0,0,0,0,0,0,1158,1158,1158,1158,1158,1158,
0,0,0,0,0,0,0,0,0,0,1151,1152,1153,1154,1151,1152,
0,0,0,0,0,0,0,0,0,0,1215,1216,1217,1218,1215,1216,
0,0,0,0,0,0,0,0,0,0,1279,1280,1281,1282,1279,1280,
0,0,0,0,0,0,0,0,0,0,1343,1344,1345,1346,1343,1344,
0,0,0,0,0,0,0,0,0,0,1151,1152,1153,1154,1151,1152,
0,0,0,0,0,0,0,0,0,0,1215,1216,1217,1218,1215,1216,
0,0,0,0,0,0,0,0,575,575,1279,1280,1281,1282,1279,1280,
0,0,0,0,0,0,0,0,575,575,575,575,575,575,575,575,
0,0,0,0,0,0,0,0,0,0,0,0,0,0,0,0,
0,0,0,0,0,0,0,0,0,0,0,0,0,0,0,0,
0,0,0,0,0,0,0,0,0,0,0,0,0,0,0,0,
0,0,0,0,0,0,0,0,0,0,0,0,0,0,0,0,
0,0,0,0,0,0,0,0,0,0,0,0,0,0,0,0
</chunk>
   <chunk x="16" y="16" width="16" height="16">
1350,1347,1348,1349,1350,1347,1348,1349,1350,1347,1348,1349,1350,1347,1348,1349,
1157,1157,1157,1157,1157,1157,1157,1157,1157,1157,1157,1157,1157,1157,1157,1157,
1158,1158,1158,1158,1158,1158,1158,1158,1158,1158,1158,1158,1158,1158,1158,1158,
1153,1154,1151,1152,1153,1154,1151,1152,1153,1154,1151,1158,1153,1154,1151,1152,
1217,1218,1215,1216,1217,1158,1158,1158,1158,1158,1158,1158,1217,1218,1215,1216,
1281,1282,1279,1280,1281,1282,1279,1280,1281,1282,1279,1280,1281,1282,1279,1280,
1345,1346,1343,1344,1345,1346,1343,1344,1345,1346,1343,1344,1345,1346,1343,1344,
1153,1154,1151,1152,1153,1154,1151,1152,1153,1154,1151,1152,1153,1154,1151,1152,
1217,1218,1215,1216,1217,1218,1215,1216,1217,1218,1215,1216,1217,1218,1215,1216,
1281,1282,1279,1280,1281,1282,1279,1280,1281,1282,1279,1280,1281,1282,1279,1280,
575,575,575,575,575,575,575,575,575,575,575,575,575,575,575,575,
0,0,0,0,0,0,0,0,0,0,0,0,0,0,0,0,
0,0,0,0,0,0,0,0,0,0,0,0,0,0,0,0,
0,0,0,0,0,0,0,0,0,0,0,0,0,0,0,0,
0,0,0,0,0,0,0,0,0,0,0,0,0,0,0,0,
0,0,0,0,0,0,0,0,0,0,0,0,0,0,0,0
</chunk>
   <chunk x="32" y="16" width="16" height="16">
1350,1347,1348,1349,1350,1347,1348,1349,1350,1347,0,0,0,0,0,0,
1157,1157,1157,1157,1157,1157,1157,1157,1157,1157,0,0,0,0,0,0,
1158,1158,1158,1158,1158,1158,1158,1158,1158,1158,0,0,0,0,0,0,
1153,1154,1151,1152,1153,1154,1151,1152,1153,1154,0,0,0,0,0,0,
1217,1218,1215,1216,1217,1218,1215,1216,1217,1218,0,0,0,0,0,0,
1281,1282,1279,1280,1281,1282,1279,1280,1281,1282,0,0,0,0,0,0,
1345,1346,1343,1344,1345,1346,1343,1344,1345,1346,0,0,0,0,0,0,
1153,1154,1151,1152,1153,1154,1151,1152,1153,1154,0,0,0,0,0,0,
1217,1218,1215,1216,1217,1218,1215,1216,1217,1218,0,0,0,0,0,0,
1281,1282,1279,1280,1281,1282,1279,1280,1281,1282,575,575,0,0,0,0,
575,575,575,575,575,575,575,575,575,575,575,575,0,0,0,0,
0,0,0,0,0,0,0,0,0,0,0,0,0,0,0,0,
0,0,0,0,0,0,0,0,0,0,0,0,0,0,0,0,
0,0,0,0,0,0,0,0,0,0,0,0,0,0,0,0,
0,0,0,0,0,0,0,0,0,0,0,0,0,0,0,0,
0,0,0,0,0,0,0,0,0,0,0,0,0,0,0,0
</chunk>
   <chunk x="0" y="32" width="16" height="16">
0,0,0,0,0,0,0,0,0,0,0,0,0,0,0,0,
0,0,0,0,0,0,0,0,0,0,0,0,0,0,0,0,
0,0,0,0,0,0,0,0,0,0,0,0,0,0,0,0,
0,0,0,0,0,0,0,0,0,0,0,0,0,0,0,0,
0,0,0,0,0,0,0,0,0,0,0,0,0,0,0,0,
0,0,0,0,0,0,0,0,0,0,1026,1027,1026,1027,1026,1027,
0,0,0,0,0,0,0,0,0,0,1090,1091,1090,1091,1090,1091,
0,0,0,0,0,0,0,0,0,0,1026,1027,1026,1027,1026,1027,
0,0,0,0,0,0,0,0,0,0,0,0,0,1091,1090,1091,
0,0,0,0,0,0,0,0,0,0,0,0,0,1027,1026,1027,
0,0,0,0,0,0,0,0,0,0,0,0,0,1091,1090,1091,
0,0,0,0,0,0,0,0,0,0,1026,1027,1026,1027,1026,1027,
0,0,0,0,0,0,0,0,0,0,1090,1091,1090,1091,1090,1091,
0,0,0,0,0,0,0,0,0,0,1026,1027,1026,1027,1026,1027,
0,0,0,0,0,0,0,0,0,0,1090,1091,1090,1091,1090,1091,
0,0,0,0,0,0,0,0,0,0,1026,1027,1026,1027,1026,1027
</chunk>
   <chunk x="16" y="32" width="16" height="16">
0,0,0,0,0,0,0,0,0,0,0,0,0,0,0,0,
0,0,0,0,0,0,0,0,0,0,0,0,0,0,0,0,
0,0,0,0,0,0,0,0,0,0,0,0,0,0,0,0,
0,0,0,0,0,0,0,0,0,0,0,0,0,0,0,0,
0,0,0,0,0,0,0,0,0,0,0,0,0,0,0,0,
1026,1027,0,0,0,0,0,0,0,0,0,0,0,0,0,0,
1090,1091,0,0,0,0,0,0,0,0,0,0,0,0,0,0,
1026,1027,0,0,0,0,0,0,0,0,0,0,0,0,0,0,
1090,1091,0,0,0,0,0,0,0,0,0,0,0,0,0,0,
1026,1027,0,0,0,0,0,0,0,0,0,0,0,0,0,0,
1090,1091,0,0,0,0,0,0,0,0,0,0,0,0,0,0,
1026,1027,1026,1027,1026,1027,1026,1027,1026,1027,1026,1027,0,0,0,0,
1090,1091,1090,1091,1090,1091,1090,1091,1090,1091,1090,1091,0,0,0,0,
1026,1027,1026,1027,1026,1027,1026,1027,1026,1027,1026,1027,0,0,0,0,
1090,1091,1090,1091,1090,1091,1090,1091,1090,1091,1090,1091,0,0,0,0,
1026,1027,1026,1027,1026,1027,1026,1027,1026,1027,1026,1027,0,0,0,0
</chunk>
   <chunk x="0" y="48" width="16" height="16">
0,0,0,0,0,0,0,0,0,0,1090,1091,1090,1091,1090,1091,
0,0,0,0,0,0,0,0,0,0,1026,1027,1026,1027,1026,1027,
0,0,0,0,0,0,0,0,0,0,1090,1091,1090,1091,1090,1091,
0,0,0,0,0,0,0,0,0,0,1026,1027,1026,1027,1026,1027,
0,0,0,0,0,0,0,0,575,575,1090,1091,1090,1091,1090,1091,
0,0,0,0,0,0,0,0,575,575,575,575,575,575,1092,1093,
0,0,0,0,0,0,0,0,0,0,0,0,0,0,0,0,
0,0,0,0,0,0,0,0,0,0,0,0,0,0,0,0,
0,0,0,0,0,0,0,0,0,0,0,0,0,0,0,0,
0,0,0,0,0,0,0,0,0,0,0,0,0,0,0,0,
0,0,0,0,0,0,0,0,0,0,0,0,0,0,0,0,
0,0,0,0,0,0,0,0,0,0,0,0,0,0,0,0,
0,0,0,0,0,0,0,0,0,0,0,0,0,0,0,0,
0,0,0,0,0,0,0,0,0,0,0,0,0,0,0,0,
0,0,0,0,0,0,0,0,0,0,0,0,0,0,0,0,
0,0,0,0,0,0,0,0,0,0,0,0,0,0,0,0
</chunk>
   <chunk x="16" y="48" width="16" height="16">
1090,1091,1090,1091,1090,1091,1090,1091,1090,1091,1090,1091,0,0,0,0,
1026,1027,1026,1027,1026,1027,1026,1027,1026,1027,1026,1027,0,0,0,0,
1090,1091,1090,1091,1090,1091,1090,1091,1090,1091,1090,1091,0,0,0,0,
1026,1027,1026,1027,1026,1027,1026,1027,1026,1027,1026,1027,0,0,0,0,
1090,1091,1090,1091,1090,1091,1090,1091,1090,1091,1090,1091,575,575,0,0,
1094,575,575,575,575,575,575,575,575,575,575,575,575,575,0,0,
0,0,0,0,0,0,0,0,0,0,0,0,0,0,0,0,
0,0,0,0,0,0,0,0,0,0,0,0,0,0,0,0,
0,0,0,0,0,0,0,0,0,0,0,0,0,0,0,0,
0,0,0,0,0,0,0,0,0,0,0,0,0,0,0,0,
0,0,0,0,0,0,0,0,0,0,0,0,0,0,0,0,
0,0,0,0,0,0,0,0,0,0,0,0,0,0,0,0,
0,0,0,0,0,0,0,0,0,0,0,0,0,0,0,0,
0,0,0,0,0,0,0,0,0,0,0,0,0,0,0,0,
0,0,0,0,0,0,0,0,0,0,0,0,0,0,0,0,
0,0,0,0,0,0,0,0,0,0,0,0,0,0,0,0
</chunk>
  </data>
 </layer>
 <layer id="206" name="Floor_B_1" width="32" height="32">
  <data encoding="csv">
   <chunk x="0" y="48" width="16" height="16">
0,0,0,0,0,0,0,0,0,0,0,0,0,0,0,0,
0,0,0,0,0,0,0,0,0,0,0,0,0,0,0,0,
0,0,0,0,0,0,0,0,0,0,0,0,0,0,0,0,
0,0,0,0,0,0,0,0,0,0,0,0,0,0,0,0,
0,0,0,0,0,0,0,0,0,0,0,0,0,0,1028,1029,
0,0,0,0,0,0,0,0,0,0,0,0,0,0,0,0,
0,0,0,0,0,0,0,0,0,0,0,0,0,0,0,0,
0,0,0,0,0,0,0,0,0,0,0,0,0,0,0,0,
0,0,0,0,0,0,0,0,0,0,0,0,0,0,0,0,
0,0,0,0,0,0,0,0,0,0,0,0,0,0,0,0,
0,0,0,0,0,0,0,0,0,0,0,0,0,0,0,0,
0,0,0,0,0,0,0,0,0,0,0,0,0,0,0,0,
0,0,0,0,0,0,0,0,0,0,0,0,0,0,0,0,
0,0,0,0,0,0,0,0,0,0,0,0,0,0,0,0,
0,0,0,0,0,0,0,0,0,0,0,0,0,0,0,0,
0,0,0,0,0,0,0,0,0,0,0,0,0,0,0,0
</chunk>
   <chunk x="16" y="48" width="16" height="16">
0,0,0,0,0,0,0,0,0,0,0,0,0,0,0,0,
0,0,0,0,0,0,0,0,0,0,0,0,0,0,0,0,
0,0,0,0,0,0,0,0,0,0,0,0,0,0,0,0,
0,0,0,0,0,0,0,0,0,0,0,0,0,0,0,0,
1030,0,0,0,0,0,0,0,0,0,0,0,0,0,0,0,
0,0,0,0,0,0,0,0,0,0,0,0,0,0,0,0,
0,0,0,0,0,0,0,0,0,0,0,0,0,0,0,0,
0,0,0,0,0,0,0,0,0,0,0,0,0,0,0,0,
0,0,0,0,0,0,0,0,0,0,0,0,0,0,0,0,
0,0,0,0,0,0,0,0,0,0,0,0,0,0,0,0,
0,0,0,0,0,0,0,0,0,0,0,0,0,0,0,0,
0,0,0,0,0,0,0,0,0,0,0,0,0,0,0,0,
0,0,0,0,0,0,0,0,0,0,0,0,0,0,0,0,
0,0,0,0,0,0,0,0,0,0,0,0,0,0,0,0,
0,0,0,0,0,0,0,0,0,0,0,0,0,0,0,0,
0,0,0,0,0,0,0,0,0,0,0,0,0,0,0,0
</chunk>
  </data>
 </layer>
 <layer id="221" name="Wall_A_1" width="32" height="32">
  <data encoding="csv">
   <chunk x="0" y="0" width="16" height="16">
0,0,0,0,0,0,0,0,0,0,0,0,0,0,0,0,
0,0,0,0,0,0,0,0,0,0,0,0,0,0,0,0,
0,0,0,0,0,0,0,0,0,0,0,0,0,0,0,0,
0,0,0,0,0,0,0,0,0,0,0,0,0,0,0,0,
0,0,0,0,0,0,0,0,0,0,0,0,0,0,0,0,
0,0,0,0,0,0,0,0,0,0,0,0,0,0,0,0,
0,0,0,0,0,0,0,0,0,0,0,0,0,0,0,0,
0,0,0,0,0,0,0,0,0,0,0,0,0,0,0,0,
0,0,0,0,0,0,0,0,0,0,645,646,643,644,645,646,
0,0,0,0,0,0,0,0,0,0,709,710,707,708,709,710,
0,0,0,0,0,0,0,0,0,0,773,774,771,772,773,774,
0,0,0,0,0,0,0,0,0,0,837,838,835,836,837,838,
0,0,0,0,0,0,0,0,0,0,901,902,899,900,901,902,
0,0,0,0,0,0,0,0,0,0,0,0,0,0,0,0,
0,0,0,0,0,0,0,0,0,0,0,0,0,0,0,0,
0,0,0,0,0,0,0,0,0,0,0,0,0,0,0,0
</chunk>
   <chunk x="16" y="0" width="16" height="16">
0,0,0,0,0,0,0,0,0,0,0,0,0,0,0,0,
0,0,0,0,0,0,0,0,0,0,0,0,0,0,0,0,
0,0,0,0,0,0,0,0,0,0,0,0,0,0,0,0,
0,0,0,0,0,0,0,0,0,0,0,0,0,0,0,0,
0,0,0,0,0,0,0,0,0,0,0,0,0,0,0,0,
0,0,0,0,0,0,0,0,0,0,0,0,0,0,0,0,
0,0,0,0,0,0,0,0,0,0,0,0,0,0,0,0,
0,0,0,0,0,0,0,0,0,0,0,0,0,0,0,0,
643,644,645,646,643,644,645,646,643,644,645,646,643,644,645,646,
707,708,709,710,707,708,709,710,707,708,709,710,707,708,709,710,
771,772,773,774,771,772,773,774,771,772,773,774,771,772,773,774,
835,836,837,838,835,836,837,838,835,836,837,838,835,836,837,838,
899,900,901,902,899,900,901,902,899,900,901,902,899,900,901,902,
0,0,0,0,0,0,0,0,0,0,0,0,0,0,0,0,
0,0,0,0,0,0,0,0,0,0,0,0,0,0,0,0,
0,0,0,0,0,0,0,0,0,0,0,0,0,0,0,0
</chunk>
   <chunk x="32" y="0" width="16" height="16">
0,0,0,0,0,0,0,0,0,0,0,0,0,0,0,0,
0,0,0,0,0,0,0,0,0,0,0,0,0,0,0,0,
0,0,0,0,0,0,0,0,0,0,0,0,0,0,0,0,
0,0,0,0,0,0,0,0,0,0,0,0,0,0,0,0,
0,0,0,0,0,0,0,0,0,0,0,0,0,0,0,0,
0,0,0,0,0,0,0,0,0,0,0,0,0,0,0,0,
0,0,0,0,0,0,0,0,0,0,0,0,0,0,0,0,
0,0,0,0,0,0,0,0,0,0,0,0,0,0,0,0,
643,644,645,646,643,644,645,646,643,644,0,0,0,0,0,0,
707,708,709,710,707,708,709,710,707,708,0,0,0,0,0,0,
771,772,773,774,771,772,773,774,771,772,0,0,0,0,0,0,
835,836,837,838,835,836,837,838,835,836,0,0,0,0,0,0,
899,900,901,902,899,900,901,902,899,900,0,0,0,0,0,0,
0,0,0,0,0,0,0,0,0,0,0,0,0,0,0,0,
0,0,0,0,0,0,0,0,0,0,0,0,0,0,0,0,
0,0,0,0,0,0,0,0,0,0,0,0,0,0,0,0
</chunk>
   <chunk x="0" y="32" width="16" height="16">
0,0,0,0,0,0,0,0,0,0,0,0,0,0,0,0,
0,0,0,0,0,0,0,0,0,0,0,0,0,0,0,0,
0,0,0,0,0,0,0,0,0,0,640,639,640,639,640,639,
0,0,0,0,0,0,0,0,0,0,704,703,704,703,704,703,
0,0,0,0,0,0,0,0,0,0,768,767,768,767,768,767,
0,0,0,0,0,0,0,0,0,0,0,0,0,0,0,0,
0,0,0,0,0,0,0,0,0,0,0,0,0,0,0,0,
0,0,0,0,0,0,0,0,0,0,0,0,0,0,0,0,
0,0,0,0,0,0,0,0,0,0,0,0,0,0,0,0,
0,0,0,0,0,0,0,0,0,0,0,0,0,0,0,0,
0,0,0,0,0,0,0,0,0,0,0,0,0,0,0,0,
0,0,0,0,0,0,0,0,0,0,0,0,0,0,0,0,
0,0,0,0,0,0,0,0,0,0,0,0,0,0,0,0,
0,0,0,0,0,0,0,0,0,0,0,0,0,0,0,0,
0,0,0,0,0,0,0,0,0,0,0,0,1732,0,0,0,
0,0,0,0,0,0,0,0,0,0,0,0,0,0,0,0
</chunk>
   <chunk x="16" y="32" width="16" height="16">
0,0,0,0,0,0,0,0,0,0,0,0,0,0,0,0,
0,0,0,0,0,0,0,0,0,0,0,0,0,0,0,0,
640,639,0,0,0,0,0,0,0,0,0,0,0,0,0,0,
704,703,0,0,0,0,0,0,0,0,0,0,0,0,0,0,
768,767,0,0,0,0,0,0,0,0,0,0,0,0,0,0,
0,0,0,0,0,0,0,0,0,0,0,0,0,0,0,0,
0,0,0,0,0,0,0,0,0,0,0,0,0,0,0,0,
0,0,0,0,0,0,0,0,0,0,0,0,0,0,0,0,
0,0,0,0,640,639,640,639,640,639,640,639,0,0,0,0,
0,0,0,0,704,703,704,703,704,703,704,703,0,0,0,0,
0,0,0,0,768,767,768,767,768,767,768,767,0,0,0,0,
0,0,0,0,0,0,0,0,0,0,0,0,0,0,0,0,
0,0,0,0,0,0,0,0,0,0,0,0,0,0,0,0,
0,0,0,0,0,0,0,0,0,0,0,0,0,0,0,0,
0,0,1732,0,0,0,0,0,0,0,0,0,0,0,0,0,
0,0,0,0,0,0,0,0,0,0,0,0,0,0,0,0
</chunk>
   <chunk x="0" y="48" width="16" height="16">
0,0,0,0,0,0,0,0,0,0,0,0,0,0,0,0,
0,0,0,0,0,0,0,0,0,0,0,0,0,0,0,0,
0,0,0,0,0,0,0,0,0,0,0,0,1732,0,0,0,
0,0,0,0,0,0,0,0,0,0,0,0,0,0,0,0,
0,0,0,0,0,0,0,0,0,0,0,0,0,0,0,0,
0,0,0,0,0,0,0,0,0,0,0,0,0,0,0,0,
0,0,0,0,0,0,0,0,0,0,0,0,0,0,0,0,
0,0,0,0,0,0,0,0,0,0,0,0,0,0,0,0,
0,0,0,0,0,0,0,0,0,0,0,0,0,0,0,0,
0,0,0,0,0,0,0,0,0,0,0,0,0,0,0,0,
0,0,0,0,0,0,0,0,0,0,0,0,0,0,0,0,
0,0,0,0,0,0,0,0,0,0,0,0,0,0,0,0,
0,0,0,0,0,0,0,0,0,0,0,0,0,0,0,0,
0,0,0,0,0,0,0,0,0,0,0,0,0,0,0,0,
0,0,0,0,0,0,0,0,0,0,0,0,0,0,0,0,
0,0,0,0,0,0,0,0,0,0,0,0,0,0,0,0
</chunk>
   <chunk x="16" y="48" width="16" height="16">
0,0,0,0,0,0,0,0,0,0,0,0,0,0,0,0,
0,0,0,0,0,0,0,0,0,0,0,0,0,0,0,0,
0,0,1732,0,0,0,0,0,0,0,0,0,0,0,0,0,
0,0,0,0,0,0,0,0,0,0,0,0,0,0,0,0,
0,0,0,0,0,0,0,0,0,0,0,0,0,0,0,0,
0,0,0,0,0,0,0,0,0,0,0,0,0,0,0,0,
0,0,0,0,0,0,0,0,0,0,0,0,0,0,0,0,
0,0,0,0,0,0,0,0,0,0,0,0,0,0,0,0,
0,0,0,0,0,0,0,0,0,0,0,0,0,0,0,0,
0,0,0,0,0,0,0,0,0,0,0,0,0,0,0,0,
0,0,0,0,0,0,0,0,0,0,0,0,0,0,0,0,
0,0,0,0,0,0,0,0,0,0,0,0,0,0,0,0,
0,0,0,0,0,0,0,0,0,0,0,0,0,0,0,0,
0,0,0,0,0,0,0,0,0,0,0,0,0,0,0,0,
0,0,0,0,0,0,0,0,0,0,0,0,0,0,0,0,
0,0,0,0,0,0,0,0,0,0,0,0,0,0,0,0
</chunk>
  </data>
 </layer>
 <layer id="222" name="Wall_B_1" width="32" height="32">
  <data encoding="csv">
   <chunk x="0" y="0" width="16" height="16">
0,0,0,0,0,0,0,0,0,0,0,0,0,0,0,0,
0,0,0,0,0,0,0,0,0,0,0,0,0,0,0,0,
0,0,0,0,0,0,0,0,0,0,0,0,0,0,0,0,
0,0,0,0,0,0,0,0,0,0,0,0,0,0,0,0,
0,0,0,0,0,0,0,0,0,0,0,0,0,0,0,0,
0,0,0,0,0,0,0,0,0,0,0,0,0,0,0,0,
0,0,0,0,0,0,0,0,0,0,0,0,0,0,0,0,
0,0,0,0,0,0,0,0,0,0,0,0,0,0,0,0,
0,0,0,0,0,0,0,0,0,0,0,0,0,0,0,0,
0,0,0,0,0,0,0,0,0,0,0,0,0,0,0,0,
0,0,0,0,0,0,0,0,0,0,0,0,963,964,965,966,
0,0,0,0,0,0,0,0,0,0,0,0,0,0,0,0,
0,0,0,0,0,0,0,0,0,0,0,0,0,0,0,0,
0,0,0,0,0,0,0,0,0,0,0,0,0,0,0,0,
0,0,0,0,0,0,0,0,0,0,0,0,0,0,0,0,
0,0,0,0,0,0,0,0,0,0,0,0,0,0,0,0
</chunk>
   <chunk x="16" y="0" width="16" height="16">
0,0,0,0,0,0,0,0,0,0,0,0,0,0,0,0,
0,0,0,0,0,0,0,0,0,0,0,0,0,0,0,0,
0,0,0,0,0,0,0,0,0,0,0,0,0,0,0,0,
0,0,0,0,0,0,0,0,0,0,0,0,0,0,0,0,
0,0,0,0,0,0,0,0,0,0,0,0,0,0,0,0,
0,0,0,0,0,0,0,0,0,0,0,0,0,0,0,0,
0,0,0,0,0,0,0,0,0,0,0,0,0,0,0,0,
0,0,0,0,0,0,0,0,0,0,0,0,0,0,0,0,
0,0,0,0,0,0,0,0,0,0,0,0,0,0,0,0,
0,0,0,0,0,0,0,0,0,0,0,0,0,0,0,0,
0,0,0,0,0,0,0,0,0,0,0,0,963,964,965,966,
0,0,0,0,0,0,0,0,0,0,0,0,0,0,0,0,
0,0,0,0,0,0,0,0,0,0,0,0,0,0,0,0,
0,0,0,0,0,0,0,0,0,0,0,0,0,0,0,0,
0,0,0,0,0,0,0,0,0,0,0,0,0,0,0,0,
0,0,0,0,0,0,0,0,0,0,0,0,0,0,0,0
</chunk>
   <chunk x="16" y="32" width="16" height="16">
0,0,0,0,0,0,0,0,0,0,0,0,0,0,0,0,
0,0,0,0,0,0,0,0,0,0,0,0,0,0,0,0,
0,0,0,0,0,0,0,0,0,0,0,0,0,0,0,0,
0,0,0,0,0,0,0,0,0,0,0,0,0,0,0,0,
0,0,0,0,0,0,0,0,0,0,0,0,0,0,0,0,
0,0,0,0,0,0,0,0,0,0,0,0,0,0,0,0,
0,0,0,0,0,0,0,0,0,0,0,0,0,0,0,0,
0,0,0,0,0,0,0,0,0,0,0,0,0,0,0,0,
0,0,0,0,0,0,0,0,0,0,0,0,0,0,0,0,
0,0,0,0,0,0,0,770,0,0,0,0,0,0,0,0,
0,0,0,0,0,0,0,834,0,0,0,0,0,0,0,0,
0,0,0,0,0,0,0,0,0,0,0,0,0,0,0,0,
0,0,0,0,0,0,0,0,0,0,0,0,0,0,0,0,
0,0,0,0,0,0,0,0,0,0,0,0,0,0,0,0,
0,0,0,0,0,0,0,0,0,0,0,0,0,0,0,0,
0,0,0,0,0,0,0,0,0,0,0,0,0,0,0,0
</chunk>
  </data>
 </layer>
 <layer id="223" name="Wall_C_1" width="32" height="32">
  <data encoding="csv"/>
 </layer>
 <layer id="207" name="Shadow_A_1" width="32" height="32">
  <data encoding="csv">
   <chunk x="0" y="32" width="16" height="16">
0,0,0,0,0,0,0,0,0,0,0,0,0,0,0,0,
0,0,0,0,0,0,0,0,0,0,0,0,0,0,0,0,
0,0,0,0,0,0,0,0,0,0,0,0,0,0,0,0,
0,0,0,0,0,0,0,0,0,0,0,0,0,0,0,0,
0,0,0,0,0,0,0,0,0,0,0,0,0,0,0,0,
0,0,0,0,0,0,0,0,0,0,0,1024,1024,1024,1024,1024,
0,0,0,0,0,0,0,0,0,0,0,0,0,0,0,0,
0,0,0,0,0,0,0,0,0,0,0,0,0,0,0,0,
0,0,0,0,0,0,0,0,0,0,0,0,0,0,0,0,
0,0,0,0,0,0,0,0,0,0,0,0,0,1025,0,0,
0,0,0,0,0,0,0,0,0,0,0,0,0,1089,0,0,
0,0,0,0,0,0,0,0,0,0,1087,1024,1024,1088,0,0,
0,0,0,0,0,0,0,0,0,0,1087,0,0,0,0,0,
0,0,0,0,0,0,0,0,0,0,1087,1667,0,1669,0,0,
0,0,0,0,0,0,0,0,0,0,1087,1731,0,1733,0,0,
0,0,0,0,0,0,0,0,0,0,1087,0,0,0,0,0
</chunk>
   <chunk x="16" y="32" width="16" height="16">
0,0,0,0,0,0,0,0,0,0,0,0,0,0,0,0,
0,0,0,0,0,0,0,0,0,0,0,0,0,0,0,0,
0,0,0,0,0,0,0,0,0,0,0,0,0,0,0,0,
0,0,0,0,0,0,0,0,0,0,0,0,0,0,0,0,
0,0,0,0,0,0,0,0,0,0,0,0,0,0,0,0,
1024,1024,0,0,0,0,0,0,0,0,0,0,0,0,0,0,
0,0,0,0,0,0,0,0,0,0,0,0,0,0,0,0,
0,0,0,0,0,0,0,0,0,0,0,0,0,0,0,0,
0,0,0,0,0,0,0,0,0,0,0,0,0,0,0,0,
0,0,0,0,0,0,0,0,0,0,0,0,0,0,0,0,
0,0,0,0,0,0,0,0,0,0,0,0,0,0,0,0,
0,0,1023,1024,1024,1024,1024,1024,1024,1024,1024,1024,0,0,0,0,
0,0,0,0,0,0,0,0,0,0,0,0,0,0,0,0,
0,1667,0,1669,0,0,0,0,0,0,0,0,0,0,0,0,
0,1731,0,1733,0,0,0,0,0,0,0,0,0,0,0,0,
0,0,0,0,0,0,0,0,0,0,0,0,0,0,0,0
</chunk>
   <chunk x="0" y="48" width="16" height="16">
0,0,0,0,0,0,0,0,0,0,1087,0,0,0,0,0,
0,0,0,0,0,0,0,0,0,0,1087,1667,0,1669,0,0,
0,0,0,0,0,0,0,0,0,0,1087,1731,0,1733,0,0,
0,0,0,0,0,0,0,0,0,0,1087,0,0,0,0,0,
0,0,0,0,0,0,0,0,0,0,1087,0,0,0,0,0,
0,0,0,0,0,0,0,0,0,0,0,0,0,0,0,0,
0,0,0,0,0,0,0,0,0,0,0,0,0,0,0,0,
0,0,0,0,0,0,0,0,0,0,0,0,0,0,0,0,
0,0,0,0,0,0,0,0,0,0,0,0,0,0,0,0,
0,0,0,0,0,0,0,0,0,0,0,0,0,0,0,0,
0,0,0,0,0,0,0,0,0,0,0,0,0,0,0,0,
0,0,0,0,0,0,0,0,0,0,0,0,0,0,0,0,
0,0,0,0,0,0,0,0,0,0,0,0,0,0,0,0,
0,0,0,0,0,0,0,0,0,0,0,0,0,0,0,0,
0,0,0,0,0,0,0,0,0,0,0,0,0,0,0,0,
0,0,0,0,0,0,0,0,0,0,0,0,0,0,0,0
</chunk>
   <chunk x="16" y="48" width="16" height="16">
0,0,0,0,0,0,0,0,0,0,0,0,0,0,0,0,
0,1667,0,1669,0,0,1664,1665,1666,0,0,0,0,0,0,0,
0,1731,0,1733,0,0,0,1729,0,0,0,0,0,0,0,0,
0,0,0,0,0,0,0,0,0,0,0,0,0,0,0,0,
0,0,0,0,0,0,0,0,0,0,0,0,0,0,0,0,
0,0,0,0,0,0,0,0,0,0,0,0,0,0,0,0,
0,0,0,0,0,0,0,0,0,0,0,0,0,0,0,0,
0,0,0,0,0,0,0,0,0,0,0,0,0,0,0,0,
0,0,0,0,0,0,0,0,0,0,0,0,0,0,0,0,
0,0,0,0,0,0,0,0,0,0,0,0,0,0,0,0,
0,0,0,0,0,0,0,0,0,0,0,0,0,0,0,0,
0,0,0,0,0,0,0,0,0,0,0,0,0,0,0,0,
0,0,0,0,0,0,0,0,0,0,0,0,0,0,0,0,
0,0,0,0,0,0,0,0,0,0,0,0,0,0,0,0,
0,0,0,0,0,0,0,0,0,0,0,0,0,0,0,0,
0,0,0,0,0,0,0,0,0,0,0,0,0,0,0,0
</chunk>
  </data>
 </layer>
 <layer id="43" name="Props_A_1" width="32" height="32">
  <data encoding="csv">
   <chunk x="0" y="16" width="16" height="16">
0,0,0,0,0,0,0,0,0,0,0,0,0,0,0,0,
0,0,0,0,0,0,0,0,0,0,2303,2304,2305,2304,2305,2304,
0,0,0,0,0,0,0,0,0,0,2367,2368,2369,2368,2369,2368,
0,0,0,0,0,0,0,0,0,0,0,0,0,0,0,0,
0,0,0,0,0,0,0,0,0,0,0,0,0,0,0,0,
0,0,0,0,0,0,0,0,0,0,0,0,0,0,0,0,
0,0,0,0,0,0,0,0,0,0,0,0,0,0,0,0,
0,0,0,0,0,0,0,0,0,0,0,0,0,0,0,0,
0,0,0,0,0,0,0,0,0,0,0,0,0,0,0,0,
0,0,0,0,0,0,0,0,0,0,0,0,0,0,0,0,
0,0,0,0,0,0,0,0,0,0,0,0,0,0,0,0,
0,0,0,0,0,0,0,0,0,0,0,0,0,0,0,0,
0,0,0,0,0,0,0,0,0,0,0,0,0,0,0,0,
0,0,0,0,0,0,0,0,0,0,0,0,0,0,0,0,
0,0,0,0,0,0,0,0,0,0,0,0,0,0,0,0,
0,0,0,0,0,0,0,0,0,0,0,0,0,0,0,0
</chunk>
   <chunk x="16" y="16" width="16" height="16">
0,0,0,0,0,0,0,0,0,0,0,0,0,0,0,0,
2305,2304,2305,2304,2305,2304,2305,2304,2305,2304,2306,0,2303,2304,2305,2304,
2369,2368,2369,2368,2369,2368,2369,2368,2369,2368,2370,0,2367,2368,2369,2368,
0,0,0,0,0,0,0,0,0,0,0,0,0,0,0,0,
0,0,2181,2182,0,0,0,0,0,0,0,0,0,0,0,0,
0,0,0,0,0,0,0,0,0,0,0,0,0,0,0,0,
0,0,0,0,0,0,0,0,0,0,0,0,0,0,0,0,
0,0,0,0,0,0,0,0,0,0,0,0,0,0,0,0,
0,0,0,0,0,0,0,0,0,0,0,0,0,0,0,0,
0,0,0,0,0,0,0,0,0,0,0,0,0,0,0,0,
0,0,0,0,0,0,0,0,0,0,0,0,0,0,0,0,
0,0,0,0,0,0,0,0,0,0,0,0,0,0,0,0,
0,0,0,0,0,0,0,0,0,0,0,0,0,0,0,0,
0,0,0,0,0,0,0,0,0,0,0,0,0,0,0,0,
0,0,0,0,0,0,0,0,0,0,0,0,0,0,0,0,
0,0,0,0,0,0,0,0,0,0,0,0,0,0,0,0
</chunk>
   <chunk x="32" y="16" width="16" height="16">
0,0,0,0,0,0,0,0,0,0,0,0,0,0,0,0,
2305,2304,2306,0,2303,2304,2305,2304,2305,2304,0,0,0,0,0,0,
2369,2368,2370,0,2367,2368,2369,2368,2369,2368,0,0,0,0,0,0,
0,0,0,0,0,0,0,0,0,0,0,0,0,0,0,0,
0,0,0,0,0,0,0,0,0,0,0,0,0,0,0,0,
0,0,0,0,0,0,0,0,0,0,0,0,0,0,0,0,
0,0,0,0,0,0,0,0,0,0,0,0,0,0,0,0,
0,0,0,0,0,0,0,0,0,0,0,0,0,0,0,0,
0,0,0,0,0,0,0,0,0,0,0,0,0,0,0,0,
0,0,0,0,0,0,0,0,0,0,0,0,0,0,0,0,
0,0,0,0,0,0,0,0,0,0,0,0,0,0,0,0,
0,0,0,0,0,0,0,0,0,0,0,0,0,0,0,0,
0,0,0,0,0,0,0,0,0,0,0,0,0,0,0,0,
0,0,0,0,0,0,0,0,0,0,0,0,0,0,0,0,
0,0,0,0,0,0,0,0,0,0,0,0,0,0,0,0,
0,0,0,0,0,0,0,0,0,0,0,0,0,0,0,0
</chunk>
   <chunk x="0" y="32" width="16" height="16">
0,0,0,0,0,0,0,0,0,0,0,0,0,0,0,0,
0,0,0,0,0,0,0,0,0,0,0,0,0,0,0,0,
0,0,0,0,0,0,0,0,0,0,0,0,0,0,0,0,
0,0,0,0,0,0,0,0,0,0,1797,0,0,0,0,0,
0,0,0,0,0,0,0,0,0,0,1861,1862,0,0,0,0,
0,0,0,0,0,0,0,0,0,0,1925,1926,1795,0,0,0,
0,0,0,0,0,0,0,0,0,0,1989,1990,1859,0,0,0,
0,0,0,0,0,0,0,0,0,0,2053,2054,0,0,0,0,
0,0,0,0,0,0,0,0,0,0,0,0,0,0,1477,1478,
0,0,0,0,0,0,0,0,0,0,0,0,0,1476,1541,1542,
0,0,0,0,0,0,0,0,0,0,0,0,0,0,1605,1606,
0,0,0,0,0,0,0,0,0,0,1727,0,0,0,0,0,
0,0,0,0,0,0,0,0,0,0,0,0,0,0,0,0,
0,0,0,0,0,0,0,0,0,0,0,0,0,0,0,0,
0,0,0,0,0,0,0,0,0,0,0,0,0,0,0,0,
0,0,0,0,0,0,0,0,0,0,0,0,0,0,0,0
</chunk>
   <chunk x="16" y="32" width="16" height="16">
0,0,0,0,0,0,0,0,0,0,0,0,0,0,0,0,
0,0,0,0,0,0,0,0,0,0,0,0,0,0,0,0,
0,0,0,0,0,0,0,0,0,0,0,0,0,0,0,0,
0,0,0,0,0,0,0,0,0,0,0,0,0,0,0,0,
0,0,0,0,0,0,0,0,0,0,0,0,0,0,0,0,
0,0,0,0,0,0,0,0,0,0,0,0,0,0,0,0,
0,0,0,0,0,0,0,0,0,0,0,0,0,0,0,0,
0,0,0,0,0,0,0,0,0,0,0,0,0,0,0,0,
1477,1478,0,0,0,0,0,0,0,0,0,0,0,0,0,0,
1541,1542,0,0,0,0,0,0,0,0,0,0,0,0,0,0,
1605,1606,0,0,0,0,0,0,0,0,0,0,0,0,0,0,
0,0,0,0,0,0,0,0,0,1727,1727,1727,0,0,0,0,
0,0,0,0,0,0,0,0,0,0,0,0,0,0,0,0,
0,0,0,0,0,0,0,0,0,1728,0,1728,0,0,0,0,
0,0,0,0,0,0,0,0,0,1728,0,1728,0,0,0,0,
0,0,0,0,0,0,0,0,0,0,0,0,0,0,0,0
</chunk>
   <chunk x="0" y="48" width="16" height="16">
0,0,0,0,0,0,0,0,0,0,0,0,0,0,0,0,
0,0,0,0,0,0,0,0,0,0,0,0,0,0,0,0,
0,0,0,0,0,0,0,0,0,0,0,0,0,0,0,0,
0,0,0,0,0,0,0,0,0,0,0,0,0,0,0,0,
0,0,0,0,0,0,0,0,0,0,1727,0,0,0,0,0,
0,0,0,0,0,0,0,0,0,0,0,0,0,0,0,0,
0,0,0,0,0,0,0,0,0,0,0,0,0,0,0,0,
0,0,0,0,0,0,0,0,0,0,0,0,0,0,0,0,
0,0,0,0,0,0,0,0,0,0,0,0,0,0,0,0,
0,0,0,0,0,0,0,0,0,0,0,0,0,0,0,0,
0,0,0,0,0,0,0,0,0,0,0,0,0,0,0,0,
0,0,0,0,0,0,0,0,0,0,0,0,0,0,0,0,
0,0,0,0,0,0,0,0,0,0,0,0,0,0,0,0,
0,0,0,0,0,0,0,0,0,0,0,0,0,0,0,0,
0,0,0,0,0,0,0,0,0,0,0,0,0,0,0,0,
0,0,0,0,0,0,0,0,0,0,0,0,0,0,0,0
</chunk>
   <chunk x="16" y="48" width="16" height="16">
0,0,0,0,0,1599,1600,1601,0,1728,0,1728,0,0,0,0,
0,0,0,0,0,0,0,0,0,1728,0,1728,0,0,0,0,
0,0,0,0,0,0,0,0,0,0,0,0,0,0,0,0,
0,0,0,0,0,0,0,0,0,0,0,0,0,0,0,0,
0,0,0,0,0,0,0,0,0,1727,1727,1727,0,0,0,0,
0,0,0,0,0,0,0,0,0,0,0,0,0,0,0,0,
0,0,0,0,0,0,0,0,0,0,0,0,0,0,0,0,
0,0,0,0,0,0,0,0,0,0,0,0,0,0,0,0,
0,0,0,0,0,0,0,0,0,0,0,0,0,0,0,0,
0,0,0,0,0,0,0,0,0,0,0,0,0,0,0,0,
0,0,0,0,0,0,0,0,0,0,0,0,0,0,0,0,
0,0,0,0,0,0,0,0,0,0,0,0,0,0,0,0,
0,0,0,0,0,0,0,0,0,0,0,0,0,0,0,0,
0,0,0,0,0,0,0,0,0,0,0,0,0,0,0,0,
0,0,0,0,0,0,0,0,0,0,0,0,0,0,0,0,
0,0,0,0,0,0,0,0,0,0,0,0,0,0,0,0
</chunk>
  </data>
 </layer>
 <layer id="44" name="Props_B_1" width="32" height="32">
  <data encoding="csv">
   <chunk x="16" y="32" width="16" height="16">
0,0,0,0,0,0,0,0,0,0,0,0,0,0,0,0,
0,0,0,0,0,0,0,0,0,0,0,0,0,0,0,0,
0,0,0,0,0,0,0,0,0,0,0,0,0,0,0,0,
0,0,0,0,0,0,0,0,0,0,0,0,0,0,0,0,
0,0,0,0,0,0,0,0,0,0,0,0,0,0,0,0,
0,0,0,0,0,0,0,0,0,0,0,0,0,0,0,0,
0,0,0,0,0,0,0,0,0,0,0,0,0,0,0,0,
0,0,0,0,0,0,0,0,0,0,0,0,0,0,0,0,
0,0,0,0,0,0,0,0,0,0,0,0,0,0,0,0,
0,1474,0,0,0,0,0,0,0,0,0,0,0,0,0,0,
0,0,0,0,0,0,0,0,0,0,0,0,0,0,0,0,
0,0,0,0,0,0,0,0,0,0,0,0,0,0,0,0,
0,0,0,0,0,0,0,0,0,0,0,0,0,0,0,0,
0,0,0,0,0,0,0,0,0,0,0,0,0,0,0,0,
0,0,0,0,0,0,0,0,0,0,0,0,0,0,0,0,
0,0,0,0,0,0,0,0,0,0,0,0,0,0,0,0
</chunk>
  </data>
 </layer>
 <layer id="175" name="Props_C_1" width="32" height="32">
  <data encoding="csv"/>
 </layer>
 <layer id="211" name="Props_D_1" width="32" height="32">
  <data encoding="csv"/>
 </layer>
 <group id="4" name="Z=0"/>
 <layer id="208" name="Wall_A_2" width="32" height="32">
  <data encoding="csv">
   <chunk x="0" y="32" width="16" height="16">
0,0,0,0,0,0,0,0,0,0,0,0,0,0,0,0,
0,0,0,0,0,0,0,0,0,0,0,0,0,0,0,0,
0,0,0,0,0,0,0,0,0,0,0,0,0,0,0,0,
0,0,0,0,0,0,0,0,0,0,0,0,0,0,0,0,
0,0,0,0,0,0,0,0,0,0,0,0,0,0,0,0,
0,0,0,0,0,0,0,0,0,0,0,0,0,0,0,0,
0,0,0,0,0,0,0,0,0,0,0,0,0,0,0,0,
0,0,0,0,0,0,0,0,0,0,0,0,0,0,0,0,
0,0,0,0,0,0,0,0,0,0,0,0,0,0,0,0,
0,0,0,0,0,0,0,0,0,0,0,0,0,0,0,0,
0,0,0,0,0,0,0,0,0,0,768,767,768,0,0,0,
0,0,0,0,0,0,0,0,0,0,0,0,0,0,0,0,
0,0,0,0,0,0,0,0,0,0,0,0,0,0,0,0,
0,0,0,0,0,0,0,0,0,0,0,0,0,0,0,0,
0,0,0,0,0,0,0,0,0,0,0,0,0,0,0,0,
0,0,0,0,0,0,0,0,0,0,0,0,0,0,0,0
</chunk>
   <chunk x="16" y="32" width="16" height="16">
0,0,0,0,0,0,0,0,0,0,0,0,0,0,0,0,
0,0,0,0,0,0,0,0,0,0,0,0,0,0,0,0,
0,0,0,0,0,0,0,0,0,0,0,0,0,0,0,0,
0,0,0,0,0,0,0,0,0,0,0,0,0,0,0,0,
0,0,0,0,0,0,0,0,0,0,0,0,0,0,0,0,
0,0,0,0,0,0,0,0,0,0,0,0,0,0,0,0,
0,0,0,0,0,0,0,0,0,0,0,0,0,0,0,0,
0,0,0,0,0,0,0,0,0,0,0,0,0,0,0,0,
0,0,0,0,0,0,0,0,0,0,0,0,0,0,0,0,
0,0,0,0,0,0,0,0,0,0,0,0,0,0,0,0,
0,0,768,767,0,0,0,0,0,0,0,0,0,0,0,0,
0,0,0,0,0,0,0,0,0,0,0,0,0,0,0,0,
0,0,0,0,0,0,0,0,0,0,0,0,0,0,0,0,
0,0,0,0,0,0,0,0,0,0,0,0,0,0,0,0,
0,0,0,0,0,0,0,0,0,0,0,0,0,0,0,0,
0,0,0,0,0,0,0,0,0,0,0,0,0,0,0,0
</chunk>
  </data>
 </layer>
 <layer id="210" name="Wall_B_2" width="32" height="32">
  <data encoding="csv">
   <chunk x="0" y="32" width="16" height="16">
0,0,0,0,0,0,0,0,0,0,0,0,0,0,0,0,
0,0,0,0,0,0,0,0,0,0,0,0,0,0,0,0,
0,0,0,0,0,0,0,0,0,0,0,0,0,0,0,0,
0,0,0,0,0,0,0,0,0,0,0,0,0,0,0,0,
0,0,0,0,0,0,0,0,0,0,0,0,0,0,0,0,
0,0,0,0,0,0,0,0,0,0,0,0,0,0,0,0,
0,0,0,0,0,0,0,0,0,0,0,0,0,0,0,0,
0,0,0,0,0,0,0,0,0,0,0,0,0,0,0,0,
0,0,0,0,0,0,0,0,0,0,0,0,0,0,0,0,
0,0,0,0,0,0,0,0,0,0,0,0,0,0,0,0,
0,0,0,0,0,0,0,0,0,0,959,960,961,0,0,0,
0,0,0,0,0,0,0,0,0,0,0,0,0,0,0,0,
0,0,0,0,0,0,0,0,0,0,0,0,0,0,0,0,
0,0,0,0,0,0,0,0,0,0,0,0,0,0,0,0,
0,0,0,0,0,0,0,0,0,0,0,0,0,0,0,0,
0,0,0,0,0,0,0,0,0,0,0,0,0,0,0,0
</chunk>
   <chunk x="16" y="32" width="16" height="16">
0,0,0,0,0,0,0,0,0,0,0,0,0,0,0,0,
0,0,0,0,0,0,0,0,0,0,0,0,0,0,0,0,
0,0,0,0,0,0,0,0,0,0,0,0,0,0,0,0,
0,0,0,0,0,0,0,0,0,0,0,0,0,0,0,0,
0,0,0,0,0,0,0,0,0,0,0,0,0,0,0,0,
0,0,0,0,0,0,0,0,0,0,0,0,0,0,0,0,
0,0,0,0,0,0,0,0,0,0,0,0,0,0,0,0,
0,0,0,0,0,0,0,0,0,0,0,0,0,0,0,0,
0,0,0,0,0,0,0,0,0,0,0,0,0,0,0,0,
0,0,0,0,0,0,0,0,0,0,0,0,0,0,0,0,
0,0,0,705,706,0,0,0,0,0,0,0,0,0,0,0,
0,0,0,0,0,0,0,0,0,0,0,0,0,0,0,0,
0,0,0,0,0,0,0,0,0,0,0,0,0,0,0,0,
0,0,0,0,0,0,0,0,0,0,0,0,0,0,0,0,
0,0,0,0,0,0,0,0,0,0,0,0,0,0,0,0,
0,0,0,0,0,0,0,0,0,0,0,0,0,0,0,0
</chunk>
  </data>
 </layer>
 <layer id="224" name="Wall_C_2" width="32" height="32">
  <data encoding="csv"/>
 </layer>
 <layer id="45" name="Props_A_2" width="32" height="32">
  <data encoding="csv">
   <chunk x="0" y="16" width="16" height="16">
0,0,0,0,0,0,0,0,0,0,2239,2240,2241,2240,2241,2240,
0,0,0,0,0,0,0,0,0,0,0,0,0,0,0,0,
0,0,0,0,0,0,0,0,0,0,0,0,0,0,0,0,
0,0,0,0,0,0,0,0,0,0,0,0,0,0,0,0,
0,0,0,0,0,0,0,0,0,0,0,0,0,0,0,0,
0,0,0,0,0,0,0,0,0,0,0,0,0,0,0,0,
0,0,0,0,0,0,0,0,0,0,0,0,0,0,0,0,
0,0,0,0,0,0,0,0,0,0,0,0,0,0,0,0,
0,0,0,0,0,0,0,0,0,0,0,0,0,0,0,0,
0,0,0,0,0,0,0,0,0,0,0,0,0,0,0,0,
0,0,0,0,0,0,0,0,0,0,0,0,0,0,0,0,
0,0,0,0,0,0,0,0,0,0,0,0,0,0,0,0,
0,0,0,0,0,0,0,0,0,0,0,0,0,0,0,0,
0,0,0,0,0,0,0,0,0,0,0,0,0,0,0,0,
0,0,0,0,0,0,0,0,0,0,0,0,0,0,0,0,
0,0,0,0,0,0,0,0,0,0,0,0,0,0,0,0
</chunk>
   <chunk x="16" y="16" width="16" height="16">
2241,2240,2241,2240,2241,2240,2241,2240,2241,2240,2242,0,2239,2240,2241,2240,
0,0,0,0,0,0,0,0,0,0,0,0,0,0,0,0,
0,0,0,0,0,0,0,0,0,0,0,0,0,0,0,0,
0,0,2117,2118,0,0,0,0,0,0,0,0,0,0,0,0,
0,0,2115,2116,0,0,0,0,0,0,0,0,0,0,0,0,
0,0,2179,2180,0,0,0,0,0,0,0,0,0,0,0,0,
0,0,0,0,0,0,0,0,0,0,0,0,0,0,0,0,
0,0,0,0,0,0,0,0,0,0,0,0,0,0,0,0,
0,0,0,0,0,0,0,0,0,0,0,0,0,0,0,0,
0,0,0,0,0,0,0,0,0,0,0,0,0,0,0,0,
0,0,0,0,0,0,0,0,0,0,0,0,0,0,0,0,
0,0,0,0,0,0,0,0,0,0,0,0,0,0,0,0,
0,0,0,0,0,0,0,0,0,0,0,0,0,0,0,0,
0,0,0,0,0,0,0,0,0,0,0,0,0,0,0,0,
0,0,0,0,0,0,0,0,0,0,0,0,0,0,0,0,
0,0,0,0,0,0,0,0,0,0,0,0,0,0,0,0
</chunk>
   <chunk x="32" y="16" width="16" height="16">
2241,2240,2242,0,2239,2240,2241,2240,2241,2240,0,0,0,0,0,0,
0,0,0,0,0,0,0,0,0,0,0,0,0,0,0,0,
0,0,0,0,0,0,0,0,0,0,0,0,0,0,0,0,
0,0,0,0,0,0,0,0,0,0,0,0,0,0,0,0,
0,0,0,0,0,0,0,0,0,0,0,0,0,0,0,0,
0,0,0,0,0,0,0,0,0,0,0,0,0,0,0,0,
0,0,0,0,0,0,0,0,0,0,0,0,0,0,0,0,
0,0,0,0,0,0,0,0,0,0,0,0,0,0,0,0,
0,0,0,0,0,0,0,0,0,0,0,0,0,0,0,0,
0,0,0,0,0,0,0,0,0,0,0,0,0,0,0,0,
0,0,0,0,0,0,0,0,0,0,0,0,0,0,0,0,
0,0,0,0,0,0,0,0,0,0,0,0,0,0,0,0,
0,0,0,0,0,0,0,0,0,0,0,0,0,0,0,0,
0,0,0,0,0,0,0,0,0,0,0,0,0,0,0,0,
0,0,0,0,0,0,0,0,0,0,0,0,0,0,0,0,
0,0,0,0,0,0,0,0,0,0,0,0,0,0,0,0
</chunk>
   <chunk x="0" y="32" width="16" height="16">
0,0,0,0,0,0,0,0,0,0,0,0,0,0,0,0,
0,0,0,0,0,0,0,0,0,0,0,0,0,0,0,0,
0,0,0,0,0,0,0,0,0,0,0,0,0,0,0,0,
0,0,0,0,0,0,0,0,0,0,0,0,0,0,0,0,
0,0,0,0,0,0,0,0,0,0,0,0,0,0,0,0,
0,0,0,0,0,0,0,0,0,0,1923,0,0,0,0,0,
0,0,0,0,0,0,0,0,0,0,1987,1988,0,0,0,0,
0,0,0,0,0,0,0,0,0,0,2051,2052,0,0,1413,0,
0,0,0,0,0,0,0,0,0,0,0,0,0,1412,0,0,
0,0,0,0,0,0,0,0,0,0,0,0,0,0,0,0,
0,0,0,0,0,0,0,0,0,0,1663,0,0,0,0,0,
0,0,0,0,0,0,0,0,0,0,0,0,0,0,0,0,
0,0,0,0,0,0,0,0,0,0,0,0,0,0,0,0,
0,0,0,0,0,0,0,0,0,0,0,0,0,0,0,0,
0,0,0,0,0,0,0,0,0,0,0,0,0,0,0,0,
0,0,0,0,0,0,0,0,0,0,0,0,0,0,0,0
</chunk>
   <chunk x="16" y="32" width="16" height="16">
0,0,0,0,0,0,0,0,0,0,0,0,0,0,0,0,
0,0,0,0,0,0,0,0,0,0,0,0,0,0,0,0,
0,0,0,0,0,0,0,0,0,0,0,0,0,0,0,0,
0,0,0,0,0,0,0,0,0,0,0,0,0,0,0,0,
0,0,0,0,0,0,0,0,0,0,0,0,0,0,0,0,
0,0,0,0,0,0,0,0,0,0,0,0,0,0,0,0,
0,0,0,0,0,0,0,0,0,0,0,0,0,0,0,0,
1413,0,0,0,0,0,0,0,0,0,0,0,0,0,0,0,
0,1410,0,0,0,0,0,0,0,0,0,0,0,0,0,0,
0,0,0,0,0,0,0,0,0,0,0,0,0,0,0,0,
0,0,0,0,0,0,0,0,0,1663,1663,1663,0,0,0,0,
0,0,0,0,0,0,0,0,0,0,0,0,0,0,0,0,
0,0,0,0,0,0,0,0,0,0,0,0,0,0,0,0,
0,0,0,0,0,0,0,0,0,0,0,0,0,0,0,0,
0,0,0,0,0,0,0,0,0,0,0,0,0,0,0,0,
0,0,0,0,0,0,1536,0,0,0,0,0,0,0,0,0
</chunk>
   <chunk x="0" y="48" width="16" height="16">
0,0,0,0,0,0,0,0,0,0,0,0,0,0,0,0,
0,0,0,0,0,0,0,0,0,0,0,0,0,0,0,0,
0,0,0,0,0,0,0,0,0,0,0,0,0,0,0,0,
0,0,0,0,0,0,0,0,0,0,1663,0,0,0,0,0,
0,0,0,0,0,0,0,0,0,0,0,0,0,0,0,0,
0,0,0,0,0,0,0,0,0,0,0,0,0,0,0,0,
0,0,0,0,0,0,0,0,0,0,0,0,0,0,0,0,
0,0,0,0,0,0,0,0,0,0,0,0,0,0,0,0,
0,0,0,0,0,0,0,0,0,0,0,0,0,0,0,0,
0,0,0,0,0,0,0,0,0,0,0,0,0,0,0,0,
0,0,0,0,0,0,0,0,0,0,0,0,0,0,0,0,
0,0,0,0,0,0,0,0,0,0,0,0,0,0,0,0,
0,0,0,0,0,0,0,0,0,0,0,0,0,0,0,0,
0,0,0,0,0,0,0,0,0,0,0,0,0,0,0,0,
0,0,0,0,0,0,0,0,0,0,0,0,0,0,0,0,
0,0,0,0,0,0,0,0,0,0,0,0,0,0,0,0
</chunk>
   <chunk x="16" y="48" width="16" height="16">
0,0,0,0,0,0,0,0,0,0,0,0,0,0,0,0,
0,0,0,0,0,0,0,0,0,0,0,0,0,0,0,0,
0,0,0,0,0,0,0,0,0,0,0,0,0,0,0,0,
0,0,0,0,0,0,0,0,0,1663,1663,1663,0,0,0,0,
0,0,0,0,0,0,0,0,0,0,0,0,0,0,0,0,
0,0,0,0,0,0,0,0,0,0,0,0,0,0,0,0,
0,0,0,0,0,0,0,0,0,0,0,0,0,0,0,0,
0,0,0,0,0,0,0,0,0,0,0,0,0,0,0,0,
0,0,0,0,0,0,0,0,0,0,0,0,0,0,0,0,
0,0,0,0,0,0,0,0,0,0,0,0,0,0,0,0,
0,0,0,0,0,0,0,0,0,0,0,0,0,0,0,0,
0,0,0,0,0,0,0,0,0,0,0,0,0,0,0,0,
0,0,0,0,0,0,0,0,0,0,0,0,0,0,0,0,
0,0,0,0,0,0,0,0,0,0,0,0,0,0,0,0,
0,0,0,0,0,0,0,0,0,0,0,0,0,0,0,0,
0,0,0,0,0,0,0,0,0,0,0,0,0,0,0,0
</chunk>
  </data>
 </layer>
 <layer id="62" name="Props_B_2" width="32" height="32">
  <data encoding="csv"/>
 </layer>
 <group id="3" name="Z=1"/>
 <layer id="217" name="Wall_A_3" width="32" height="32">
  <data encoding="csv">
   <chunk x="0" y="32" width="16" height="16">
0,0,0,0,0,0,0,0,0,0,0,0,0,0,0,0,
0,0,0,0,0,0,0,0,0,0,0,0,0,0,0,0,
0,0,0,0,0,0,0,0,0,0,0,0,0,0,0,0,
0,0,0,0,0,0,0,0,0,0,0,0,0,0,0,0,
0,0,0,0,0,0,0,0,0,0,0,0,0,0,0,0,
0,0,0,0,0,0,0,0,0,0,0,0,0,0,0,0,
0,0,0,0,0,0,0,0,0,0,0,0,0,0,0,0,
0,0,0,0,0,0,0,0,0,0,0,0,0,0,0,0,
0,0,0,0,0,0,0,0,0,0,0,0,0,0,0,0,
0,0,0,0,0,0,0,0,0,0,704,703,704,0,0,0,
0,0,0,0,0,0,0,0,0,0,0,0,0,0,0,0,
0,0,0,0,0,0,0,0,0,0,0,0,0,0,0,0,
0,0,0,0,0,0,0,0,0,0,0,0,0,0,0,0,
0,0,0,0,0,0,0,0,0,0,0,0,1668,0,0,0,
0,0,0,0,0,0,0,0,0,0,0,0,0,0,0,0,
0,0,0,0,0,0,0,0,0,0,0,0,0,0,0,0
</chunk>
   <chunk x="16" y="32" width="16" height="16">
0,0,0,0,0,0,0,0,0,0,0,0,0,0,0,0,
0,0,0,0,0,0,0,0,0,0,0,0,0,0,0,0,
0,0,0,0,0,0,0,0,0,0,0,0,0,0,0,0,
0,0,0,0,0,0,0,0,0,0,0,0,0,0,0,0,
0,0,0,0,0,0,0,0,0,0,0,0,0,0,0,0,
0,0,0,0,0,0,0,0,0,0,0,0,0,0,0,0,
0,0,0,0,0,0,0,0,0,0,0,0,0,0,0,0,
0,0,0,0,0,0,0,0,0,0,0,0,0,0,0,0,
0,0,0,0,0,0,0,0,0,0,0,0,0,0,0,0,
0,0,704,703,0,0,0,0,0,0,0,0,0,0,0,0,
0,0,0,0,0,0,0,0,0,0,0,0,0,0,0,0,
0,0,0,0,0,0,0,0,0,0,0,0,0,0,0,0,
0,0,0,0,0,0,0,0,0,0,0,0,0,0,0,0,
0,0,1668,0,0,0,0,0,0,0,0,0,0,0,0,0,
0,0,0,0,0,0,0,0,0,0,0,0,0,0,0,0,
0,0,0,0,0,0,0,0,0,0,0,0,0,0,0,0
</chunk>
   <chunk x="0" y="48" width="16" height="16">
0,0,0,0,0,0,0,0,0,0,0,0,0,0,0,0,
0,0,0,0,0,0,0,0,0,0,0,0,1668,0,0,0,
0,0,0,0,0,0,0,0,0,0,0,0,0,0,0,0,
0,0,0,0,0,0,0,0,0,0,0,0,0,0,0,0,
0,0,0,0,0,0,0,0,0,0,0,0,0,0,0,0,
0,0,0,0,0,0,0,0,0,0,0,0,0,0,0,0,
0,0,0,0,0,0,0,0,0,0,0,0,0,0,0,0,
0,0,0,0,0,0,0,0,0,0,0,0,0,0,0,0,
0,0,0,0,0,0,0,0,0,0,0,0,0,0,0,0,
0,0,0,0,0,0,0,0,0,0,0,0,0,0,0,0,
0,0,0,0,0,0,0,0,0,0,0,0,0,0,0,0,
0,0,0,0,0,0,0,0,0,0,0,0,0,0,0,0,
0,0,0,0,0,0,0,0,0,0,0,0,0,0,0,0,
0,0,0,0,0,0,0,0,0,0,0,0,0,0,0,0,
0,0,0,0,0,0,0,0,0,0,0,0,0,0,0,0,
0,0,0,0,0,0,0,0,0,0,0,0,0,0,0,0
</chunk>
   <chunk x="16" y="48" width="16" height="16">
0,0,0,0,0,0,0,0,0,0,0,0,0,0,0,0,
0,0,1668,0,0,0,0,0,0,0,0,0,0,0,0,0,
0,0,0,0,0,0,0,0,0,0,0,0,0,0,0,0,
0,0,0,0,0,0,0,0,0,0,0,0,0,0,0,0,
0,0,0,0,0,0,0,0,0,0,0,0,0,0,0,0,
0,0,0,0,0,0,0,0,0,0,0,0,0,0,0,0,
0,0,0,0,0,0,0,0,0,0,0,0,0,0,0,0,
0,0,0,0,0,0,0,0,0,0,0,0,0,0,0,0,
0,0,0,0,0,0,0,0,0,0,0,0,0,0,0,0,
0,0,0,0,0,0,0,0,0,0,0,0,0,0,0,0,
0,0,0,0,0,0,0,0,0,0,0,0,0,0,0,0,
0,0,0,0,0,0,0,0,0,0,0,0,0,0,0,0,
0,0,0,0,0,0,0,0,0,0,0,0,0,0,0,0,
0,0,0,0,0,0,0,0,0,0,0,0,0,0,0,0,
0,0,0,0,0,0,0,0,0,0,0,0,0,0,0,0,
0,0,0,0,0,0,0,0,0,0,0,0,0,0,0,0
</chunk>
  </data>
 </layer>
 <layer id="218" name="Wall_B_3" width="32" height="32">
  <data encoding="csv">
   <chunk x="0" y="32" width="16" height="16">
0,0,0,0,0,0,0,0,0,0,0,0,0,0,0,0,
0,0,0,0,0,0,0,0,0,0,0,0,0,0,0,0,
0,0,0,0,0,0,0,0,0,0,0,0,0,0,0,0,
0,0,0,0,0,0,0,0,0,0,0,0,0,0,0,0,
0,0,0,0,0,0,0,0,0,0,0,0,0,0,0,0,
0,0,0,0,0,0,0,0,0,0,0,0,0,0,0,0,
0,0,0,0,0,0,0,0,0,0,0,0,0,0,0,0,
0,0,0,0,0,0,0,0,0,0,0,0,0,0,0,0,
0,0,0,0,0,0,0,0,0,0,0,0,0,0,0,0,
0,0,0,0,0,0,0,0,0,0,895,896,897,0,0,0,
0,0,0,0,0,0,0,0,0,0,0,0,0,0,0,0,
0,0,0,0,0,0,0,0,0,0,0,0,0,0,0,0,
0,0,0,0,0,0,0,0,0,0,0,0,0,0,0,0,
0,0,0,0,0,0,0,0,0,0,0,0,0,0,0,0,
0,0,0,0,0,0,0,0,0,0,0,0,0,0,0,0,
0,0,0,0,0,0,0,0,0,0,0,0,0,0,0,0
</chunk>
   <chunk x="16" y="32" width="16" height="16">
0,0,0,0,0,0,0,0,0,0,0,0,0,0,0,0,
0,0,0,0,0,0,0,0,0,0,0,0,0,0,0,0,
0,0,0,0,0,0,0,0,0,0,0,0,0,0,0,0,
0,0,0,0,0,0,0,0,0,0,0,0,0,0,0,0,
0,0,0,0,0,0,0,0,0,0,0,0,0,0,0,0,
0,0,0,0,0,0,0,0,0,0,0,0,0,0,0,0,
0,0,0,0,0,0,0,0,0,0,0,0,0,0,0,0,
0,0,0,0,0,0,0,0,0,0,0,0,0,0,0,0,
0,0,0,0,0,0,0,0,0,0,0,0,0,0,0,0,
0,0,0,641,642,0,0,0,0,0,0,0,0,0,0,0,
0,0,0,0,0,0,0,0,0,0,0,0,0,0,0,0,
0,0,0,0,0,0,0,0,0,0,0,0,0,0,0,0,
0,0,0,0,0,0,0,0,0,0,0,0,0,0,0,0,
0,0,0,0,0,0,0,0,0,0,0,0,0,0,0,0,
0,0,0,0,0,0,0,0,0,0,0,0,0,0,0,0,
0,0,0,0,0,0,0,0,0,0,0,0,0,0,0,0
</chunk>
  </data>
 </layer>
 <layer id="225" name="Wall_C_3" width="32" height="32">
  <data encoding="csv"/>
 </layer>
 <layer id="63" name="Props_A_3" width="32" height="32">
  <data encoding="csv">
   <chunk x="16" y="32" width="16" height="16">
0,0,0,0,0,0,0,0,0,0,0,0,0,0,0,0,
0,0,0,0,0,0,0,0,0,0,0,0,0,0,0,0,
0,0,0,0,0,0,0,0,0,0,0,0,0,0,0,0,
0,0,0,0,0,0,0,0,0,0,0,0,0,0,0,0,
0,0,0,0,0,0,0,0,0,0,0,0,0,0,0,0,
0,0,0,0,0,0,0,0,0,0,0,0,0,0,0,0,
0,0,0,0,0,0,0,0,0,0,0,0,0,0,0,0,
0,0,0,0,0,0,0,0,0,0,0,0,0,0,0,0,
0,0,0,0,0,0,0,0,0,0,0,0,0,0,0,0,
0,0,0,0,0,0,0,0,0,0,0,0,0,0,0,0,
0,0,0,0,0,0,0,0,0,0,0,0,0,0,0,0,
0,0,0,0,0,0,0,0,0,0,0,0,0,0,0,0,
0,0,0,0,0,0,0,0,0,0,0,0,0,0,0,0,
0,0,0,0,0,0,0,0,0,0,0,0,0,0,0,0,
0,0,0,0,0,1471,1472,1473,0,0,0,0,0,0,0,0,
0,0,0,0,0,0,0,0,0,0,0,0,0,0,0,0
</chunk>
  </data>
 </layer>
 <layer id="64" name="Props_B_3" width="32" height="32">
  <data encoding="csv"/>
 </layer>
 <group id="2" name="Z=2"/>
 <layer id="219" name="Wall_A_4" width="32" height="32">
  <data encoding="csv">
   <chunk x="0" y="32" width="16" height="16">
0,0,0,0,0,0,0,0,0,0,0,0,0,0,0,0,
0,0,0,0,0,0,0,0,0,0,0,0,0,0,0,0,
0,0,0,0,0,0,0,0,0,0,0,0,0,0,0,0,
0,0,0,0,0,0,0,0,0,0,0,0,0,0,0,0,
0,0,0,0,0,0,0,0,0,0,0,0,0,0,0,0,
0,0,0,0,0,0,0,0,0,0,0,0,0,0,0,0,
0,0,0,0,0,0,0,0,0,0,0,0,0,0,0,0,
0,0,0,0,0,0,0,0,0,0,0,0,0,0,0,0,
0,0,0,0,0,0,0,0,0,0,640,639,640,0,0,0,
0,0,0,0,0,0,0,0,0,0,0,0,0,0,0,0,
0,0,0,0,0,0,0,0,0,0,0,0,0,0,0,0,
0,0,0,0,0,0,0,0,0,0,0,0,0,0,0,0,
0,0,0,0,0,0,0,0,0,0,0,0,1604,0,0,0,
0,0,0,0,0,0,0,0,0,0,0,0,0,0,0,0,
0,0,0,0,0,0,0,0,0,0,0,0,0,0,0,0,
0,0,0,0,0,0,0,0,0,0,0,0,0,0,0,0
</chunk>
   <chunk x="16" y="32" width="16" height="16">
0,0,0,0,0,0,0,0,0,0,0,0,0,0,0,0,
0,0,0,0,0,0,0,0,0,0,0,0,0,0,0,0,
0,0,0,0,0,0,0,0,0,0,0,0,0,0,0,0,
0,0,0,0,0,0,0,0,0,0,0,0,0,0,0,0,
0,0,0,0,0,0,0,0,0,0,0,0,0,0,0,0,
0,0,0,0,0,0,0,0,0,0,0,0,0,0,0,0,
0,0,0,0,0,0,0,0,0,0,0,0,0,0,0,0,
0,0,0,0,0,0,0,0,0,0,0,0,0,0,0,0,
0,0,640,639,0,0,0,0,0,0,0,0,0,0,0,0,
0,0,0,0,0,0,0,0,0,0,0,0,0,0,0,0,
0,0,0,0,0,0,0,0,0,0,0,0,0,0,0,0,
0,0,0,0,0,0,0,0,0,0,0,0,0,0,0,0,
0,0,1604,0,0,0,0,0,0,0,0,0,0,0,0,0,
0,0,0,0,0,0,0,0,0,0,0,0,0,0,0,0,
0,0,0,0,0,0,0,0,0,0,0,0,0,0,0,0,
0,0,0,0,0,0,0,0,0,0,0,0,0,0,0,0
</chunk>
   <chunk x="0" y="48" width="16" height="16">
0,0,0,0,0,0,0,0,0,0,0,0,1604,0,0,0,
0,0,0,0,0,0,0,0,0,0,0,0,0,0,0,0,
0,0,0,0,0,0,0,0,0,0,0,0,0,0,0,0,
0,0,0,0,0,0,0,0,0,0,0,0,0,0,0,0,
0,0,0,0,0,0,0,0,0,0,0,0,0,0,0,0,
0,0,0,0,0,0,0,0,0,0,0,0,0,0,0,0,
0,0,0,0,0,0,0,0,0,0,0,0,0,0,0,0,
0,0,0,0,0,0,0,0,0,0,0,0,0,0,0,0,
0,0,0,0,0,0,0,0,0,0,0,0,0,0,0,0,
0,0,0,0,0,0,0,0,0,0,0,0,0,0,0,0,
0,0,0,0,0,0,0,0,0,0,0,0,0,0,0,0,
0,0,0,0,0,0,0,0,0,0,0,0,0,0,0,0,
0,0,0,0,0,0,0,0,0,0,0,0,0,0,0,0,
0,0,0,0,0,0,0,0,0,0,0,0,0,0,0,0,
0,0,0,0,0,0,0,0,0,0,0,0,0,0,0,0,
0,0,0,0,0,0,0,0,0,0,0,0,0,0,0,0
</chunk>
   <chunk x="16" y="48" width="16" height="16">
0,0,1604,0,0,0,0,0,0,0,0,0,0,0,0,0,
0,0,0,0,0,0,0,0,0,0,0,0,0,0,0,0,
0,0,0,0,0,0,0,0,0,0,0,0,0,0,0,0,
0,0,0,0,0,0,0,0,0,0,0,0,0,0,0,0,
0,0,0,0,0,0,0,0,0,0,0,0,0,0,0,0,
0,0,0,0,0,0,0,0,0,0,0,0,0,0,0,0,
0,0,0,0,0,0,0,0,0,0,0,0,0,0,0,0,
0,0,0,0,0,0,0,0,0,0,0,0,0,0,0,0,
0,0,0,0,0,0,0,0,0,0,0,0,0,0,0,0,
0,0,0,0,0,0,0,0,0,0,0,0,0,0,0,0,
0,0,0,0,0,0,0,0,0,0,0,0,0,0,0,0,
0,0,0,0,0,0,0,0,0,0,0,0,0,0,0,0,
0,0,0,0,0,0,0,0,0,0,0,0,0,0,0,0,
0,0,0,0,0,0,0,0,0,0,0,0,0,0,0,0,
0,0,0,0,0,0,0,0,0,0,0,0,0,0,0,0,
0,0,0,0,0,0,0,0,0,0,0,0,0,0,0,0
</chunk>
  </data>
 </layer>
 <layer id="220" name="Wall_B_4" width="32" height="32">
  <data encoding="csv">
   <chunk x="0" y="32" width="16" height="16">
0,0,0,0,0,0,0,0,0,0,0,0,0,0,0,0,
0,0,0,0,0,0,0,0,0,0,0,0,0,0,0,0,
0,0,0,0,0,0,0,0,0,0,0,0,0,0,0,0,
0,0,0,0,0,0,0,0,0,0,0,0,0,0,0,0,
0,0,0,0,0,0,0,0,0,0,0,0,0,0,0,0,
0,0,0,0,0,0,0,0,0,0,0,0,0,0,0,0,
0,0,0,0,0,0,0,0,0,0,0,0,0,0,0,0,
0,0,0,0,0,0,0,0,0,0,0,0,0,0,0,0,
0,0,0,0,0,0,0,0,0,0,831,832,833,0,0,0,
0,0,0,0,0,0,0,0,0,0,0,0,0,0,0,0,
0,0,0,0,0,0,0,0,0,0,0,0,0,0,0,0,
0,0,0,0,0,0,0,0,0,0,0,0,0,0,0,0,
0,0,0,0,0,0,0,0,0,0,0,0,0,0,0,0,
0,0,0,0,0,0,0,0,0,0,0,0,0,0,0,0,
0,0,0,0,0,0,0,0,0,0,0,0,0,0,0,0,
0,0,0,0,0,0,0,0,0,0,0,0,0,0,0,0
</chunk>
  </data>
 </layer>
 <layer id="226" name="Wall_C_4" width="32" height="32">
  <data encoding="csv"/>
 </layer>
 <layer id="199" name="Props_A_4" width="32" height="32">
  <data encoding="csv">
   <chunk x="16" y="32" width="16" height="16">
0,0,0,0,0,0,0,0,0,0,0,0,0,0,0,0,
0,0,0,0,0,0,0,0,0,0,0,0,0,0,0,0,
0,0,0,0,0,0,0,0,0,0,0,0,0,0,0,0,
0,0,0,0,0,0,0,0,0,0,0,0,0,0,0,0,
0,0,0,0,0,0,0,0,0,0,0,0,0,0,0,0,
0,0,0,0,0,0,0,0,0,0,0,0,0,0,0,0,
0,0,0,0,0,0,0,0,0,0,0,0,0,0,0,0,
0,0,0,0,0,0,0,0,0,0,0,0,0,0,0,0,
0,0,0,0,0,0,0,0,0,0,0,0,0,0,0,0,
0,0,0,0,0,0,0,0,0,0,0,0,0,0,0,0,
0,0,0,0,0,0,0,0,0,0,0,0,0,0,0,0,
0,0,0,0,0,0,0,0,0,0,0,0,0,0,0,0,
0,0,0,0,0,0,0,0,0,0,0,0,0,0,0,0,
0,0,0,0,0,1407,1408,1409,0,0,0,0,0,0,0,0,
0,0,0,0,0,0,0,0,0,0,0,0,0,0,0,0,
0,0,0,0,0,0,0,0,0,0,0,0,0,0,0,0
</chunk>
  </data>
 </layer>
 <layer id="212" name="Props_B_4" width="32" height="32">
  <data encoding="csv"/>
 </layer>
 <group id="48" name="Z=3"/>
 <layer id="61" name="Props_A_5" width="32" height="32">
  <data encoding="csv"/>
 </layer>
 <layer id="213" name="Props_B_5" width="32" height="32">
  <data encoding="csv"/>
 </layer>
 <group id="214" name="Z=4"/>
 <layer id="215" name="Props_A_6" width="32" height="32">
  <data encoding="csv"/>
 </layer>
 <layer id="216" name="Props_B_6" width="32" height="32">
  <data encoding="csv"/>
 </layer>
 <layer id="209" name="Black_6" width="32" height="32">
  <data encoding="csv">
   <chunk x="0" y="0" width="16" height="16">
575,575,575,575,575,575,575,575,575,575,575,575,575,575,575,575,
575,575,575,575,575,575,575,575,575,575,575,575,575,575,575,575,
575,575,575,575,575,575,575,575,575,575,575,575,575,575,575,575,
575,575,575,575,575,575,575,575,575,575,575,575,575,575,575,575,
575,575,575,575,575,575,575,575,575,575,575,575,575,575,575,575,
575,575,575,575,575,575,575,575,575,575,575,575,575,575,575,575,
575,575,575,575,575,575,575,575,575,575,575,575,575,575,575,575,
575,575,575,575,575,575,575,575,575,575,575,575,575,575,575,575,
575,575,575,575,575,575,575,575,575,575,0,0,0,0,0,0,
575,575,575,575,575,575,575,575,575,575,0,0,0,0,0,0,
575,575,575,575,575,575,575,575,575,575,0,0,0,0,0,0,
575,575,575,575,575,575,575,575,575,575,0,0,0,0,0,0,
575,575,575,575,575,575,575,575,575,575,0,0,0,0,0,0,
575,575,575,575,575,575,575,575,575,575,0,0,0,0,0,0,
575,575,575,575,575,575,575,575,575,575,0,0,0,0,0,0,
575,575,575,575,575,575,575,575,575,575,0,0,0,0,0,0
</chunk>
   <chunk x="16" y="0" width="16" height="16">
575,575,575,575,575,575,575,575,575,575,575,575,575,575,575,575,
575,575,575,575,575,575,575,575,575,575,575,575,575,575,575,575,
575,575,575,575,575,575,575,575,575,575,575,575,575,575,575,575,
575,575,575,575,575,575,575,575,575,575,575,575,575,575,575,575,
575,575,575,575,575,575,575,575,575,575,575,575,575,575,575,575,
575,575,575,575,575,575,575,575,575,575,575,575,575,575,575,575,
575,575,575,575,575,575,575,575,575,575,575,575,575,575,575,575,
575,575,575,575,575,575,575,575,575,575,575,575,575,575,575,575,
0,0,0,0,0,0,0,0,0,0,0,0,0,0,0,0,
0,0,0,0,0,0,0,0,0,0,0,0,0,0,0,0,
0,0,0,0,0,0,0,0,0,0,0,0,0,0,0,0,
0,0,0,0,0,0,0,0,0,0,0,0,0,0,0,0,
0,0,0,0,0,0,0,0,0,0,0,0,0,0,0,0,
0,0,0,0,0,0,0,0,0,0,0,0,0,0,0,0,
0,0,0,0,0,0,0,0,0,0,0,0,0,0,0,0,
0,0,0,0,0,0,0,0,0,0,0,0,0,0,0,0
</chunk>
   <chunk x="32" y="0" width="16" height="16">
575,575,575,575,575,575,575,575,575,575,575,575,575,575,575,575,
575,575,575,575,575,575,575,575,575,575,575,575,575,575,575,575,
575,575,575,575,575,575,575,575,575,575,575,575,575,575,575,575,
575,575,575,575,575,575,575,575,575,575,575,575,575,575,575,575,
575,575,575,575,575,575,575,575,575,575,575,575,575,575,575,575,
575,575,575,575,575,575,575,575,575,575,575,575,575,575,575,575,
575,575,575,575,575,575,575,575,575,575,575,575,575,575,575,575,
575,575,575,575,575,575,575,575,575,575,575,575,575,575,575,575,
0,0,0,0,0,0,0,0,0,0,575,575,575,575,575,575,
0,0,0,0,0,0,0,0,0,0,575,575,575,575,575,575,
0,0,0,0,0,0,0,0,0,0,575,575,575,575,575,575,
0,0,0,0,0,0,0,0,0,0,575,575,575,575,575,575,
0,0,0,0,0,0,0,0,0,0,575,575,575,575,575,575,
0,0,0,0,0,0,0,0,0,0,575,575,575,575,575,575,
0,0,0,0,0,0,0,0,0,0,575,575,575,575,575,575,
0,0,0,0,0,0,0,0,0,0,575,575,575,575,575,575
</chunk>
   <chunk x="48" y="0" width="16" height="16">
575,575,575,575,0,0,0,0,0,0,0,0,0,0,0,0,
575,575,575,575,0,0,0,0,0,0,0,0,0,0,0,0,
575,575,575,575,0,0,0,0,0,0,0,0,0,0,0,0,
575,575,575,575,0,0,0,0,0,0,0,0,0,0,0,0,
575,575,575,575,0,0,0,0,0,0,0,0,0,0,0,0,
575,575,575,575,0,0,0,0,0,0,0,0,0,0,0,0,
575,575,575,575,0,0,0,0,0,0,0,0,0,0,0,0,
575,575,575,575,0,0,0,0,0,0,0,0,0,0,0,0,
575,575,575,575,0,0,0,0,0,0,0,0,0,0,0,0,
575,575,575,575,0,0,0,0,0,0,0,0,0,0,0,0,
575,575,575,575,0,0,0,0,0,0,0,0,0,0,0,0,
575,575,575,575,0,0,0,0,0,0,0,0,0,0,0,0,
575,575,575,575,0,0,0,0,0,0,0,0,0,0,0,0,
575,575,575,575,0,0,0,0,0,0,0,0,0,0,0,0,
575,575,575,575,0,0,0,0,0,0,0,0,0,0,0,0,
575,575,575,575,0,0,0,0,0,0,0,0,0,0,0,0
</chunk>
   <chunk x="0" y="16" width="16" height="16">
575,575,575,575,575,575,575,575,575,575,0,0,0,0,0,0,
575,575,575,575,575,575,575,575,575,575,0,0,0,0,0,0,
575,575,575,575,575,575,575,575,575,575,0,0,0,0,0,0,
575,575,575,575,575,575,575,575,575,575,0,0,0,0,0,0,
575,575,575,575,575,575,575,575,575,575,0,0,0,0,0,0,
575,575,575,575,575,575,575,575,575,575,0,0,0,0,0,0,
575,575,575,575,575,575,575,575,575,575,0,0,0,0,0,0,
575,575,575,575,575,575,575,575,575,575,0,0,0,0,0,0,
575,575,575,575,575,575,575,575,575,575,0,0,0,0,0,0,
575,575,575,575,575,575,575,575,575,575,0,0,0,0,0,0,
575,575,575,575,575,575,575,575,0,0,0,0,0,0,0,0,
575,575,575,575,575,575,575,575,575,575,575,575,575,575,575,575,
575,575,575,575,575,575,575,575,575,575,575,575,575,575,575,575,
575,575,575,575,575,575,575,575,575,575,575,575,575,575,575,575,
575,575,575,575,575,575,575,575,575,575,575,575,575,575,575,575,
575,575,575,575,575,575,575,575,575,575,575,575,575,575,575,575
</chunk>
   <chunk x="16" y="16" width="16" height="16">
0,0,0,0,0,0,0,0,0,0,0,0,0,0,0,0,
0,0,0,0,0,0,0,0,0,0,0,0,0,0,0,0,
0,0,0,0,0,0,0,0,0,0,0,0,0,0,0,0,
0,0,0,0,0,0,0,0,0,0,0,0,0,0,0,0,
0,0,0,0,0,0,0,0,0,0,0,0,0,0,0,0,
0,0,0,0,0,0,0,0,0,0,0,0,0,0,0,0,
0,0,0,0,0,0,0,0,0,0,0,0,0,0,0,0,
0,0,0,0,0,0,0,0,0,0,0,0,0,0,0,0,
0,0,0,0,0,0,0,0,0,0,0,0,0,0,0,0,
0,0,0,0,0,0,0,0,0,0,0,0,0,0,0,0,
0,0,0,0,0,0,0,0,0,0,0,0,0,0,0,0,
575,575,575,575,575,575,575,575,575,575,575,575,575,575,575,575,
575,575,575,575,575,575,575,575,575,575,575,575,575,575,575,575,
575,575,575,575,575,575,575,575,575,575,575,575,575,575,575,575,
575,575,575,575,575,575,575,575,575,575,575,575,575,575,575,575,
575,575,575,575,575,575,575,575,575,575,575,575,575,575,575,575
</chunk>
   <chunk x="32" y="16" width="16" height="16">
0,0,0,0,0,0,0,0,0,0,575,575,575,575,575,575,
0,0,0,0,0,0,0,0,0,0,575,575,575,575,575,575,
0,0,0,0,0,0,0,0,0,0,575,575,575,575,575,575,
0,0,0,0,0,0,0,0,0,0,575,575,575,575,575,575,
0,0,0,0,0,0,0,0,0,0,575,575,575,575,575,575,
0,0,0,0,0,0,0,0,0,0,575,575,575,575,575,575,
0,0,0,0,0,0,0,0,0,0,575,575,575,575,575,575,
0,0,0,0,0,0,0,0,0,0,575,575,575,575,575,575,
0,0,0,0,0,0,0,0,0,0,575,575,575,575,575,575,
0,0,0,0,0,0,0,0,0,0,0,0,575,575,575,575,
0,0,0,0,0,0,0,0,0,0,0,0,575,575,575,575,
575,575,575,575,575,575,575,575,575,575,575,575,575,575,575,575,
575,575,575,575,575,575,575,575,575,575,575,575,575,575,575,575,
575,575,575,575,575,575,575,575,575,575,575,575,575,575,575,575,
575,575,575,575,575,575,575,575,575,575,575,575,575,575,575,575,
575,575,575,575,575,575,575,575,575,575,575,575,575,575,575,575
</chunk>
   <chunk x="48" y="16" width="16" height="16">
575,575,575,575,0,0,0,0,0,0,0,0,0,0,0,0,
575,575,575,575,0,0,0,0,0,0,0,0,0,0,0,0,
575,575,575,575,0,0,0,0,0,0,0,0,0,0,0,0,
575,575,575,575,0,0,0,0,0,0,0,0,0,0,0,0,
575,575,575,575,0,0,0,0,0,0,0,0,0,0,0,0,
575,575,575,575,0,0,0,0,0,0,0,0,0,0,0,0,
575,575,575,575,0,0,0,0,0,0,0,0,0,0,0,0,
575,575,575,575,0,0,0,0,0,0,0,0,0,0,0,0,
575,575,575,575,0,0,0,0,0,0,0,0,0,0,0,0,
575,575,575,575,0,0,0,0,0,0,0,0,0,0,0,0,
575,575,575,575,0,0,0,0,0,0,0,0,0,0,0,0,
575,575,575,575,0,0,0,0,0,0,0,0,0,0,0,0,
575,575,575,575,0,0,0,0,0,0,0,0,0,0,0,0,
575,575,575,575,0,0,0,0,0,0,0,0,0,0,0,0,
575,575,575,575,0,0,0,0,0,0,0,0,0,0,0,0,
575,575,575,575,0,0,0,0,0,0,0,0,0,0,0,0
</chunk>
   <chunk x="0" y="32" width="16" height="16">
575,575,575,575,575,575,575,575,575,575,575,575,575,575,575,575,
575,575,575,575,575,575,575,575,575,575,575,575,575,575,575,575,
575,575,575,575,575,575,575,575,575,575,0,0,0,0,0,0,
575,575,575,575,575,575,575,575,575,575,0,0,0,0,0,0,
575,575,575,575,575,575,575,575,575,575,0,0,0,0,0,0,
575,575,575,575,575,575,575,575,575,575,0,0,0,0,0,0,
575,575,575,575,575,575,575,575,575,575,0,0,0,0,0,0,
575,575,575,575,575,575,575,575,575,575,677,677,677,0,0,0,
575,575,575,575,575,575,575,575,575,575,0,0,0,0,0,0,
575,575,575,575,575,575,575,575,575,575,0,0,0,0,0,0,
575,575,575,575,575,575,575,575,575,575,0,0,0,0,0,0,
575,575,575,575,575,575,575,575,575,575,0,0,1540,0,0,0,
575,575,575,575,575,575,575,575,575,575,0,0,0,0,0,0,
575,575,575,575,575,575,575,575,575,575,0,0,0,0,0,0,
575,575,575,575,575,575,575,575,575,575,0,0,0,0,0,0,
575,575,575,575,575,575,575,575,575,575,0,0,1540,0,0,0
</chunk>
   <chunk x="16" y="32" width="16" height="16">
575,575,575,575,575,575,575,575,575,575,575,575,575,575,575,575,
575,575,575,575,575,575,575,575,575,575,575,575,575,575,575,575,
0,0,575,575,575,575,575,575,575,575,575,575,575,575,575,575,
0,0,575,575,575,575,575,575,575,575,575,575,575,575,575,575,
0,0,575,575,575,575,575,575,575,575,575,575,575,575,575,575,
0,0,575,575,575,575,575,575,575,575,575,575,575,575,575,575,
0,0,575,575,575,575,575,575,575,575,575,575,575,575,575,575,
0,0,575,575,575,575,575,575,575,575,575,575,575,575,575,575,
0,0,0,0,0,0,0,0,0,0,0,0,575,575,575,575,
0,0,0,0,0,0,0,0,0,0,0,0,575,575,575,575,
0,0,0,0,0,0,0,0,0,0,0,0,575,575,575,575,
0,0,1540,0,0,0,0,0,0,0,0,0,575,575,575,575,
0,0,0,0,0,0,0,0,0,0,0,0,575,575,575,575,
0,0,0,0,0,0,0,0,0,0,0,0,575,575,575,575,
0,0,0,0,0,0,0,0,0,0,0,0,575,575,575,575,
0,0,1540,0,0,0,0,0,0,0,0,0,575,575,575,575
</chunk>
   <chunk x="32" y="32" width="16" height="16">
575,575,575,575,575,575,575,575,575,575,575,575,575,575,575,575,
575,575,575,575,575,575,575,575,575,575,575,575,575,575,575,575,
575,575,575,575,575,575,0,0,0,0,0,0,0,0,0,0,
575,575,575,575,575,575,0,0,0,0,0,0,0,0,0,0,
575,575,575,575,575,575,0,0,0,0,0,0,0,0,0,0,
575,575,575,575,575,575,0,0,0,0,0,0,0,0,0,0,
575,575,575,575,575,575,0,0,0,0,0,0,0,0,0,0,
575,575,575,575,575,575,0,0,0,0,0,0,0,0,0,0,
575,575,575,575,575,575,0,0,0,0,0,0,0,0,0,0,
575,575,575,575,575,575,0,0,0,0,0,0,0,0,0,0,
575,575,575,575,575,575,0,0,0,0,0,0,0,0,0,0,
575,575,575,575,575,575,0,0,0,0,0,0,0,0,0,0,
575,575,575,575,575,575,0,0,0,0,0,0,0,0,0,0,
575,575,575,575,575,575,0,0,0,0,0,0,0,0,0,0,
575,575,575,575,575,575,0,0,0,0,0,0,0,0,0,0,
575,575,575,575,575,575,0,0,0,0,0,0,0,0,0,0
</chunk>
   <chunk x="48" y="32" width="16" height="16">
575,575,575,575,0,0,0,0,0,0,0,0,0,0,0,0,
575,575,575,575,0,0,0,0,0,0,0,0,0,0,0,0,
0,0,0,0,0,0,0,0,0,0,0,0,0,0,0,0,
0,0,0,0,0,0,0,0,0,0,0,0,0,0,0,0,
0,0,0,0,0,0,0,0,0,0,0,0,0,0,0,0,
0,0,0,0,0,0,0,0,0,0,0,0,0,0,0,0,
0,0,0,0,0,0,0,0,0,0,0,0,0,0,0,0,
0,0,0,0,0,0,0,0,0,0,0,0,0,0,0,0,
0,0,0,0,0,0,0,0,0,0,0,0,0,0,0,0,
0,0,0,0,0,0,0,0,0,0,0,0,0,0,0,0,
0,0,0,0,0,0,0,0,0,0,0,0,0,0,0,0,
0,0,0,0,0,0,0,0,0,0,0,0,0,0,0,0,
0,0,0,0,0,0,0,0,0,0,0,0,0,0,0,0,
0,0,0,0,0,0,0,0,0,0,0,0,0,0,0,0,
0,0,0,0,0,0,0,0,0,0,0,0,0,0,0,0,
0,0,0,0,0,0,0,0,0,0,0,0,0,0,0,0
</chunk>
   <chunk x="0" y="48" width="16" height="16">
575,575,575,575,575,575,575,575,575,575,0,0,0,0,0,0,
575,575,575,575,575,575,575,575,575,575,0,0,0,0,0,0,
575,575,575,575,575,575,575,575,575,575,0,0,0,0,0,0,
575,575,575,575,575,575,575,575,575,575,0,0,0,0,0,0,
575,575,575,575,575,575,575,575,0,0,0,0,0,0,0,0,
575,575,575,575,575,575,575,575,0,0,0,0,0,0,0,0,
575,575,575,575,575,575,575,575,575,575,575,575,575,575,575,575,
575,575,575,575,575,575,575,575,575,575,575,575,575,575,575,575,
575,575,575,575,575,575,575,575,575,575,575,575,575,575,575,575,
575,575,575,575,575,575,575,575,575,575,575,575,575,575,575,575,
575,575,575,575,575,575,575,575,575,575,575,575,575,575,575,575,
575,575,575,575,575,575,575,575,575,575,575,575,575,575,575,575,
575,575,575,575,575,575,575,575,575,575,575,575,575,575,575,575,
0,0,0,0,0,0,0,0,0,0,0,0,0,0,0,0,
0,0,0,0,0,0,0,0,0,0,0,0,0,0,0,0,
0,0,0,0,0,0,0,0,0,0,0,0,0,0,0,0
</chunk>
   <chunk x="16" y="48" width="16" height="16">
0,0,0,0,0,0,0,0,0,0,0,0,575,575,575,575,
0,0,0,0,0,0,0,0,0,0,0,0,575,575,575,575,
0,0,0,0,0,0,0,0,0,0,0,0,575,575,575,575,
0,0,0,0,0,0,0,0,0,0,0,0,575,575,575,575,
0,0,0,0,0,0,0,0,0,0,0,0,0,0,575,575,
0,0,0,0,0,0,0,0,0,0,0,0,0,0,575,575,
575,575,575,575,575,575,575,575,575,575,575,575,575,575,575,575,
575,575,575,575,575,575,575,575,575,575,575,575,575,575,575,575,
575,575,575,575,575,575,575,575,575,575,575,575,575,575,575,575,
575,575,575,575,575,575,575,575,575,575,575,575,575,575,575,575,
575,575,575,575,575,575,575,575,575,575,575,575,575,575,575,575,
575,575,575,575,575,575,575,575,575,575,575,575,575,575,575,575,
575,575,575,575,575,575,575,575,575,575,575,575,575,575,575,575,
0,0,0,0,0,0,0,0,0,0,0,0,0,0,0,0,
0,0,0,0,0,0,0,0,0,0,0,0,0,0,0,0,
0,0,0,0,0,0,0,0,0,0,0,0,0,0,0,0
</chunk>
   <chunk x="32" y="48" width="16" height="16">
575,575,575,575,575,575,0,0,0,0,0,0,0,0,0,0,
575,575,575,575,575,575,0,0,0,0,0,0,0,0,0,0,
575,575,575,575,575,575,0,0,0,0,0,0,0,0,0,0,
575,575,575,575,575,575,0,0,0,0,0,0,0,0,0,0,
575,575,575,575,575,575,0,0,0,0,0,0,0,0,0,0,
575,575,575,575,575,575,0,0,0,0,0,0,0,0,0,0,
575,575,575,575,575,575,0,0,0,0,0,0,0,0,0,0,
575,575,575,575,575,575,0,0,0,0,0,0,0,0,0,0,
575,575,575,575,575,575,0,0,0,0,0,0,0,0,0,0,
575,575,575,575,575,575,0,0,0,0,0,0,0,0,0,0,
575,575,575,575,575,575,0,0,0,0,0,0,0,0,0,0,
575,575,575,575,575,575,0,0,0,0,0,0,0,0,0,0,
575,575,575,575,575,575,0,0,0,0,0,0,0,0,0,0,
0,0,0,0,0,0,0,0,0,0,0,0,0,0,0,0,
0,0,0,0,0,0,0,0,0,0,0,0,0,0,0,0,
0,0,0,0,0,0,0,0,0,0,0,0,0,0,0,0
</chunk>
  </data>
 </layer>
 <group id="49" name="Z=5"/>
 <layer id="168" name="systemtags" width="32" height="32">
  <data encoding="csv"/>
 </layer>
 <layer id="15" name="passages" width="32" height="32" opacity="0.34">
  <data encoding="csv">
   <chunk x="0" y="0" width="16" height="16">
336,336,336,336,336,336,336,336,336,336,336,336,336,336,336,336,
336,336,336,336,336,336,336,336,336,336,336,336,336,336,336,336,
336,336,336,336,336,336,336,336,336,336,336,336,336,336,336,336,
336,336,336,336,336,336,336,336,336,336,336,336,336,336,336,336,
336,336,336,336,336,336,336,336,336,336,336,336,336,336,336,336,
336,336,336,336,336,336,336,336,336,336,336,336,336,336,336,336,
336,336,336,336,336,336,336,336,336,336,336,336,336,336,336,336,
336,336,336,336,336,336,336,336,336,336,336,336,336,336,336,336,
336,336,336,336,336,336,336,336,336,336,336,336,336,336,336,336,
336,336,336,336,336,336,336,336,336,336,336,336,336,336,336,336,
336,336,336,336,336,336,336,336,336,336,336,336,336,336,336,336,
336,336,336,336,336,336,336,336,336,336,336,336,336,336,336,336,
336,336,336,336,336,336,336,336,336,336,336,336,336,336,336,336,
336,336,336,336,336,336,336,336,336,336,336,336,336,336,336,336,
336,336,336,336,336,336,336,336,336,336,336,336,336,336,336,336,
336,336,336,336,336,336,336,336,336,336,336,336,336,336,336,336
</chunk>
   <chunk x="16" y="0" width="16" height="16">
336,336,336,336,336,336,336,336,336,336,336,336,336,336,336,336,
336,336,336,336,336,336,336,336,336,336,336,336,336,336,336,336,
336,336,336,336,336,336,336,336,336,336,336,336,336,336,336,336,
336,336,336,336,336,336,336,336,336,336,336,336,336,336,336,336,
336,336,336,336,336,336,336,336,336,336,336,336,336,336,336,336,
336,336,336,336,336,336,336,336,336,336,336,336,336,336,336,336,
336,336,336,336,336,336,336,336,336,336,336,336,336,336,336,336,
336,336,336,336,336,336,336,336,336,336,336,336,336,336,336,336,
336,336,336,336,336,336,336,336,336,336,336,336,336,336,336,336,
336,336,336,336,336,336,336,336,336,336,336,336,336,336,336,336,
336,336,336,336,336,336,336,336,336,336,336,336,336,336,336,336,
336,336,336,336,336,336,336,336,336,336,336,336,336,336,336,336,
336,336,336,336,336,336,336,336,336,336,336,336,336,336,336,336,
336,336,336,336,336,336,336,336,336,336,336,336,336,336,336,336,
336,336,336,336,336,336,336,336,336,336,336,336,336,336,336,336,
336,336,336,336,336,336,336,336,336,336,336,336,336,336,336,336
</chunk>
   <chunk x="32" y="0" width="16" height="16">
336,336,336,336,336,336,336,336,336,336,336,336,336,336,336,336,
336,336,336,336,336,336,336,336,336,336,336,336,336,336,336,336,
336,336,336,336,336,336,336,336,336,336,336,336,336,336,336,336,
336,336,336,336,336,336,336,336,336,336,336,336,336,336,336,336,
336,336,336,336,336,336,336,336,336,336,336,336,336,336,336,336,
336,336,336,336,336,336,336,336,336,336,336,336,336,336,336,336,
336,336,336,336,336,336,336,336,336,336,336,336,336,336,336,336,
336,336,336,336,336,336,336,336,336,336,336,336,336,336,336,336,
336,336,336,336,336,336,336,336,336,336,336,336,336,336,336,336,
336,336,336,336,336,336,336,336,336,336,336,336,336,336,336,336,
336,336,336,336,336,336,336,336,336,336,336,336,336,336,336,336,
336,336,336,336,336,336,336,336,336,336,336,336,336,336,336,336,
336,336,336,336,336,336,336,336,336,336,336,336,336,336,336,336,
336,336,336,336,336,336,336,336,336,336,336,336,336,336,336,336,
336,336,336,336,336,336,336,336,336,336,336,336,336,336,336,336,
336,336,336,336,336,336,336,336,336,336,336,336,336,336,336,336
</chunk>
   <chunk x="48" y="0" width="16" height="16">
336,336,336,336,0,0,0,0,0,0,0,0,0,0,0,0,
336,336,336,336,0,0,0,0,0,0,0,0,0,0,0,0,
336,336,336,336,0,0,0,0,0,0,0,0,0,0,0,0,
336,336,336,336,0,0,0,0,0,0,0,0,0,0,0,0,
336,336,336,336,0,0,0,0,0,0,0,0,0,0,0,0,
336,336,336,336,0,0,0,0,0,0,0,0,0,0,0,0,
336,336,336,336,0,0,0,0,0,0,0,0,0,0,0,0,
336,336,336,336,0,0,0,0,0,0,0,0,0,0,0,0,
336,336,336,336,0,0,0,0,0,0,0,0,0,0,0,0,
336,336,336,336,0,0,0,0,0,0,0,0,0,0,0,0,
336,336,336,336,0,0,0,0,0,0,0,0,0,0,0,0,
336,336,336,336,0,0,0,0,0,0,0,0,0,0,0,0,
336,336,336,336,0,0,0,0,0,0,0,0,0,0,0,0,
336,336,336,336,0,0,0,0,0,0,0,0,0,0,0,0,
336,336,336,336,0,0,0,0,0,0,0,0,0,0,0,0,
336,336,336,336,0,0,0,0,0,0,0,0,0,0,0,0
</chunk>
   <chunk x="0" y="16" width="16" height="16">
336,336,336,336,336,336,336,336,336,336,336,336,336,336,336,336,
336,336,336,336,336,336,336,336,336,336,336,336,336,336,336,336,
336,336,336,336,336,336,336,336,336,336,0,0,0,0,0,0,
336,336,336,336,336,336,336,336,336,336,0,0,0,0,0,0,
336,336,336,336,336,336,336,336,336,336,0,0,0,0,0,0,
336,336,336,336,336,336,336,336,336,336,0,0,0,0,0,0,
336,336,336,336,336,336,336,336,336,336,0,0,0,0,0,0,
336,336,336,336,336,336,336,336,336,336,0,0,0,0,0,0,
336,336,336,336,336,336,336,336,336,336,0,0,0,0,0,0,
336,336,336,336,336,336,336,336,336,336,0,0,0,0,0,0,
336,336,336,336,336,336,336,336,336,336,336,336,336,336,336,336,
336,336,336,336,336,336,336,336,336,336,336,336,336,336,336,336,
336,336,336,336,336,336,336,336,336,336,336,336,336,336,336,336,
336,336,336,336,336,336,336,336,336,336,336,336,336,336,336,336,
336,336,336,336,336,336,336,336,336,336,336,336,336,336,336,336,
336,336,336,336,336,336,336,336,336,336,336,336,336,336,336,336
</chunk>
   <chunk x="16" y="16" width="16" height="16">
336,336,336,336,336,336,336,336,336,336,336,336,336,336,336,336,
336,336,336,336,336,336,336,336,336,336,336,0,336,336,336,336,
0,0,0,0,0,0,0,0,0,0,0,0,0,0,0,0,
0,0,0,0,0,0,0,0,0,0,0,0,0,0,0,0,
0,0,336,336,0,0,0,0,0,0,0,0,0,0,0,0,
0,0,336,336,0,0,0,0,0,0,0,0,0,0,0,0,
0,0,0,0,0,0,0,0,0,0,0,0,0,0,0,0,
0,0,0,0,0,0,0,0,0,0,0,0,0,0,0,0,
0,0,0,0,0,0,0,0,0,0,0,0,0,0,0,0,
0,0,0,0,0,0,0,0,0,0,0,0,0,0,0,0,
336,336,336,336,336,336,336,336,336,336,336,336,336,336,336,336,
336,336,336,336,336,336,336,336,336,336,336,336,336,336,336,336,
336,336,336,336,336,336,336,336,336,336,336,336,336,336,336,336,
336,336,336,336,336,336,336,336,336,336,336,336,336,336,336,336,
336,336,336,336,336,336,336,336,336,336,336,336,336,336,336,336,
336,336,336,336,336,336,336,336,336,336,336,336,336,336,336,336
</chunk>
   <chunk x="32" y="16" width="16" height="16">
336,336,336,336,336,336,336,336,336,336,336,336,336,336,336,336,
336,336,336,0,336,336,336,336,336,336,336,336,336,336,336,336,
0,0,0,0,0,0,0,0,0,0,336,336,336,336,336,336,
0,0,0,0,0,0,0,0,0,0,336,336,336,336,336,336,
0,0,0,0,0,0,0,0,0,0,336,336,336,336,336,336,
0,0,0,0,0,0,0,0,0,0,336,336,336,336,336,336,
0,0,0,0,0,0,0,0,0,0,336,336,336,336,336,336,
0,0,0,0,0,0,0,0,0,0,336,336,336,336,336,336,
0,0,0,0,0,0,0,0,0,0,336,336,336,336,336,336,
0,0,0,0,0,0,0,0,0,0,336,336,336,336,336,336,
336,336,336,336,336,336,336,336,336,336,336,336,336,336,336,336,
336,336,336,336,336,336,336,336,336,336,336,336,336,336,336,336,
336,336,336,336,336,336,336,336,336,336,336,336,336,336,336,336,
336,336,336,336,336,336,336,336,336,336,336,336,336,336,336,336,
336,336,336,336,336,336,336,336,336,336,336,336,336,336,336,336,
336,336,336,336,336,336,336,336,336,336,336,336,336,336,336,336
</chunk>
   <chunk x="48" y="16" width="16" height="16">
336,336,336,336,0,0,0,0,0,0,0,0,0,0,0,0,
336,336,336,336,0,0,0,0,0,0,0,0,0,0,0,0,
336,336,336,336,0,0,0,0,0,0,0,0,0,0,0,0,
336,336,336,336,0,0,0,0,0,0,0,0,0,0,0,0,
336,336,336,336,0,0,0,0,0,0,0,0,0,0,0,0,
336,336,336,336,0,0,0,0,0,0,0,0,0,0,0,0,
336,336,336,336,0,0,0,0,0,0,0,0,0,0,0,0,
336,336,336,336,0,0,0,0,0,0,0,0,0,0,0,0,
336,336,336,336,0,0,0,0,0,0,0,0,0,0,0,0,
336,336,336,336,0,0,0,0,0,0,0,0,0,0,0,0,
336,336,336,336,0,0,0,0,0,0,0,0,0,0,0,0,
336,336,336,336,0,0,0,0,0,0,0,0,0,0,0,0,
336,336,336,336,0,0,0,0,0,0,0,0,0,0,0,0,
336,336,336,336,0,0,0,0,0,0,0,0,0,0,0,0,
336,336,336,336,0,0,0,0,0,0,0,0,0,0,0,0,
336,336,336,336,0,0,0,0,0,0,0,0,0,0,0,0
</chunk>
   <chunk x="0" y="32" width="16" height="16">
336,336,336,336,336,336,336,336,336,336,336,336,336,336,336,336,
336,336,336,336,336,336,336,336,336,336,336,336,336,336,336,336,
336,336,336,336,336,336,336,336,336,336,336,336,336,336,336,336,
336,336,336,336,336,336,336,336,336,336,336,336,336,336,336,336,
336,336,336,336,336,336,336,336,336,336,336,336,336,336,336,336,
336,336,336,336,336,336,336,336,336,336,336,336,0,0,0,0,
336,336,336,336,336,336,336,336,336,336,336,336,0,0,0,0,
336,336,336,336,336,336,336,336,336,336,336,336,0,0,0,0,
336,336,336,336,336,336,336,336,336,336,336,336,336,0,336,0,
336,336,336,336,336,336,336,336,336,336,336,336,336,336,336,0,
336,336,336,336,336,336,336,336,336,336,336,336,336,0,336,0,
336,336,336,336,336,336,336,336,336,336,336,0,0,0,0,0,
336,336,336,336,336,336,336,336,336,336,0,0,0,0,0,0,
336,336,336,336,336,336,336,336,336,336,0,0,336,0,0,0,
336,336,336,336,336,336,336,336,336,336,0,0,336,0,0,0,
336,336,336,336,336,336,336,336,336,336,0,0,0,0,0,0
</chunk>
   <chunk x="16" y="32" width="16" height="16">
336,336,336,336,336,336,336,336,336,336,336,336,336,336,336,336,
336,336,336,336,336,336,336,336,336,336,336,336,336,336,336,336,
336,336,336,336,336,336,336,336,336,336,336,336,336,336,336,336,
336,336,336,336,336,336,336,336,336,336,336,336,336,336,336,336,
336,336,336,336,336,336,336,336,336,336,336,336,336,336,336,336,
0,0,336,336,336,336,336,336,336,336,336,336,336,336,336,336,
0,0,336,336,336,336,336,336,336,336,336,336,336,336,336,336,
0,0,336,336,336,336,336,336,336,336,336,336,336,336,336,336,
336,0,336,336,336,336,336,336,336,336,336,336,336,336,336,336,
336,336,336,336,336,336,336,336,336,336,336,336,336,336,336,336,
336,0,336,336,336,336,336,336,336,336,336,336,336,336,336,336,
0,0,0,0,0,0,0,0,0,336,336,336,336,336,336,336,
0,0,0,0,0,0,0,0,0,0,0,0,336,336,336,336,
0,0,336,0,0,0,0,0,0,0,0,0,336,336,336,336,
0,0,336,0,0,0,0,0,0,0,0,0,336,336,336,336,
0,0,0,0,0,0,336,0,0,0,0,0,336,336,336,336
</chunk>
   <chunk x="32" y="32" width="16" height="16">
336,336,336,336,336,336,336,336,336,336,336,336,336,336,336,336,
336,336,336,336,336,336,336,336,336,336,336,336,336,336,336,336,
336,336,336,336,336,336,0,0,0,0,0,0,0,0,0,0,
336,336,336,336,336,336,0,0,0,0,0,0,0,0,0,0,
336,336,336,336,336,336,0,0,0,0,0,0,0,0,0,0,
336,336,336,336,336,336,0,0,0,0,0,0,0,0,0,0,
336,336,336,336,336,336,0,0,0,0,0,0,0,0,0,0,
336,336,336,336,336,336,0,0,0,0,0,0,0,0,0,0,
336,336,336,336,336,336,0,0,0,0,0,0,0,0,0,0,
336,336,336,336,336,336,0,0,0,0,0,0,0,0,0,0,
336,336,336,336,336,336,0,0,0,0,0,0,0,0,0,0,
336,336,336,336,336,336,0,0,0,0,0,0,0,0,0,0,
336,336,336,336,336,336,0,0,0,0,0,0,0,0,0,0,
336,336,336,336,336,336,0,0,0,0,0,0,0,0,0,0,
336,336,336,336,336,336,0,0,0,0,0,0,0,0,0,0,
336,336,336,336,336,336,0,0,0,0,0,0,0,0,0,0
</chunk>
   <chunk x="48" y="32" width="16" height="16">
336,336,336,336,0,0,0,0,0,0,0,0,0,0,0,0,
336,336,336,336,0,0,0,0,0,0,0,0,0,0,0,0,
0,0,0,0,0,0,0,0,0,0,0,0,0,0,0,0,
0,0,0,0,0,0,0,0,0,0,0,0,0,0,0,0,
0,0,0,0,0,0,0,0,0,0,0,0,0,0,0,0,
0,0,0,0,0,0,0,0,0,0,0,0,0,0,0,0,
0,0,0,0,0,0,0,0,0,0,0,0,0,0,0,0,
0,0,0,0,0,0,0,0,0,0,0,0,0,0,0,0,
0,0,0,0,0,0,0,0,0,0,0,0,0,0,0,0,
0,0,0,0,0,0,0,0,0,0,0,0,0,0,0,0,
0,0,0,0,0,0,0,0,0,0,0,0,0,0,0,0,
0,0,0,0,0,0,0,0,0,0,0,0,0,0,0,0,
0,0,0,0,0,0,0,0,0,0,0,0,0,0,0,0,
0,0,0,0,0,0,0,0,0,0,0,0,0,0,0,0,
0,0,0,0,0,0,0,0,0,0,0,0,0,0,0,0,
0,0,0,0,0,0,0,0,0,0,0,0,0,0,0,0
</chunk>
   <chunk x="0" y="48" width="16" height="16">
336,336,336,336,336,336,336,336,336,336,0,0,0,0,0,0,
336,336,336,336,336,336,336,336,336,336,0,0,336,0,0,0,
336,336,336,336,336,336,336,336,336,336,0,0,336,0,0,0,
336,336,336,336,336,336,336,336,336,336,0,0,0,0,0,0,
336,336,336,336,336,336,336,336,336,336,0,0,0,0,0,0,
336,336,336,336,336,336,336,336,336,336,336,336,336,336,336,336,
336,336,336,336,336,336,336,336,336,336,336,336,336,336,336,336,
336,336,336,336,336,336,336,336,336,336,336,336,336,336,336,336,
336,336,336,336,336,336,336,336,336,336,336,336,336,336,336,336,
336,336,336,336,336,336,336,336,336,336,336,336,336,336,336,336,
336,336,336,336,336,336,336,336,336,336,336,336,336,336,336,336,
336,336,336,336,336,336,336,336,336,336,336,336,336,336,336,336,
336,336,336,336,336,336,336,336,336,336,336,336,336,336,336,336,
0,0,0,0,0,0,0,0,0,0,0,0,0,0,0,0,
0,0,0,0,0,0,0,0,0,0,0,0,0,0,0,0,
0,0,0,0,0,0,0,0,0,0,0,0,0,0,0,0
</chunk>
   <chunk x="16" y="48" width="16" height="16">
0,0,0,0,0,0,336,0,0,0,0,0,336,336,336,336,
0,0,336,0,0,0,0,0,0,0,0,0,336,336,336,336,
0,0,336,0,0,0,0,0,0,0,0,0,336,336,336,336,
0,0,0,0,0,0,0,0,0,0,0,0,336,336,336,336,
0,0,0,0,0,0,0,0,0,336,336,336,336,336,336,336,
336,336,336,336,336,336,336,336,336,336,336,336,336,336,336,336,
336,336,336,336,336,336,336,336,336,336,336,336,336,336,336,336,
336,336,336,336,336,336,336,336,336,336,336,336,336,336,336,336,
336,336,336,336,336,336,336,336,336,336,336,336,336,336,336,336,
336,336,336,336,336,336,336,336,336,336,336,336,336,336,336,336,
336,336,336,336,336,336,336,336,336,336,336,336,336,336,336,336,
336,336,336,336,336,336,336,336,336,336,336,336,336,336,336,336,
336,336,336,336,336,336,336,336,336,336,336,336,336,336,336,336,
0,0,0,0,0,0,0,0,0,0,0,0,0,0,0,0,
0,0,0,0,0,0,0,0,0,0,0,0,0,0,0,0,
0,0,0,0,0,0,0,0,0,0,0,0,0,0,0,0
</chunk>
   <chunk x="32" y="48" width="16" height="16">
336,336,336,336,336,336,0,0,0,0,0,0,0,0,0,0,
336,336,336,336,336,336,0,0,0,0,0,0,0,0,0,0,
336,336,336,336,336,336,0,0,0,0,0,0,0,0,0,0,
336,336,336,336,336,336,0,0,0,0,0,0,0,0,0,0,
336,336,336,336,336,336,0,0,0,0,0,0,0,0,0,0,
336,336,336,336,336,336,0,0,0,0,0,0,0,0,0,0,
336,336,336,336,336,336,0,0,0,0,0,0,0,0,0,0,
336,336,336,336,336,336,0,0,0,0,0,0,0,0,0,0,
336,336,336,336,336,336,0,0,0,0,0,0,0,0,0,0,
336,336,336,336,336,336,0,0,0,0,0,0,0,0,0,0,
336,336,336,336,336,336,0,0,0,0,0,0,0,0,0,0,
336,336,336,336,336,336,0,0,0,0,0,0,0,0,0,0,
336,336,336,336,336,336,0,0,0,0,0,0,0,0,0,0,
0,0,0,0,0,0,0,0,0,0,0,0,0,0,0,0,
0,0,0,0,0,0,0,0,0,0,0,0,0,0,0,0,
0,0,0,0,0,0,0,0,0,0,0,0,0,0,0,0
</chunk>
  </data>
 </layer>
 <layer id="1" name="borders" width="32" height="32" visible="0">
  <data encoding="csv">
   <chunk x="0" y="0" width="16" height="16">
65,66,67,68,69,70,71,72,73,74,0,0,0,0,0,0,
81,0,0,0,0,0,0,0,0,90,0,0,0,0,0,0,
97,0,0,0,0,0,0,0,0,106,0,0,0,0,0,0,
113,0,0,0,0,0,0,0,0,122,0,0,0,0,0,0,
129,0,0,0,0,0,0,0,0,138,0,0,0,0,0,0,
145,0,0,0,0,0,0,0,0,154,0,0,0,0,0,0,
161,0,0,0,0,0,0,0,0,170,0,0,0,0,0,0,
177,178,179,180,181,182,183,184,185,186,0,0,0,0,0,0,
0,0,0,0,0,0,0,0,0,0,0,0,0,0,0,0,
0,0,0,0,0,0,0,0,0,0,0,0,0,0,0,0,
0,0,0,0,0,0,0,0,0,0,0,0,0,0,0,0,
0,0,0,0,0,0,0,0,0,0,0,0,0,0,0,0,
0,0,0,0,0,0,0,0,0,0,0,0,0,0,0,0,
0,0,0,0,0,0,0,0,0,0,0,0,0,0,0,0,
0,0,0,0,0,0,0,0,0,0,0,0,0,0,0,0,
0,0,0,0,0,0,0,0,0,0,0,0,0,0,0,0
</chunk>
   <chunk x="32" y="0" width="16" height="16">
0,0,0,0,0,0,0,0,0,0,65,66,67,68,69,70,
0,0,0,0,0,0,0,0,0,0,81,0,0,0,0,0,
0,0,0,0,0,0,0,0,0,0,97,0,0,0,0,0,
0,0,0,0,0,0,0,0,0,0,113,0,0,0,0,0,
0,0,0,0,0,0,0,0,0,0,129,0,0,0,0,0,
0,0,0,0,0,0,0,0,0,0,145,0,0,0,0,0,
0,0,0,0,0,0,0,0,0,0,161,0,0,0,0,0,
0,0,0,0,0,0,0,0,0,0,177,178,179,180,181,182,
0,0,0,0,0,0,0,0,0,0,0,0,0,0,0,0,
0,0,0,0,0,0,0,0,0,0,0,0,0,0,0,0,
0,0,0,0,0,0,0,0,0,0,0,0,0,0,0,0,
0,0,0,0,0,0,0,0,0,0,0,0,0,0,0,0,
0,0,0,0,0,0,0,0,0,0,0,0,0,0,0,0,
0,0,0,0,0,0,0,0,0,0,0,0,0,0,0,0,
0,0,0,0,0,0,0,0,0,0,0,0,0,0,0,0,
0,0,0,0,0,0,0,0,0,0,0,0,0,0,0,0
</chunk>
   <chunk x="48" y="0" width="16" height="16">
71,72,73,74,0,0,0,0,0,0,0,0,0,0,0,0,
0,0,0,90,0,0,0,0,0,0,0,0,0,0,0,0,
0,0,0,106,0,0,0,0,0,0,0,0,0,0,0,0,
0,0,0,122,0,0,0,0,0,0,0,0,0,0,0,0,
0,0,0,138,0,0,0,0,0,0,0,0,0,0,0,0,
0,0,0,154,0,0,0,0,0,0,0,0,0,0,0,0,
0,0,0,170,0,0,0,0,0,0,0,0,0,0,0,0,
183,184,185,186,0,0,0,0,0,0,0,0,0,0,0,0,
0,0,0,0,0,0,0,0,0,0,0,0,0,0,0,0,
0,0,0,0,0,0,0,0,0,0,0,0,0,0,0,0,
0,0,0,0,0,0,0,0,0,0,0,0,0,0,0,0,
0,0,0,0,0,0,0,0,0,0,0,0,0,0,0,0,
0,0,0,0,0,0,0,0,0,0,0,0,0,0,0,0,
0,0,0,0,0,0,0,0,0,0,0,0,0,0,0,0,
0,0,0,0,0,0,0,0,0,0,0,0,0,0,0,0,
0,0,0,0,0,0,0,0,0,0,0,0,0,0,0,0
</chunk>
   <chunk x="0" y="16" width="16" height="16">
0,0,0,0,0,0,0,0,0,0,0,0,0,0,0,0,
0,0,0,0,0,0,0,0,0,0,0,0,0,0,0,0,
0,0,0,0,0,0,0,0,0,0,0,0,0,0,0,0,
0,0,0,0,0,0,0,0,0,0,0,0,0,0,0,0,
0,0,0,0,0,0,0,0,0,0,0,0,0,0,0,0,
0,0,0,0,0,0,0,0,0,0,0,0,0,0,0,0,
0,0,0,0,0,0,0,0,0,0,0,0,0,0,0,0,
0,0,0,0,0,0,0,0,0,0,0,0,0,0,0,0,
0,0,0,0,0,0,0,0,0,0,0,0,0,0,0,0,
0,0,0,0,0,0,0,0,0,0,0,0,0,0,0,0,
65,66,67,68,69,70,71,72,73,74,0,0,0,0,0,0,
81,0,0,0,0,0,0,0,0,90,0,0,0,0,0,0,
97,0,0,0,0,0,0,0,0,106,0,0,0,0,0,0,
113,0,0,0,0,0,0,0,0,122,0,0,0,0,0,0,
129,0,0,0,0,0,0,0,0,138,0,0,0,0,0,0,
145,0,0,0,0,0,0,0,0,154,0,0,0,0,0,0
</chunk>
   <chunk x="16" y="16" width="16" height="16">
0,0,0,0,0,0,0,0,0,0,0,0,0,0,0,0,
0,0,0,0,0,0,0,0,0,0,0,0,0,0,0,0,
0,0,0,0,0,0,0,0,0,0,0,0,0,0,0,0,
0,0,0,0,0,0,0,0,0,0,0,0,0,0,0,0,
0,0,0,0,0,0,0,0,0,0,0,0,0,0,0,0,
0,0,0,0,0,0,0,0,0,0,0,0,0,0,0,0,
0,0,0,0,0,0,0,0,0,0,0,0,0,0,0,0,
0,0,0,0,0,0,0,0,0,0,0,0,0,0,0,0,
0,0,0,0,0,0,0,0,0,0,0,0,0,0,0,0,
0,0,0,0,0,0,0,0,0,0,0,0,0,0,0,0,
0,0,0,0,0,0,0,0,0,0,0,0,65,66,67,68,
0,0,0,0,0,0,0,0,0,0,0,0,81,0,0,0,
0,0,0,0,0,0,0,0,0,0,0,0,97,0,0,0,
0,0,0,0,0,0,0,0,0,0,0,0,113,0,0,0,
0,0,0,0,0,0,0,0,0,0,0,0,129,0,0,0,
0,0,0,0,0,0,0,0,0,0,0,0,145,0,0,0
</chunk>
   <chunk x="32" y="16" width="16" height="16">
0,0,0,0,0,0,0,0,0,0,0,0,0,0,0,0,
0,0,0,0,0,0,0,0,0,0,0,0,0,0,0,0,
0,0,0,0,0,0,0,0,0,0,0,0,0,0,0,0,
0,0,0,0,0,0,0,0,0,0,0,0,0,0,0,0,
0,0,0,0,0,0,0,0,0,0,0,0,0,0,0,0,
0,0,0,0,0,0,0,0,0,0,0,0,0,0,0,0,
0,0,0,0,0,0,0,0,0,0,0,0,0,0,0,0,
0,0,0,0,0,0,0,0,0,0,0,0,0,0,0,0,
0,0,0,0,0,0,0,0,0,0,0,0,0,0,0,0,
0,0,0,0,0,0,0,0,0,0,0,0,0,0,0,0,
69,70,71,72,73,74,0,0,0,0,65,66,67,68,69,70,
0,0,0,0,0,90,0,0,0,0,81,0,0,0,0,0,
0,0,0,0,0,106,0,0,0,0,97,0,0,0,0,0,
0,0,0,0,0,122,0,0,0,0,113,0,0,0,0,0,
0,0,0,0,0,138,0,0,0,0,129,0,0,0,0,0,
0,0,0,0,0,154,0,0,0,0,145,0,0,0,0,0
</chunk>
   <chunk x="48" y="16" width="16" height="16">
0,0,0,0,0,0,0,0,0,0,0,0,0,0,0,0,
0,0,0,0,0,0,0,0,0,0,0,0,0,0,0,0,
0,0,0,0,0,0,0,0,0,0,0,0,0,0,0,0,
0,0,0,0,0,0,0,0,0,0,0,0,0,0,0,0,
0,0,0,0,0,0,0,0,0,0,0,0,0,0,0,0,
0,0,0,0,0,0,0,0,0,0,0,0,0,0,0,0,
0,0,0,0,0,0,0,0,0,0,0,0,0,0,0,0,
0,0,0,0,0,0,0,0,0,0,0,0,0,0,0,0,
0,0,0,0,0,0,0,0,0,0,0,0,0,0,0,0,
0,0,0,0,0,0,0,0,0,0,0,0,0,0,0,0,
71,72,73,74,0,0,0,0,0,0,0,0,0,0,0,0,
0,0,0,90,0,0,0,0,0,0,0,0,0,0,0,0,
0,0,0,106,0,0,0,0,0,0,0,0,0,0,0,0,
0,0,0,122,0,0,0,0,0,0,0,0,0,0,0,0,
0,0,0,138,0,0,0,0,0,0,0,0,0,0,0,0,
0,0,0,154,0,0,0,0,0,0,0,0,0,0,0,0
</chunk>
   <chunk x="0" y="32" width="16" height="16">
161,0,0,0,0,0,0,0,0,170,0,0,0,0,0,0,
177,178,179,180,181,182,183,184,185,186,0,0,0,0,0,0,
0,0,0,0,0,0,0,0,0,0,0,0,0,0,0,0,
0,0,0,0,0,0,0,0,0,0,0,0,0,0,0,0,
0,0,0,0,0,0,0,0,0,0,0,0,0,0,0,0,
0,0,0,0,0,0,0,0,0,0,0,0,0,0,0,0,
0,0,0,0,0,0,0,0,0,0,0,0,0,0,0,0,
0,0,0,0,0,0,0,0,0,0,0,0,0,0,0,0,
0,0,0,0,0,0,0,0,0,0,0,0,0,0,0,0,
0,0,0,0,0,0,0,0,0,0,0,0,0,0,0,0,
0,0,0,0,0,0,0,0,0,0,0,0,0,0,0,0,
0,0,0,0,0,0,0,0,0,0,0,0,0,0,0,0,
0,0,0,0,0,0,0,0,0,0,0,0,0,0,0,0,
0,0,0,0,0,0,0,0,0,0,0,0,0,0,0,0,
0,0,0,0,0,0,0,0,0,0,0,0,0,0,0,0,
0,0,0,0,0,0,0,0,0,0,0,0,0,0,0,0
</chunk>
   <chunk x="16" y="32" width="16" height="16">
0,0,0,0,0,0,0,0,0,0,0,0,161,0,0,0,
0,0,0,0,0,0,0,0,0,0,0,0,177,178,179,180,
0,0,0,0,0,0,0,0,0,0,0,0,0,0,0,0,
0,0,0,0,0,0,0,0,0,0,0,0,0,0,0,0,
0,0,0,0,0,0,0,0,0,0,0,0,0,0,0,0,
0,0,0,0,0,0,0,0,0,0,0,0,0,0,0,0,
0,0,0,0,0,0,0,0,0,0,0,0,0,0,0,0,
0,0,0,0,0,0,0,0,0,0,0,0,0,0,0,0,
0,0,0,0,0,0,0,0,0,0,0,0,0,0,0,0,
0,0,0,0,0,0,0,0,0,0,0,0,0,0,0,0,
0,0,0,0,0,0,0,0,0,0,0,0,0,0,0,0,
0,0,0,0,0,0,0,0,0,0,0,0,0,0,0,0,
0,0,0,0,0,0,0,0,0,0,0,0,0,0,0,0,
0,0,0,0,0,0,0,0,0,0,0,0,0,0,0,0,
0,0,0,0,0,0,0,0,0,0,0,0,0,0,0,0,
0,0,0,0,0,0,0,0,0,0,0,0,0,0,0,0
</chunk>
   <chunk x="32" y="32" width="16" height="16">
0,0,0,0,0,170,0,0,0,0,161,0,0,0,0,0,
181,182,183,184,185,186,0,0,0,0,177,178,179,180,181,182,
0,0,0,0,0,0,0,0,0,0,0,0,0,0,0,0,
0,0,0,0,0,0,0,0,0,0,0,0,0,0,0,0,
0,0,0,0,0,0,0,0,0,0,0,0,0,0,0,0,
0,0,0,0,0,0,0,0,0,0,0,0,0,0,0,0,
0,0,0,0,0,0,0,0,0,0,0,0,0,0,0,0,
0,0,0,0,0,0,0,0,0,0,0,0,0,0,0,0,
0,0,0,0,0,0,0,0,0,0,0,0,0,0,0,0,
0,0,0,0,0,0,0,0,0,0,0,0,0,0,0,0,
0,0,0,0,0,0,0,0,0,0,0,0,0,0,0,0,
0,0,0,0,0,0,0,0,0,0,0,0,0,0,0,0,
0,0,0,0,0,0,0,0,0,0,0,0,0,0,0,0,
0,0,0,0,0,0,0,0,0,0,0,0,0,0,0,0,
0,0,0,0,0,0,0,0,0,0,0,0,0,0,0,0,
0,0,0,0,0,0,0,0,0,0,0,0,0,0,0,0
</chunk>
   <chunk x="48" y="32" width="16" height="16">
0,0,0,170,0,0,0,0,0,0,0,0,0,0,0,0,
183,184,185,186,0,0,0,0,0,0,0,0,0,0,0,0,
0,0,0,0,0,0,0,0,0,0,0,0,0,0,0,0,
0,0,0,0,0,0,0,0,0,0,0,0,0,0,0,0,
0,0,0,0,0,0,0,0,0,0,0,0,0,0,0,0,
0,0,0,0,0,0,0,0,0,0,0,0,0,0,0,0,
0,0,0,0,0,0,0,0,0,0,0,0,0,0,0,0,
0,0,0,0,0,0,0,0,0,0,0,0,0,0,0,0,
0,0,0,0,0,0,0,0,0,0,0,0,0,0,0,0,
0,0,0,0,0,0,0,0,0,0,0,0,0,0,0,0,
0,0,0,0,0,0,0,0,0,0,0,0,0,0,0,0,
0,0,0,0,0,0,0,0,0,0,0,0,0,0,0,0,
0,0,0,0,0,0,0,0,0,0,0,0,0,0,0,0,
0,0,0,0,0,0,0,0,0,0,0,0,0,0,0,0,
0,0,0,0,0,0,0,0,0,0,0,0,0,0,0,0,
0,0,0,0,0,0,0,0,0,0,0,0,0,0,0,0
</chunk>
   <chunk x="0" y="48" width="16" height="16">
0,0,0,0,0,0,0,0,0,0,0,0,0,0,0,0,
0,0,0,0,0,0,0,0,0,0,0,0,0,0,0,0,
0,0,0,0,0,0,0,0,0,0,0,0,0,0,0,0,
0,0,0,0,0,0,0,0,0,0,0,0,0,0,0,0,
0,0,0,0,0,0,0,0,0,0,0,0,0,0,0,0,
65,66,67,68,69,70,71,72,73,74,0,0,0,0,0,0,
81,0,0,0,0,0,0,0,0,90,0,0,0,0,0,0,
97,0,0,0,0,0,0,0,0,106,0,0,0,0,0,0,
113,0,0,0,0,0,0,0,0,122,0,0,0,0,0,0,
129,0,0,0,0,0,0,0,0,138,0,0,0,0,0,0,
145,0,0,0,0,0,0,0,0,154,0,0,0,0,0,0,
161,0,0,0,0,0,0,0,0,170,0,0,0,0,0,0,
177,178,179,180,181,182,183,184,185,186,0,0,0,0,0,0,
0,0,0,0,0,0,0,0,0,0,0,0,0,0,0,0,
0,0,0,0,0,0,0,0,0,0,0,0,0,0,0,0,
0,0,0,0,0,0,0,0,0,0,0,0,0,0,0,0
</chunk>
   <chunk x="16" y="48" width="16" height="16">
0,0,0,0,0,0,0,0,0,0,0,0,0,0,0,0,
0,0,0,0,0,0,0,0,0,0,0,0,0,0,0,0,
0,0,0,0,0,0,0,0,0,0,0,0,0,0,0,0,
0,0,0,0,0,0,0,0,0,0,0,0,0,0,0,0,
0,0,0,0,0,0,0,0,0,0,0,0,0,0,0,0,
0,0,0,0,0,0,0,0,0,0,0,0,65,66,67,68,
0,0,0,0,0,0,0,0,0,0,0,0,81,0,0,0,
0,0,0,0,0,0,0,0,0,0,0,0,97,0,0,0,
0,0,0,0,0,0,0,0,0,0,0,0,113,0,0,0,
0,0,0,0,0,0,0,0,0,0,0,0,129,0,0,0,
0,0,0,0,0,0,0,0,0,0,0,0,145,0,0,0,
0,0,0,0,0,0,0,0,0,0,0,0,161,0,0,0,
0,0,0,0,0,0,0,0,0,0,0,0,177,178,179,180,
0,0,0,0,0,0,0,0,0,0,0,0,0,0,0,0,
0,0,0,0,0,0,0,0,0,0,0,0,0,0,0,0,
0,0,0,0,0,0,0,0,0,0,0,0,0,0,0,0
</chunk>
   <chunk x="32" y="48" width="16" height="16">
0,0,0,0,0,0,0,0,0,0,0,0,0,0,0,0,
0,0,0,0,0,0,0,0,0,0,0,0,0,0,0,0,
0,0,0,0,0,0,0,0,0,0,0,0,0,0,0,0,
0,0,0,0,0,0,0,0,0,0,0,0,0,0,0,0,
0,0,0,0,0,0,0,0,0,0,0,0,0,0,0,0,
69,70,71,72,73,74,0,0,0,0,0,0,0,0,0,0,
0,0,0,0,0,90,0,0,0,0,0,0,0,0,0,0,
0,0,0,0,0,106,0,0,0,0,0,0,0,0,0,0,
0,0,0,0,0,122,0,0,0,0,0,0,0,0,0,0,
0,0,0,0,0,138,0,0,0,0,0,0,0,0,0,0,
0,0,0,0,0,154,0,0,0,0,0,0,0,0,0,0,
0,0,0,0,0,170,0,0,0,0,0,0,0,0,0,0,
181,182,183,184,185,186,0,0,0,0,0,0,0,0,0,0,
0,0,0,0,0,0,0,0,0,0,0,0,0,0,0,0,
0,0,0,0,0,0,0,0,0,0,0,0,0,0,0,0,
0,0,0,0,0,0,0,0,0,0,0,0,0,0,0,0
</chunk>
  </data>
 </layer>
</map>
