<?xml version="1.0" encoding="UTF-8"?>
<map version="1.10" tiledversion="1.11.2" orientation="orthogonal" renderorder="right-down" compressionlevel="0" width="32" height="32" tilewidth="32" tileheight="32" infinite="1" nextlayerid="228" nextobjectid="1">
 <tileset firstgid="1" source="../Tilesets/Borders.tsx"/>
 <tileset firstgid="193" source="../Tilesets/systemtags.tsx"/>
 <tileset firstgid="321" source="../Tilesets/passages.tsx"/>
 <tileset firstgid="465" source="../Tilesets/i_Olivine Lighthouse.tsx"/>
 <tileset firstgid="2005" source="../Tilesets/int_Elevator.tsx"/>
 <layer id="205" name="Floor_A_1" width="32" height="32">
  <data encoding="csv">
   <chunk x="0" y="-80" width="16" height="16">
0,0,0,0,0,0,0,0,0,0,0,0,0,0,0,0,
0,0,0,0,0,0,0,0,0,0,0,0,0,0,0,0,
0,0,0,0,0,0,0,0,0,0,0,0,0,0,0,0,
0,0,0,0,0,0,0,0,0,0,0,0,0,0,0,0,
0,0,0,0,0,0,0,0,0,0,0,0,0,0,0,0,
0,0,0,0,0,0,0,0,0,0,0,0,0,0,0,0,
0,0,0,0,0,0,0,0,0,0,0,0,0,0,0,0,
0,0,0,0,0,0,0,0,0,0,0,0,0,0,0,0,
0,0,0,0,0,0,0,0,0,0,0,0,0,0,0,0,
0,0,0,0,0,0,0,0,0,0,0,0,0,0,0,0,
0,0,0,0,0,0,0,0,0,0,0,0,0,0,0,0,
0,0,0,0,0,0,0,0,0,0,0,0,0,0,0,0,
0,0,0,0,0,0,0,0,0,0,0,0,0,0,0,679,
0,0,0,0,0,0,0,0,0,0,0,0,0,714,713,714,
0,0,0,0,0,0,0,0,0,0,0,0,678,679,678,679,
0,0,0,0,0,0,0,0,0,0,0,714,713,714,713,714
</chunk>
   <chunk x="16" y="-80" width="16" height="16">
0,0,0,0,0,0,0,0,0,0,0,0,0,0,0,0,
0,0,0,0,0,0,0,0,0,0,0,0,0,0,0,0,
0,0,0,0,0,0,0,0,0,0,0,0,0,0,0,0,
0,0,0,0,0,0,0,0,0,0,0,0,0,0,0,0,
0,0,0,0,0,0,0,0,0,0,0,0,0,0,0,0,
0,0,0,0,0,0,0,0,0,0,0,0,0,0,0,0,
0,0,0,0,0,0,0,0,0,0,0,0,0,0,0,0,
0,0,0,0,0,0,0,0,0,0,0,0,0,0,0,0,
0,0,0,0,0,0,0,0,0,0,0,0,0,0,0,0,
0,0,0,0,0,0,0,0,0,0,0,0,0,0,0,0,
0,0,0,0,0,0,0,0,0,0,0,0,0,0,0,0,
0,0,0,0,0,0,0,0,0,0,0,0,0,0,0,0,
678,679,678,679,0,0,0,0,0,0,0,0,0,0,0,0,
713,714,713,714,713,714,0,0,0,0,0,0,0,0,0,0,
678,679,678,679,678,679,678,0,0,0,0,0,0,0,0,0,
713,714,713,714,713,714,713,714,0,0,0,0,0,0,0,0
</chunk>
   <chunk x="0" y="-64" width="16" height="16">
0,0,0,0,0,0,0,0,0,0,0,679,678,679,678,679,
0,0,0,0,0,0,0,0,0,0,713,714,713,714,713,714,
0,0,0,0,0,0,0,0,0,0,678,679,678,679,678,679,
0,0,0,0,0,0,0,0,0,0,713,714,713,714,713,714,
0,0,0,0,0,0,0,0,0,0,678,679,678,679,678,679,
0,0,0,0,0,0,0,0,0,0,713,714,713,714,713,714,
0,0,0,0,0,0,0,0,0,0,678,679,678,679,678,679,
0,0,0,0,0,0,0,0,0,536,0,714,713,714,713,714,
0,0,0,0,0,0,0,0,0,536,0,679,678,679,678,679,
0,0,0,0,0,0,0,0,0,536,536,0,713,714,713,714,
0,0,0,0,0,0,0,0,0,536,536,536,0,679,678,679,
0,0,0,0,0,0,0,0,0,536,536,536,536,0,0,714,
0,0,0,0,0,0,0,0,0,536,536,536,536,536,536,536,
0,0,0,0,0,0,0,0,0,0,0,0,0,0,0,0,
0,0,0,0,0,0,0,0,0,0,0,0,0,0,0,0,
0,0,0,0,0,0,0,0,0,0,0,0,0,0,0,0
</chunk>
   <chunk x="16" y="-64" width="16" height="16">
678,679,678,679,678,679,678,679,0,0,0,0,0,0,0,0,
713,714,713,714,713,714,713,714,713,714,0,0,0,0,0,0,
678,679,678,679,678,679,678,679,678,679,0,0,0,0,0,0,
713,714,713,714,713,714,713,714,713,714,0,0,0,0,0,0,
678,679,678,679,678,679,678,679,678,0,0,0,0,0,0,0,
713,714,713,714,713,714,713,714,713,0,0,0,0,0,0,0,
678,679,678,679,678,679,678,679,678,0,0,0,0,0,0,0,
713,714,713,714,713,714,713,714,0,536,0,0,0,0,0,0,
678,679,678,679,678,679,678,679,0,536,0,0,0,0,0,0,
713,714,713,714,713,714,713,0,536,536,0,0,0,0,0,0,
678,679,678,679,678,679,0,536,536,536,0,0,0,0,0,0,
713,714,713,714,0,0,536,536,536,536,0,0,0,0,0,0,
536,536,536,536,536,536,536,536,536,536,0,0,0,0,0,0,
0,0,0,0,0,0,0,0,0,0,0,0,0,0,0,0,
0,0,0,0,0,0,0,0,0,0,0,0,0,0,0,0,
0,0,0,0,0,0,0,0,0,0,0,0,0,0,0,0
</chunk>
   <chunk x="0" y="-48" width="16" height="16">
0,0,0,0,0,0,0,0,0,0,0,0,0,0,0,0,
0,0,0,0,0,0,0,0,0,0,0,0,0,0,0,0,
0,0,0,0,0,0,0,0,0,0,0,0,0,0,0,0,
0,0,0,0,0,0,0,0,0,0,0,0,0,0,0,0,
0,0,0,0,0,0,0,0,0,0,0,0,0,0,0,0,
0,0,0,0,0,0,0,0,0,0,0,0,0,0,0,0,
0,0,0,0,0,0,0,0,0,0,0,0,0,0,0,679,
0,0,0,0,0,0,0,0,0,0,0,0,0,714,713,714,
0,0,0,0,0,0,0,0,0,0,0,0,678,679,678,679,
0,0,0,0,0,0,0,0,0,0,0,714,713,714,713,714,
0,0,0,0,0,0,0,0,0,0,0,679,678,679,678,679,
0,0,0,0,0,0,0,0,0,0,713,714,713,714,713,714,
0,0,0,0,0,0,0,0,0,0,678,679,678,679,678,679,
0,0,0,0,0,0,0,0,0,0,713,714,713,714,713,714,
0,0,0,0,0,0,0,0,0,0,678,679,678,679,678,679,
0,0,0,0,0,0,0,0,0,0,713,714,713,714,713,714
</chunk>
   <chunk x="16" y="-48" width="16" height="16">
0,0,0,0,0,0,0,0,0,0,0,0,0,0,0,0,
0,0,0,0,0,0,0,0,0,0,0,0,0,0,0,0,
0,0,0,0,0,0,0,0,0,0,0,0,0,0,0,0,
0,0,0,0,0,0,0,0,0,0,0,0,0,0,0,0,
0,0,0,0,0,0,0,0,0,0,0,0,0,0,0,0,
0,0,0,0,0,0,0,0,0,0,0,0,0,0,0,0,
678,679,678,679,0,0,0,0,0,0,0,0,0,0,0,0,
713,714,713,714,713,714,0,0,0,0,0,0,0,0,0,0,
678,679,678,679,678,679,678,0,0,0,0,0,0,0,0,0,
713,714,713,714,713,714,713,714,0,0,0,0,0,0,0,0,
678,679,678,679,678,679,0,679,0,0,0,0,0,0,0,0,
713,714,713,714,713,714,713,714,713,0,0,0,0,0,0,0,
678,679,678,679,678,679,678,679,678,0,0,0,0,0,0,0,
713,714,713,714,713,714,713,714,713,0,0,0,0,0,0,0,
678,679,678,679,678,679,678,679,678,0,0,0,0,0,0,0,
713,714,713,714,713,714,713,714,713,0,0,0,0,0,0,0
</chunk>
   <chunk x="0" y="-32" width="16" height="16">
0,0,0,0,0,0,0,0,0,0,678,679,678,679,678,679,
0,0,0,0,0,0,0,0,0,536,0,714,713,714,713,714,
0,0,0,0,0,0,0,0,0,536,0,679,678,679,678,679,
0,0,0,0,0,0,0,0,0,536,536,0,713,714,713,714,
0,0,0,0,0,0,0,0,0,536,536,536,0,679,678,679,
0,0,0,0,0,0,0,0,0,536,536,536,536,0,0,714,
0,0,0,0,0,0,0,0,0,536,536,536,536,536,536,536,
0,0,0,0,0,0,0,0,0,0,0,0,0,0,0,0,
0,0,0,0,0,0,0,0,0,0,0,0,0,0,0,0,
0,0,0,0,0,0,0,0,0,0,0,0,0,0,0,0,
0,0,0,0,0,0,0,0,0,0,0,0,0,0,0,0,
0,0,0,0,0,0,0,0,0,0,0,0,0,0,0,0,
0,0,0,0,0,0,0,0,0,0,0,0,0,0,0,0,
0,0,0,0,0,0,0,0,0,0,0,0,0,0,0,0,
0,0,0,0,0,0,0,0,0,0,0,0,0,0,0,0,
0,0,0,0,0,0,0,0,0,0,0,0,0,0,0,0
</chunk>
   <chunk x="16" y="-32" width="16" height="16">
678,679,678,679,678,679,678,679,678,0,0,0,0,0,0,0,
713,714,713,714,713,714,713,714,0,536,0,0,0,0,0,0,
678,679,678,679,678,679,678,679,0,536,0,0,0,0,0,0,
713,714,713,714,713,714,713,0,536,536,0,0,0,0,0,0,
678,679,678,679,678,679,0,536,536,536,0,0,0,0,0,0,
713,714,713,714,0,0,536,536,536,536,0,0,0,0,0,0,
754,755,756,536,536,536,536,536,536,536,0,0,0,0,0,0,
0,0,0,0,0,0,0,0,0,0,0,0,0,0,0,0,
0,0,0,0,0,0,0,0,0,0,0,0,0,0,0,0,
0,0,0,0,0,0,0,0,0,0,0,0,0,0,0,0,
0,0,0,0,0,0,0,0,0,0,0,0,0,0,0,0,
0,0,0,0,0,0,0,0,0,0,0,0,0,0,0,0,
0,0,0,0,0,0,0,0,0,0,0,0,0,0,0,0,
0,0,0,0,0,0,0,0,0,0,0,0,0,0,0,0,
0,0,0,0,0,0,0,0,0,0,0,0,0,0,0,0,
0,0,0,0,0,0,0,0,0,0,0,0,0,0,0,0
</chunk>
   <chunk x="0" y="-16" width="16" height="16">
0,0,0,0,0,0,0,0,0,0,712,712,712,712,712,712,
0,0,0,0,0,0,0,0,0,0,712,712,712,712,712,712,
0,0,0,0,0,0,0,0,0,0,712,676,677,676,712,712,
0,0,0,0,0,0,0,0,0,0,712,676,677,676,712,712,
0,0,0,0,0,0,0,0,0,0,712,676,677,676,712,712,
0,0,0,0,0,0,0,0,0,0,712,676,677,676,712,712,
0,0,0,0,0,0,0,0,0,0,712,676,677,676,712,712,
0,0,0,0,0,0,0,0,0,0,712,676,677,676,712,712,
0,0,0,0,0,0,0,0,0,0,712,676,677,676,712,712,
0,0,0,0,0,0,0,0,0,0,712,676,677,676,712,712,
0,0,0,0,0,0,0,0,0,0,712,676,677,676,712,712,
0,0,0,0,0,0,0,0,0,0,712,676,677,676,677,676,
0,0,0,0,0,0,0,0,0,0,712,676,677,676,677,676,
0,0,0,0,0,0,0,0,0,0,712,676,677,676,677,676,
0,0,0,0,0,0,0,0,0,536,712,712,712,712,712,712,
0,0,0,0,0,0,0,0,0,536,536,536,536,536,536,536
</chunk>
   <chunk x="16" y="-16" width="16" height="16">
712,0,0,0,712,712,712,712,712,0,0,0,0,0,0,0,
712,0,0,0,712,712,712,712,712,0,0,0,0,0,0,0,
712,0,0,0,712,712,712,712,712,0,0,0,0,0,0,0,
712,0,0,0,712,712,712,712,712,0,0,0,0,0,0,0,
712,0,0,0,712,712,712,712,712,0,0,0,0,0,0,0,
712,0,0,0,712,676,677,676,712,0,0,0,0,0,0,0,
712,0,0,0,712,676,677,676,712,0,0,0,0,0,0,0,
712,0,0,0,712,676,677,676,712,0,0,0,0,0,0,0,
712,712,712,712,712,676,677,676,712,0,0,0,0,0,0,0,
712,712,712,712,712,676,677,676,712,0,0,0,0,0,0,0,
712,712,712,712,712,676,677,676,712,0,0,0,0,0,0,0,
677,676,677,676,677,676,677,676,712,0,0,0,0,0,0,0,
677,676,677,676,677,676,677,676,712,0,0,0,0,0,0,0,
677,676,677,676,677,676,677,676,712,0,0,0,0,0,0,0,
712,712,712,712,712,712,712,712,712,536,0,0,0,0,0,0,
536,536,536,536,536,536,536,536,536,536,0,0,0,0,0,0
</chunk>
   <chunk x="0" y="0" width="16" height="16">
0,0,0,0,0,0,0,0,0,0,0,0,0,0,0,0,
0,0,0,0,0,0,0,0,0,0,0,0,0,0,0,0,
0,0,0,0,0,0,0,0,0,0,0,0,0,0,0,0,
0,0,0,0,0,0,0,0,0,0,0,0,0,0,0,0,
0,0,0,0,0,0,0,0,0,0,0,0,0,0,0,0,
0,0,0,0,0,0,0,0,0,0,0,0,0,0,0,0,
0,0,0,0,0,0,0,0,0,0,0,0,0,0,0,0,
0,0,0,0,0,0,0,0,0,0,0,0,0,0,0,0,
0,0,0,0,0,0,0,0,0,0,0,0,0,0,0,0,
0,0,0,0,0,0,0,0,0,0,712,712,712,712,0,0,
0,0,0,0,0,0,0,0,0,0,712,712,712,712,0,0,
0,0,0,0,0,0,0,0,0,0,712,712,712,712,676,677,
0,0,0,0,0,0,0,0,0,0,712,712,712,712,676,677,
0,0,0,0,0,0,0,0,0,0,712,712,676,677,676,677,
0,0,0,0,0,0,0,0,0,0,712,712,676,677,676,677,
0,0,0,0,0,0,0,0,0,0,712,712,676,677,676,677
</chunk>
   <chunk x="16" y="0" width="16" height="16">
0,0,0,0,0,0,0,0,0,0,0,0,0,0,0,0,
0,0,0,0,0,0,0,0,0,0,0,0,0,0,0,0,
0,0,0,0,0,0,0,0,0,0,0,0,0,0,0,0,
0,0,0,0,0,0,0,0,0,0,0,0,0,0,0,0,
0,0,0,0,0,0,0,0,0,0,0,0,0,0,0,0,
0,0,0,0,0,0,0,0,0,0,0,0,0,0,0,0,
0,0,0,0,0,0,0,0,0,0,0,0,0,0,0,0,
0,0,0,0,0,0,0,0,0,0,0,0,0,0,0,0,
0,0,0,0,0,0,0,0,0,0,0,0,0,0,0,0,
0,0,0,0,0,712,712,712,712,0,0,0,0,0,0,0,
0,0,0,0,0,712,712,712,712,0,0,0,0,0,0,0,
676,677,676,677,676,712,712,712,712,0,0,0,0,0,0,0,
676,677,676,677,676,712,712,712,712,0,0,0,0,0,0,0,
676,677,676,677,676,677,676,712,712,0,0,0,0,0,0,0,
676,677,676,677,676,677,676,712,712,0,0,0,0,0,0,0,
676,677,676,677,676,677,676,712,712,0,0,0,0,0,0,0
</chunk>
   <chunk x="0" y="16" width="16" height="16">
0,0,0,0,0,0,0,0,0,0,712,712,676,677,676,677,
0,0,0,0,0,0,0,0,0,0,712,712,676,677,676,677,
0,0,0,0,0,0,0,0,0,0,712,712,676,677,676,677,
0,0,0,0,0,0,0,0,0,0,712,712,676,677,676,677,
0,0,0,0,0,0,0,0,0,0,712,712,676,677,676,677,
0,0,0,0,0,0,0,0,0,0,712,712,676,677,676,677,
0,0,0,0,0,0,0,0,0,0,712,712,712,712,712,712,
0,0,0,0,0,0,0,0,0,536,712,712,712,712,712,712,
0,0,0,0,0,0,0,0,0,536,536,536,536,536,536,536,
0,0,0,0,0,0,0,0,0,0,0,0,0,0,0,0,
0,0,0,0,0,0,0,0,0,0,0,0,0,0,0,0,
0,0,0,0,0,0,0,0,0,0,0,0,0,0,0,0,
0,0,0,0,0,0,0,0,0,0,0,0,0,0,0,0,
0,0,0,0,0,0,0,0,0,0,0,0,0,0,0,0,
0,0,0,0,0,0,0,0,0,0,0,0,0,0,0,0,
0,0,0,0,0,0,0,0,0,0,0,0,0,0,0,0
</chunk>
   <chunk x="16" y="16" width="16" height="16">
676,677,676,677,676,677,676,712,712,0,0,0,0,0,0,0,
676,677,676,677,676,677,676,712,712,0,0,0,0,0,0,0,
676,677,676,677,676,677,676,712,712,0,0,0,0,0,0,0,
676,677,676,677,676,677,676,712,712,0,0,0,0,0,0,0,
676,677,676,677,676,677,676,712,712,0,0,0,0,0,0,0,
676,677,676,677,676,677,676,712,712,0,0,0,0,0,0,0,
712,712,712,712,712,712,712,712,712,0,0,0,0,0,0,0,
712,712,712,712,712,712,712,712,712,536,0,0,0,0,0,0,
754,755,756,536,536,536,536,536,536,536,0,0,0,0,0,0,
0,0,0,0,0,0,0,0,0,0,0,0,0,0,0,0,
0,0,0,0,0,0,0,0,0,0,0,0,0,0,0,0,
0,0,0,0,0,0,0,0,0,0,0,0,0,0,0,0,
0,0,0,0,0,0,0,0,0,0,0,0,0,0,0,0,
0,0,0,0,0,0,0,0,0,0,0,0,0,0,0,0,
0,0,0,0,0,0,0,0,0,0,0,0,0,0,0,0,
0,0,0,0,0,0,0,0,0,0,0,0,0,0,0,0
</chunk>
   <chunk x="32" y="16" width="16" height="16">
0,0,0,0,0,0,0,0,0,0,0,0,0,0,0,0,
0,0,0,0,0,0,0,0,0,0,0,0,0,0,0,0,
0,0,0,0,0,0,0,0,0,0,0,0,0,0,0,0,
0,0,0,0,0,0,0,0,0,0,0,0,0,0,0,0,
0,0,0,0,2022,2023,2022,2023,2022,0,0,0,0,0,0,0,
0,0,0,0,2032,2033,2032,2033,2032,0,0,0,0,0,0,0,
0,0,0,0,2022,2023,2022,2023,2022,0,0,0,0,0,0,0,
0,0,0,2006,2032,2033,2032,2033,2032,0,0,0,0,0,0,0,
0,0,0,2006,2006,2049,2050,2051,2006,2006,0,0,0,0,0,0,
0,0,0,0,0,0,0,0,0,0,0,0,0,0,0,0,
0,0,0,0,0,0,0,0,0,0,0,0,0,0,0,0,
0,0,0,0,0,0,0,0,0,0,0,0,0,0,0,0,
0,0,0,0,0,0,0,0,0,0,0,0,0,0,0,0,
0,0,0,0,0,0,0,0,0,0,0,0,0,0,0,0,
0,0,0,0,0,0,0,0,0,0,0,0,0,0,0,0,
0,0,0,0,0,0,0,0,0,0,0,0,0,0,0,0
</chunk>
  </data>
 </layer>
 <layer id="227" name="Floor_B_1" width="32" height="32">
  <data encoding="csv">
   <chunk x="16" y="-80" width="16" height="16">
0,0,0,0,0,0,0,0,0,0,0,0,0,0,0,0,
0,0,0,0,0,0,0,0,0,0,0,0,0,0,0,0,
0,0,0,0,0,0,0,0,0,0,0,0,0,0,0,0,
0,0,0,0,0,0,0,0,0,0,0,0,0,0,0,0,
0,0,0,0,0,0,0,0,0,0,0,0,0,0,0,0,
0,0,0,0,0,0,0,0,0,0,0,0,0,0,0,0,
0,0,0,0,0,0,0,0,0,0,0,0,0,0,0,0,
0,0,0,0,0,0,0,0,0,0,0,0,0,0,0,0,
0,0,0,0,0,0,0,0,0,0,0,0,0,0,0,0,
0,0,0,0,0,0,0,0,0,0,0,0,0,0,0,0,
0,0,0,0,0,0,0,0,0,0,0,0,0,0,0,0,
0,0,0,0,0,0,0,0,0,0,0,0,0,0,0,0,
0,0,715,715,0,0,0,0,0,0,0,0,0,0,0,0,
0,0,715,715,0,0,0,0,0,0,0,0,0,0,0,0,
0,0,715,715,0,0,0,0,0,0,0,0,0,0,0,0,
0,0,715,715,0,0,0,0,0,0,0,0,0,0,0,0
</chunk>
   <chunk x="0" y="-64" width="16" height="16">
0,0,0,0,0,0,0,0,0,0,0,0,0,0,0,0,
0,0,0,0,0,0,0,0,0,0,0,0,0,0,0,0,
0,0,0,0,0,0,0,0,0,0,0,0,0,0,0,0,
0,0,0,0,0,0,0,0,0,0,0,0,0,0,0,0,
0,0,0,0,0,0,0,0,0,0,0,0,0,0,0,0,
0,0,0,0,0,0,0,0,0,0,0,0,0,0,0,0,
0,0,0,0,0,0,0,0,0,0,715,715,715,715,715,715,
0,0,0,0,0,0,0,0,0,0,0,0,0,0,0,0,
0,0,0,0,0,0,0,0,0,0,0,0,0,0,0,0,
0,0,0,0,0,0,0,0,0,0,0,0,0,0,0,0,
0,0,0,0,0,0,0,0,0,0,0,0,0,0,0,0,
0,0,0,0,0,0,0,0,0,0,0,0,0,0,0,0,
0,0,0,0,0,0,0,0,0,0,0,0,0,0,0,0,
0,0,0,0,0,0,0,0,0,0,0,0,0,0,0,0,
0,0,0,0,0,0,0,0,0,0,0,0,0,0,0,0,
0,0,0,0,0,0,0,0,0,0,0,0,0,0,0,0
</chunk>
   <chunk x="16" y="-64" width="16" height="16">
0,0,715,715,0,0,0,0,0,0,0,0,0,0,0,0,
0,0,715,715,0,0,0,0,0,0,0,0,0,0,0,0,
0,0,715,715,0,0,0,0,0,0,0,0,0,0,0,0,
0,0,715,715,0,0,0,1571,1572,1573,0,0,0,0,0,0,
0,0,715,715,0,0,0,0,0,0,0,0,0,0,0,0,
0,0,715,715,0,0,0,0,0,0,0,0,0,0,0,0,
715,715,715,715,0,0,0,0,0,0,0,0,0,0,0,0,
0,0,0,0,0,0,0,0,0,0,0,0,0,0,0,0,
0,0,0,0,0,0,0,0,0,0,0,0,0,0,0,0,
0,0,0,0,0,0,0,0,0,0,0,0,0,0,0,0,
0,0,0,0,0,0,0,0,0,0,0,0,0,0,0,0,
0,0,0,0,0,0,0,0,0,0,0,0,0,0,0,0,
0,0,0,0,0,0,0,0,0,0,0,0,0,0,0,0,
0,0,0,0,0,0,0,0,0,0,0,0,0,0,0,0,
0,0,0,0,0,0,0,0,0,0,0,0,0,0,0,0,
0,0,0,0,0,0,0,0,0,0,0,0,0,0,0,0
</chunk>
   <chunk x="0" y="-48" width="16" height="16">
0,0,0,0,0,0,0,0,0,0,0,0,0,0,0,0,
0,0,0,0,0,0,0,0,0,0,0,0,0,0,0,0,
0,0,0,0,0,0,0,0,0,0,0,0,0,0,0,0,
0,0,0,0,0,0,0,0,0,0,0,0,0,0,0,0,
0,0,0,0,0,0,0,0,0,0,0,0,0,0,0,0,
0,0,0,0,0,0,0,0,0,0,0,0,0,0,0,0,
0,0,0,0,0,0,0,0,0,0,0,0,0,0,0,0,
0,0,0,0,0,0,0,0,0,0,0,0,0,0,0,0,
0,0,0,0,0,0,0,0,0,0,0,0,0,0,0,0,
0,0,0,0,0,0,0,0,0,0,0,0,816,817,0,0,
0,0,0,0,0,0,0,0,0,0,0,0,851,852,0,0,
0,0,0,0,0,0,0,0,0,0,0,0,886,887,0,0,
0,0,0,0,0,0,0,0,0,0,0,0,0,0,0,0,
0,0,0,0,0,0,0,0,0,0,0,0,0,0,0,0,
0,0,0,0,0,0,0,0,0,0,0,0,0,0,0,0,
0,0,0,0,0,0,0,0,0,0,0,0,0,0,0,0
</chunk>
   <chunk x="16" y="-48" width="16" height="16">
0,0,0,0,0,0,0,0,0,0,0,0,0,0,0,0,
0,0,0,0,0,0,0,0,0,0,0,0,0,0,0,0,
0,0,0,0,0,0,0,0,0,0,0,0,0,0,0,0,
0,0,0,0,0,0,0,0,0,0,0,0,0,0,0,0,
0,0,0,0,0,0,0,0,0,0,0,0,0,0,0,0,
0,0,0,0,0,0,0,0,0,0,0,0,0,0,0,0,
0,0,715,715,0,0,0,0,0,0,0,0,0,0,0,0,
0,0,715,715,0,0,0,0,0,0,0,0,0,0,0,0,
0,0,715,715,0,0,0,0,0,0,0,0,0,0,0,0,
0,0,715,715,0,0,0,0,0,0,0,0,0,0,0,0,
0,0,715,715,0,0,0,0,0,0,0,0,0,0,0,0,
0,0,715,715,0,0,0,0,0,0,0,0,0,0,0,0,
0,0,0,0,0,0,0,0,0,0,0,0,0,0,0,0,
0,0,0,0,0,0,0,0,0,0,0,0,0,0,0,0,
0,0,0,0,0,0,0,0,0,0,0,0,0,0,0,0,
0,0,0,0,0,0,0,0,0,0,0,0,0,0,0,0
</chunk>
   <chunk x="0" y="-32" width="16" height="16">
0,0,0,0,0,0,0,0,0,0,0,0,0,0,819,820,
0,0,0,0,0,0,0,0,0,0,0,0,0,853,854,855,
0,0,0,0,0,0,0,0,0,0,0,0,0,888,889,0,
0,0,0,0,0,0,0,0,0,0,0,0,0,0,0,0,
0,0,0,0,0,0,0,0,0,0,0,0,0,0,0,0,
0,0,0,0,0,0,0,0,0,0,0,0,0,0,0,0,
0,0,0,0,0,0,0,0,0,0,0,0,0,0,0,0,
0,0,0,0,0,0,0,0,0,0,0,0,0,0,0,0,
0,0,0,0,0,0,0,0,0,0,0,0,0,0,0,0,
0,0,0,0,0,0,0,0,0,0,0,0,0,0,0,0,
0,0,0,0,0,0,0,0,0,0,0,0,0,0,0,0,
0,0,0,0,0,0,0,0,0,0,0,0,0,0,0,0,
0,0,0,0,0,0,0,0,0,0,0,0,0,0,0,0,
0,0,0,0,0,0,0,0,0,0,0,0,0,0,0,0,
0,0,0,0,0,0,0,0,0,0,0,0,0,0,0,0,
0,0,0,0,0,0,0,0,0,0,0,0,0,0,0,0
</chunk>
   <chunk x="16" y="-32" width="16" height="16">
643,644,715,715,715,715,715,715,715,0,0,0,0,0,0,0,
0,0,0,748,749,750,0,0,0,0,0,0,0,0,0,0,
0,0,0,783,784,785,0,0,0,0,0,0,0,0,0,0,
0,0,0,0,0,0,0,0,0,0,0,0,0,0,0,0,
0,0,0,0,0,0,0,0,0,0,0,0,0,0,0,0,
0,0,0,0,0,0,0,0,0,0,0,0,0,0,0,0,
0,0,0,0,0,0,0,0,0,0,0,0,0,0,0,0,
0,0,0,0,0,0,0,0,0,0,0,0,0,0,0,0,
0,0,0,0,0,0,0,0,0,0,0,0,0,0,0,0,
0,0,0,0,0,0,0,0,0,0,0,0,0,0,0,0,
0,0,0,0,0,0,0,0,0,0,0,0,0,0,0,0,
0,0,0,0,0,0,0,0,0,0,0,0,0,0,0,0,
0,0,0,0,0,0,0,0,0,0,0,0,0,0,0,0,
0,0,0,0,0,0,0,0,0,0,0,0,0,0,0,0,
0,0,0,0,0,0,0,0,0,0,0,0,0,0,0,0,
0,0,0,0,0,0,0,0,0,0,0,0,0,0,0,0
</chunk>
  </data>
 </layer>
 <layer id="206" name="Floor_C_1" width="32" height="32">
  <data encoding="csv">
   <chunk x="0" y="-80" width="16" height="16">
0,0,0,0,0,0,0,0,0,0,0,0,0,0,0,0,
0,0,0,0,0,0,0,0,0,0,0,0,0,0,0,0,
0,0,0,0,0,0,0,0,0,0,0,0,0,0,0,0,
0,0,0,0,0,0,0,0,0,0,0,0,0,0,0,0,
0,0,0,0,0,0,0,0,0,0,0,0,0,0,0,0,
0,0,0,0,0,0,0,0,0,0,0,0,0,0,0,0,
0,0,0,0,0,0,0,0,0,0,0,0,0,0,0,0,
0,0,0,0,0,0,0,0,0,0,0,0,0,0,0,0,
0,0,0,0,0,0,0,0,0,0,0,0,0,0,0,0,
0,0,0,0,0,0,0,0,0,0,0,0,0,0,0,0,
0,0,0,0,0,0,0,0,0,0,0,0,0,0,0,0,
0,0,0,0,0,0,0,0,0,0,0,0,0,0,0,0,
0,0,0,0,0,0,0,0,0,0,0,0,0,1429,1430,1431,
0,0,0,0,0,0,0,0,0,0,0,0,1463,1464,1465,1466,
0,0,0,0,0,0,0,0,0,0,0,1497,1498,1499,0,0,
0,0,0,0,0,0,0,0,0,0,1531,1532,1533,0,0,0
</chunk>
   <chunk x="16" y="-80" width="16" height="16">
0,0,0,0,0,0,0,0,0,0,0,0,0,0,0,0,
0,0,0,0,0,0,0,0,0,0,0,0,0,0,0,0,
0,0,0,0,0,0,0,0,0,0,0,0,0,0,0,0,
0,0,0,0,0,0,0,0,0,0,0,0,0,0,0,0,
0,0,0,0,0,0,0,0,0,0,0,0,0,0,0,0,
0,0,0,0,0,0,0,0,0,0,0,0,0,0,0,0,
0,0,0,0,0,0,0,0,0,0,0,0,0,0,0,0,
0,0,0,0,0,0,0,0,0,0,0,0,0,0,0,0,
0,0,0,0,0,0,0,0,0,0,0,0,0,0,0,0,
0,0,0,0,0,0,0,0,0,0,0,0,0,0,0,0,
0,0,0,0,0,0,0,0,0,0,0,0,0,0,0,0,
0,0,0,0,0,0,0,0,0,0,0,0,0,0,0,0,
1432,1433,1434,1435,1436,1437,0,0,0,0,0,0,0,0,0,0,
0,0,0,1470,1471,1472,1473,0,0,0,0,0,0,0,0,0,
0,0,0,0,0,1507,1508,1509,0,0,0,0,0,0,0,0,
0,0,0,0,0,0,1543,1544,1545,0,0,0,0,0,0,0
</chunk>
   <chunk x="0" y="-64" width="16" height="16">
0,0,0,0,0,0,0,0,0,0,1566,1567,0,0,0,0,
0,0,0,0,0,0,0,0,0,1600,1601,1602,0,0,0,0,
0,0,0,0,0,0,0,0,0,1635,1636,0,0,0,0,0,
0,0,0,0,0,0,0,0,0,1670,1671,0,0,0,0,0,
0,0,0,0,0,0,0,0,0,1705,1706,0,0,0,0,0,
0,0,0,0,0,0,0,0,0,1740,1741,0,0,0,0,0,
0,0,0,0,0,0,0,0,0,1775,1776,0,0,0,0,0,
0,0,0,0,0,0,0,0,0,0,1811,1812,0,0,0,0,
0,0,0,0,0,0,0,0,0,0,1846,1847,1848,0,0,0,
0,0,0,0,0,0,0,0,0,0,0,1882,1883,1884,0,0,
0,0,0,0,0,0,0,0,0,0,0,0,1918,1919,1920,1921,
0,0,0,0,0,0,0,0,0,0,0,0,0,1954,1955,1956,
0,0,0,0,0,0,0,0,0,0,0,0,0,0,0,0,
0,0,0,0,0,0,0,0,0,0,0,0,0,0,0,0,
0,0,0,0,0,0,0,0,0,0,0,0,0,0,0,0,
0,0,0,0,0,0,0,0,0,0,0,0,0,0,0,0
</chunk>
   <chunk x="16" y="-64" width="16" height="16">
0,0,0,0,0,0,0,1579,1580,0,0,0,0,0,0,0,
0,0,0,0,0,0,0,1614,1615,1616,0,0,0,0,0,0,
0,0,0,0,0,0,0,0,1652,1653,0,0,0,0,0,0,
0,0,0,0,0,0,0,0,0,0,0,0,0,0,0,0,
0,0,0,0,0,0,0,0,0,0,0,0,0,0,0,0,
0,0,0,0,0,0,0,0,1757,1758,0,0,0,0,0,0,
0,0,0,0,0,0,0,1789,1790,1791,0,0,0,0,0,0,
0,0,0,0,0,0,0,1824,1825,0,0,0,0,0,0,0,
0,0,0,0,0,0,1858,1859,1860,0,0,0,0,0,0,0,
0,0,0,0,0,1892,1893,1894,0,0,0,0,0,0,0,0,
0,0,0,1925,1926,1927,1928,0,0,0,0,0,0,0,0,0,
1957,1958,1959,1960,1961,1962,0,0,0,0,0,0,0,0,0,0,
0,0,0,0,0,0,0,0,0,0,0,0,0,0,0,0,
0,0,0,0,0,0,0,0,0,0,0,0,0,0,0,0,
0,0,0,0,0,0,0,0,0,0,0,0,0,0,0,0,
0,0,0,0,0,0,0,0,0,0,0,0,0,0,0,0
</chunk>
   <chunk x="0" y="-48" width="16" height="16">
0,0,0,0,0,0,0,0,0,0,0,0,0,0,0,0,
0,0,0,0,0,0,0,0,0,0,0,0,0,0,0,0,
0,0,0,0,0,0,0,0,0,0,0,0,0,0,0,0,
0,0,0,0,0,0,0,0,0,0,0,0,0,0,0,0,
0,0,0,0,0,0,0,0,0,0,0,0,0,0,0,0,
0,0,0,0,0,0,0,0,0,0,0,0,0,0,0,0,
0,0,0,0,0,0,0,0,0,0,0,0,0,1429,1430,1431,
0,0,0,0,0,0,0,0,0,0,0,0,1463,1464,1465,1466,
0,0,0,0,0,0,0,0,0,0,0,1497,1498,1499,0,0,
0,0,0,0,0,0,0,0,0,0,1531,1532,1533,0,0,0,
0,0,0,0,0,0,0,0,0,0,1566,1567,0,0,0,0,
0,0,0,0,0,0,0,0,0,1600,1601,1602,0,0,0,0,
0,0,0,0,0,0,0,0,0,1635,1636,0,0,0,0,0,
0,0,0,0,0,0,0,0,0,1670,1671,0,0,0,0,0,
0,0,0,0,0,0,0,0,0,1705,1706,0,0,0,0,0,
0,0,0,0,0,0,0,0,0,1740,1741,0,0,0,0,0
</chunk>
   <chunk x="16" y="-48" width="16" height="16">
0,0,0,0,0,0,0,0,0,0,0,0,0,0,0,0,
0,0,0,0,0,0,0,0,0,0,0,0,0,0,0,0,
0,0,0,0,0,0,0,0,0,0,0,0,0,0,0,0,
0,0,0,0,0,0,0,0,0,0,0,0,0,0,0,0,
0,0,0,0,0,0,0,0,0,0,0,0,0,0,0,0,
0,0,0,0,0,0,0,0,0,0,0,0,0,0,0,0,
1432,1433,1434,1435,1436,1437,0,0,0,0,0,0,0,0,0,0,
0,0,0,1470,1471,1472,1473,0,0,0,0,0,0,0,0,0,
0,0,0,0,0,1507,1508,1509,0,0,0,0,0,0,0,0,
0,0,0,0,0,0,1543,1544,1545,0,0,0,0,0,0,0,
0,0,0,0,746,747,0,1579,1580,0,0,0,0,0,0,0,
0,0,0,0,781,782,0,1614,1615,1616,0,0,0,0,0,0,
0,0,0,0,0,0,0,0,1650,1651,0,0,0,0,0,0,
0,0,0,0,0,0,0,0,1685,1686,0,0,0,0,0,0,
0,0,0,0,0,0,0,0,1720,1721,0,0,0,0,0,0,
0,0,0,0,0,0,0,0,1755,1756,0,0,0,0,0,0
</chunk>
   <chunk x="0" y="-32" width="16" height="16">
0,0,0,0,0,0,0,0,0,1775,1776,0,0,0,0,0,
0,0,0,0,0,0,0,0,0,0,1811,1812,0,0,0,0,
0,0,0,0,0,0,0,0,0,0,1846,1847,1848,0,0,0,
0,0,0,0,0,0,0,0,0,0,0,1882,1883,1884,0,0,
0,0,0,0,0,0,0,0,0,0,0,0,1918,1919,1920,1921,
0,0,0,0,0,0,0,0,0,0,0,0,0,1954,1955,1886,
0,0,0,0,0,0,0,0,0,0,0,0,0,0,0,0,
0,0,0,0,0,0,0,0,0,0,0,0,0,0,0,0,
0,0,0,0,0,0,0,0,0,0,0,0,0,0,0,0,
0,0,0,0,0,0,0,0,0,0,0,0,0,0,0,0,
0,0,0,0,0,0,0,0,0,0,0,0,0,0,0,0,
0,0,0,0,0,0,0,0,0,0,0,0,0,0,0,0,
0,0,0,0,0,0,0,0,0,0,0,0,0,0,0,0,
0,0,0,0,0,0,0,0,0,0,0,0,0,0,0,0,
0,0,0,0,0,0,0,0,0,0,0,0,0,0,0,0,
0,0,0,0,0,0,0,0,0,0,0,0,0,0,0,0
</chunk>
   <chunk x="16" y="-32" width="16" height="16">
0,0,0,0,0,0,0,1789,1790,1791,0,0,0,0,0,0,
0,0,0,0,0,0,0,1824,1825,0,0,0,0,0,0,0,
0,0,0,0,0,0,1858,1859,1860,0,0,0,0,0,0,0,
0,0,0,0,0,1892,1893,1894,0,0,0,0,0,0,0,0,
0,0,0,1925,1926,1927,1928,0,0,0,0,0,0,0,0,0,
1887,0,1889,1890,1961,1962,0,0,0,0,0,0,0,0,0,0,
0,0,0,0,0,0,0,0,0,0,0,0,0,0,0,0,
0,0,0,0,0,0,0,0,0,0,0,0,0,0,0,0,
0,0,0,0,0,0,0,0,0,0,0,0,0,0,0,0,
0,0,0,0,0,0,0,0,0,0,0,0,0,0,0,0,
0,0,0,0,0,0,0,0,0,0,0,0,0,0,0,0,
0,0,0,0,0,0,0,0,0,0,0,0,0,0,0,0,
0,0,0,0,0,0,0,0,0,0,0,0,0,0,0,0,
0,0,0,0,0,0,0,0,0,0,0,0,0,0,0,0,
0,0,0,0,0,0,0,0,0,0,0,0,0,0,0,0,
0,0,0,0,0,0,0,0,0,0,0,0,0,0,0,0
</chunk>
   <chunk x="0" y="-16" width="16" height="16">
0,0,0,0,0,0,0,0,0,0,0,0,0,0,0,0,
0,0,0,0,0,0,0,0,0,0,0,0,0,0,0,0,
0,0,0,0,0,0,0,0,0,0,0,716,717,718,0,0,
0,0,0,0,0,0,0,0,0,0,0,751,0,753,0,0,
0,0,0,0,0,0,0,0,0,0,0,751,0,753,0,0,
0,0,0,0,0,0,0,0,0,0,0,751,0,753,0,0,
0,0,0,0,0,0,0,0,0,0,0,751,0,753,0,0,
0,0,0,0,0,0,0,0,0,0,0,751,0,753,0,0,
0,0,0,0,0,0,0,0,0,0,0,751,0,753,0,0,
0,0,0,0,0,0,0,0,0,0,0,751,0,753,0,0,
0,0,0,0,0,0,0,0,0,0,0,751,0,753,0,0,
0,0,0,0,0,0,0,0,0,0,0,751,0,856,717,717,
0,0,0,0,0,0,0,0,0,0,0,751,0,0,0,0,
0,0,0,0,0,0,0,0,0,0,0,786,787,787,787,787,
0,0,0,0,0,0,0,0,0,0,0,0,0,0,0,0,
0,0,0,0,0,0,0,0,0,0,0,0,0,0,0,0
</chunk>
   <chunk x="16" y="-16" width="16" height="16">
0,0,0,0,0,0,0,0,0,0,0,0,0,0,0,0,
0,0,0,0,0,0,0,0,0,0,0,0,0,0,0,0,
0,0,0,0,0,0,0,0,0,0,0,0,0,0,0,0,
0,0,0,0,0,0,0,0,0,0,0,0,0,0,0,0,
0,0,0,0,0,0,0,0,0,0,0,0,0,0,0,0,
0,0,0,0,0,716,717,718,0,0,0,0,0,0,0,0,
0,0,0,0,0,751,0,753,0,0,0,0,0,0,0,0,
0,0,0,0,0,751,0,753,0,0,0,0,0,0,0,0,
0,0,0,0,0,751,0,753,0,0,0,0,0,0,0,0,
0,0,0,0,0,751,0,753,0,0,0,0,0,0,0,0,
0,0,0,0,0,751,0,753,0,0,0,0,0,0,0,0,
717,717,717,717,717,857,0,753,0,0,0,0,0,0,0,0,
0,0,0,0,0,0,0,753,0,0,0,0,0,0,0,0,
787,787,787,787,787,787,787,788,0,0,0,0,0,0,0,0,
0,0,0,0,0,0,0,0,0,0,0,0,0,0,0,0,
0,0,0,0,0,0,0,0,0,0,0,0,0,0,0,0
</chunk>
   <chunk x="0" y="0" width="16" height="16">
0,0,0,0,0,0,0,0,0,0,0,0,0,0,0,0,
0,0,0,0,0,0,0,0,0,0,0,0,0,0,0,0,
0,0,0,0,0,0,0,0,0,0,0,0,0,0,0,0,
0,0,0,0,0,0,0,0,0,0,0,0,0,0,0,0,
0,0,0,0,0,0,0,0,0,0,0,0,0,0,0,0,
0,0,0,0,0,0,0,0,0,0,0,0,0,0,0,0,
0,0,0,0,0,0,0,0,0,0,0,0,0,0,0,0,
0,0,0,0,0,0,0,0,0,0,0,0,0,0,0,0,
0,0,0,0,0,0,0,0,0,0,0,0,0,0,0,0,
0,0,0,0,0,0,0,0,0,0,0,0,0,0,0,0,
0,0,0,0,0,0,0,0,0,0,0,0,0,0,0,0,
0,0,0,0,0,0,0,0,0,0,0,0,0,0,751,0,
0,0,0,0,0,0,0,0,0,0,0,0,0,0,751,0,
0,0,0,0,0,0,0,0,0,0,0,0,716,717,857,0,
0,0,0,0,0,0,0,0,0,0,0,0,751,0,0,0,
0,0,0,0,0,0,0,0,0,0,0,0,751,0,0,0
</chunk>
   <chunk x="16" y="0" width="16" height="16">
0,0,0,0,0,0,0,0,0,0,0,0,0,0,0,0,
0,0,0,0,0,0,0,0,0,0,0,0,0,0,0,0,
0,0,0,0,0,0,0,0,0,0,0,0,0,0,0,0,
0,0,0,0,0,0,0,0,0,0,0,0,0,0,0,0,
0,0,0,0,0,0,0,0,0,0,0,0,0,0,0,0,
0,0,0,0,0,0,0,0,0,0,0,0,0,0,0,0,
0,0,0,0,0,0,0,0,0,0,0,0,0,0,0,0,
0,0,0,0,0,0,0,0,0,0,0,0,0,0,0,0,
0,0,0,0,0,0,0,0,0,0,0,0,0,0,0,0,
0,0,0,0,0,0,0,0,0,0,0,0,0,0,0,0,
0,0,0,0,0,0,0,0,0,0,0,0,0,0,0,0,
0,0,0,0,753,0,0,0,0,0,0,0,0,0,0,0,
0,0,0,0,753,0,0,0,0,0,0,0,0,0,0,0,
0,0,0,0,856,717,718,0,0,0,0,0,0,0,0,0,
0,0,0,0,0,0,753,0,0,0,0,0,0,0,0,0,
0,0,0,0,0,0,753,0,0,0,0,0,0,0,0,0
</chunk>
   <chunk x="0" y="16" width="16" height="16">
0,0,0,0,0,0,0,0,0,0,0,0,751,0,0,0,
0,0,0,0,0,0,0,0,0,0,0,0,751,0,0,0,
0,0,0,0,0,0,0,0,0,0,0,0,751,0,0,0,
0,0,0,0,0,0,0,0,0,0,0,0,751,0,0,0,
0,0,0,0,0,0,0,0,0,0,0,0,751,0,0,0,
0,0,0,0,0,0,0,0,0,0,0,0,786,787,787,787,
0,0,0,0,0,0,0,0,0,0,0,0,0,0,0,0,
0,0,0,0,0,0,0,0,0,0,0,0,0,0,0,0,
0,0,0,0,0,0,0,0,0,0,0,0,0,0,0,0,
0,0,0,0,0,0,0,0,0,0,0,0,0,0,0,0,
0,0,0,0,0,0,0,0,0,0,0,0,0,0,0,0,
0,0,0,0,0,0,0,0,0,0,0,0,0,0,0,0,
0,0,0,0,0,0,0,0,0,0,0,0,0,0,0,0,
0,0,0,0,0,0,0,0,0,0,0,0,0,0,0,0,
0,0,0,0,0,0,0,0,0,0,0,0,0,0,0,0,
0,0,0,0,0,0,0,0,0,0,0,0,0,0,0,0
</chunk>
   <chunk x="16" y="16" width="16" height="16">
0,0,0,0,0,0,753,0,0,0,0,0,0,0,0,0,
0,0,0,0,0,0,753,0,0,0,0,0,0,0,0,0,
0,0,0,0,0,0,753,0,0,0,0,0,0,0,0,0,
0,0,0,0,0,0,753,0,0,0,0,0,0,0,0,0,
0,0,0,0,0,0,753,0,0,0,0,0,0,0,0,0,
787,787,787,787,787,787,788,0,0,0,0,0,0,0,0,0,
0,0,0,0,0,0,0,0,0,0,0,0,0,0,0,0,
719,720,721,0,0,0,0,0,0,0,0,0,0,0,0,0,
0,0,0,0,0,0,0,0,0,0,0,0,0,0,0,0,
0,0,0,0,0,0,0,0,0,0,0,0,0,0,0,0,
0,0,0,0,0,0,0,0,0,0,0,0,0,0,0,0,
0,0,0,0,0,0,0,0,0,0,0,0,0,0,0,0,
0,0,0,0,0,0,0,0,0,0,0,0,0,0,0,0,
0,0,0,0,0,0,0,0,0,0,0,0,0,0,0,0,
0,0,0,0,0,0,0,0,0,0,0,0,0,0,0,0,
0,0,0,0,0,0,0,0,0,0,0,0,0,0,0,0
</chunk>
   <chunk x="32" y="16" width="16" height="16">
0,0,0,0,0,0,0,0,0,0,0,0,0,0,0,0,
0,0,0,0,0,0,0,0,0,0,0,0,0,0,0,0,
0,0,0,0,0,0,0,0,0,0,0,0,0,0,0,0,
0,0,0,0,0,0,0,0,0,0,0,0,0,0,0,0,
0,0,0,0,0,0,0,0,0,0,0,0,0,0,0,0,
0,0,0,0,0,0,0,0,0,0,0,0,0,0,0,0,
0,0,0,0,0,0,0,0,0,0,0,0,0,0,0,0,
0,0,0,0,0,2039,2040,2041,0,0,0,0,0,0,0,0,
0,0,0,0,0,0,0,0,0,0,0,0,0,0,0,0,
0,0,0,0,0,0,0,0,0,0,0,0,0,0,0,0,
0,0,0,0,0,0,0,0,0,0,0,0,0,0,0,0,
0,0,0,0,0,0,0,0,0,0,0,0,0,0,0,0,
0,0,0,0,0,0,0,0,0,0,0,0,0,0,0,0,
0,0,0,0,0,0,0,0,0,0,0,0,0,0,0,0,
0,0,0,0,0,0,0,0,0,0,0,0,0,0,0,0,
0,0,0,0,0,0,0,0,0,0,0,0,0,0,0,0
</chunk>
  </data>
 </layer>
 <layer id="221" name="Wall_A_1" width="32" height="32">
  <data encoding="csv">
   <chunk x="0" y="-80" width="16" height="16">
0,0,0,0,0,0,0,0,0,0,0,0,0,0,0,0,
0,0,0,0,0,0,0,0,0,0,0,0,0,0,0,0,
0,0,0,0,0,0,0,0,0,0,0,0,0,0,0,0,
0,0,0,0,0,0,0,0,0,0,0,0,0,0,0,0,
0,0,0,0,0,0,0,0,0,0,0,0,0,0,0,0,
0,0,0,0,0,0,0,0,0,0,0,0,0,0,0,0,
0,0,0,0,0,0,0,0,0,0,0,0,0,0,0,0,
0,0,0,0,0,0,0,0,0,0,0,0,0,0,0,0,
0,0,0,0,0,0,0,0,0,0,0,0,0,0,0,0,
0,0,0,0,0,0,0,0,0,0,0,0,0,0,0,0,
0,0,0,0,0,0,0,0,0,0,0,0,0,1254,1255,1256,
0,0,0,0,0,0,0,0,0,0,0,0,1288,1289,1290,1291,
0,0,0,0,0,0,0,0,0,0,0,1322,1323,1324,1325,1326,
0,0,0,0,0,0,0,0,0,0,1356,1357,1358,1359,0,0,
0,0,0,0,0,0,0,0,0,0,1391,1392,1393,0,0,0,
0,0,0,0,0,0,0,0,0,1425,1426,1427,0,0,0,0
</chunk>
   <chunk x="16" y="-80" width="16" height="16">
0,0,0,0,0,0,0,0,0,0,0,0,0,0,0,0,
0,0,0,0,0,0,0,0,0,0,0,0,0,0,0,0,
0,0,0,0,0,0,0,0,0,0,0,0,0,0,0,0,
0,0,0,0,0,0,0,0,0,0,0,0,0,0,0,0,
0,0,0,0,0,0,0,0,0,0,0,0,0,0,0,0,
0,0,0,0,0,0,0,0,0,0,0,0,0,0,0,0,
0,0,0,0,0,0,0,0,0,0,0,0,0,0,0,0,
0,0,0,0,0,0,0,0,0,0,0,0,0,0,0,0,
0,0,0,0,0,0,0,0,0,0,0,0,0,0,0,0,
0,0,0,0,0,0,0,0,0,0,0,0,0,0,0,0,
1257,1258,1259,1260,1261,1262,0,0,0,0,0,0,0,0,0,0,
1292,1293,1294,1295,1296,1297,1298,0,0,0,0,0,0,0,0,0,
1327,0,1329,1330,1331,1332,1333,1334,0,0,0,0,0,0,0,0,
0,0,0,0,0,1367,1368,1369,1370,0,0,0,0,0,0,0,
0,0,0,0,0,0,1403,1404,1405,0,0,0,0,0,0,0,
0,0,0,0,0,0,0,1439,1440,1469,0,0,0,0,0,0
</chunk>
   <chunk x="0" y="-64" width="16" height="16">
0,0,0,0,0,0,0,0,0,1460,1461,0,0,0,0,0,
0,0,0,0,0,0,0,0,0,1495,1496,0,0,0,0,0,
0,0,0,0,0,0,0,0,0,1530,0,0,0,0,0,0,
0,0,0,0,0,0,0,0,0,1565,0,0,0,0,0,0,
0,0,0,0,0,0,0,0,0,0,647,648,647,648,647,648,
0,0,0,0,0,0,0,0,0,0,682,683,682,683,682,683,
0,0,0,0,0,0,0,0,0,0,0,0,0,0,0,0,
0,0,0,0,0,0,0,0,0,0,0,0,0,0,0,0,
0,0,0,0,0,0,0,0,0,0,0,0,0,0,0,0,
0,0,0,0,0,0,0,0,0,0,0,0,0,0,0,0,
0,0,0,0,0,0,0,0,0,0,0,0,0,0,0,0,
0,0,0,0,0,0,0,0,0,0,0,0,0,0,0,0,
0,0,0,0,0,0,0,0,0,0,0,0,0,0,0,0,
0,0,0,0,0,0,0,0,0,0,0,0,0,0,0,0,
0,0,0,0,0,0,0,0,0,0,0,0,0,0,0,0,
0,0,0,0,0,0,0,0,0,0,0,0,0,0,0,0
</chunk>
   <chunk x="16" y="-64" width="16" height="16">
0,0,0,0,0,0,0,0,1475,1504,0,0,0,0,0,0,
0,0,0,0,0,0,0,0,1510,1539,0,0,0,0,0,0,
0,0,0,0,0,0,0,0,0,1574,0,0,0,0,0,0,
0,0,0,0,0,0,0,0,0,1581,0,0,0,0,0,0,
645,646,0,0,0,0,0,0,0,0,0,0,0,0,0,0,
680,681,550,0,0,0,0,0,0,0,0,0,0,0,0,0,
0,0,0,0,0,0,0,0,0,0,0,0,0,0,0,0,
0,0,0,0,0,0,0,0,0,0,0,0,0,0,0,0,
0,0,0,0,0,0,0,0,0,0,0,0,0,0,0,0,
0,0,0,0,0,0,0,0,0,0,0,0,0,0,0,0,
0,0,0,0,0,0,0,0,0,0,0,0,0,0,0,0,
0,0,0,0,0,0,0,0,0,0,0,0,0,0,0,0,
0,0,0,0,0,0,0,0,0,0,0,0,0,0,0,0,
0,0,0,0,0,0,0,0,0,0,0,0,0,0,0,0,
0,0,0,0,0,0,0,0,0,0,0,0,0,0,0,0,
0,0,0,0,0,0,0,0,0,0,0,0,0,0,0,0
</chunk>
   <chunk x="0" y="-48" width="16" height="16">
0,0,0,0,0,0,0,0,0,0,0,0,0,0,0,0,
0,0,0,0,0,0,0,0,0,0,0,0,0,0,0,0,
0,0,0,0,0,0,0,0,0,0,0,0,0,0,0,0,
0,0,0,0,0,0,0,0,0,0,0,0,0,0,0,0,
0,0,0,0,0,0,0,0,0,0,0,0,0,1254,1255,1256,
0,0,0,0,0,0,0,0,0,0,0,0,1288,1289,1290,1291,
0,0,0,0,0,0,0,0,0,0,0,1322,1323,1324,1325,1326,
0,0,0,0,0,0,0,0,0,0,1356,1357,1358,1359,0,0,
0,0,0,0,0,0,0,0,0,0,1391,1392,1393,0,0,0,
0,0,0,0,0,0,0,0,0,1425,1426,1427,0,0,0,0,
0,0,0,0,0,0,0,0,0,1460,1461,0,0,0,0,0,
0,0,0,0,0,0,0,0,0,1495,1496,0,0,0,0,0,
0,0,0,0,0,0,0,0,0,1530,0,0,0,0,0,0,
0,0,0,0,0,0,0,0,0,1565,0,0,0,0,0,0,
0,0,0,0,0,0,0,0,0,0,0,0,0,0,0,0,
0,0,0,0,0,0,0,0,0,0,0,0,0,0,0,0
</chunk>
   <chunk x="16" y="-48" width="16" height="16">
0,0,0,0,0,0,0,0,0,0,0,0,0,0,0,0,
0,0,0,0,0,0,0,0,0,0,0,0,0,0,0,0,
0,0,0,0,0,0,0,0,0,0,0,0,0,0,0,0,
0,0,0,0,0,0,0,0,0,0,0,0,0,0,0,0,
1257,1258,1259,1260,1261,1262,0,0,0,0,0,0,0,0,0,0,
1292,1293,1294,1295,1296,1297,1298,0,0,0,0,0,0,0,0,0,
1327,0,1329,1330,1331,1332,1333,1334,0,0,0,0,0,0,0,0,
0,0,0,0,0,1367,1368,1369,1370,0,0,0,0,0,0,0,
0,0,0,0,0,0,1403,1404,1405,0,0,0,0,0,0,0,
0,0,0,0,0,0,0,1439,1440,1441,0,0,0,0,0,0,
0,0,0,0,0,0,0,0,1475,1476,0,0,0,0,0,0,
0,0,0,0,0,0,0,0,1510,1511,0,0,0,0,0,0,
0,0,0,0,0,0,0,0,0,1546,0,0,0,0,0,0,
0,0,0,0,0,0,0,0,0,1581,0,0,0,0,0,0,
0,648,647,648,645,646,648,645,646,0,0,0,0,0,0,0,
549,683,682,683,680,681,683,680,681,0,0,0,0,0,0,0
</chunk>
   <chunk x="0" y="-32" width="16" height="16">
0,0,0,0,0,0,0,0,0,0,0,0,0,0,0,0,
0,0,0,0,0,0,0,0,0,0,0,0,0,0,0,0,
0,0,0,0,0,0,0,0,0,0,0,0,0,0,0,0,
0,0,0,0,0,0,0,0,0,0,0,0,0,0,0,0,
0,0,0,0,0,0,0,0,0,0,0,0,0,0,0,0,
0,0,0,0,0,0,0,0,0,0,0,0,0,0,0,0,
0,0,0,0,0,0,0,0,0,0,0,0,0,0,0,0,
0,0,0,0,0,0,0,0,0,0,0,0,0,0,0,0,
0,0,0,0,0,0,0,0,0,0,0,0,0,0,0,0,
0,0,0,0,0,0,0,0,0,0,0,0,0,0,0,0,
0,0,0,0,0,0,0,0,0,0,0,0,0,0,0,0,
0,0,0,0,0,0,0,0,0,0,0,0,0,0,0,0,
0,0,0,0,0,0,0,0,0,0,0,0,0,0,0,0,
0,0,0,0,0,0,0,0,0,0,0,0,0,0,0,0,
0,0,0,0,0,0,0,0,0,0,574,574,573,574,571,572,
0,0,0,0,0,0,0,0,0,0,609,609,608,609,606,607
</chunk>
   <chunk x="16" y="-32" width="16" height="16">
0,0,0,0,0,0,0,0,0,0,0,0,0,0,0,0,
0,0,0,0,0,0,0,0,0,0,0,0,0,0,0,0,
0,0,0,0,0,0,0,0,0,0,0,0,0,0,0,0,
0,0,0,0,0,0,0,0,0,0,0,0,0,0,0,0,
0,0,0,0,0,0,0,0,0,0,0,0,0,0,0,0,
0,0,0,0,0,0,0,0,0,0,0,0,0,0,0,0,
0,0,0,0,0,0,0,0,0,0,0,0,0,0,0,0,
0,0,0,0,0,0,0,0,0,0,0,0,0,0,0,0,
0,0,0,0,0,0,0,0,0,0,0,0,0,0,0,0,
0,0,0,0,0,0,0,0,0,0,0,0,0,0,0,0,
0,0,0,0,0,0,0,0,0,0,0,0,0,0,0,0,
0,0,0,0,0,0,0,0,0,0,0,0,0,0,0,0,
0,0,0,0,0,0,0,0,0,0,0,0,0,0,0,0,
0,0,0,0,0,0,0,0,0,0,0,0,0,0,0,0,
574,0,0,0,572,574,573,574,571,0,0,0,0,0,0,0,
609,0,0,0,607,609,608,609,606,0,0,0,0,0,0,0
</chunk>
   <chunk x="0" y="-16" width="16" height="16">
0,0,0,0,0,0,0,0,0,0,0,0,0,0,0,0,
0,0,0,0,0,0,0,0,0,0,0,0,0,0,0,0,
0,0,0,0,0,0,0,0,0,0,0,0,0,0,0,0,
0,0,0,0,0,0,0,0,0,0,0,0,0,0,0,0,
0,0,0,0,0,0,0,0,0,0,0,0,0,0,0,0,
0,0,0,0,0,0,0,0,0,0,0,0,0,0,0,0,
0,0,0,0,0,0,0,0,0,0,0,0,0,0,0,0,
0,0,0,0,0,0,0,0,0,0,0,0,0,0,0,0,
0,0,0,0,0,0,0,0,0,0,0,0,0,0,0,0,
0,0,0,0,0,0,0,0,0,0,0,0,0,0,0,609,
0,0,0,0,0,0,0,0,0,0,0,0,0,0,0,0,
0,0,0,0,0,0,0,0,0,0,0,0,0,0,0,0,
0,0,0,0,0,0,0,0,0,0,0,0,0,0,0,0,
0,0,0,0,0,0,0,0,0,0,0,0,0,0,0,0,
0,0,0,0,0,0,0,0,0,0,0,0,0,0,0,0,
0,0,0,0,0,0,0,0,0,0,0,0,0,0,0,0
</chunk>
   <chunk x="16" y="-16" width="16" height="16">
0,0,0,0,0,0,0,0,0,0,0,0,0,0,0,0,
0,0,0,0,0,0,0,0,0,0,0,0,0,0,0,0,
0,0,0,0,0,0,0,0,0,0,0,0,0,0,0,0,
0,0,0,0,0,0,0,0,0,0,0,0,0,0,0,0,
0,0,0,0,0,0,0,0,0,0,0,0,0,0,0,0,
0,0,0,0,0,0,0,0,0,0,0,0,0,0,0,0,
0,0,0,0,0,0,0,0,0,0,0,0,0,0,0,0,
0,0,0,0,0,0,0,0,0,0,0,0,0,0,0,0,
0,0,0,0,0,0,0,0,0,0,0,0,0,0,0,0,
608,609,606,607,0,0,0,0,0,0,0,0,0,0,0,0,
0,0,0,0,0,0,0,0,0,0,0,0,0,0,0,0,
0,0,0,0,0,0,0,0,0,0,0,0,0,0,0,0,
0,0,0,0,0,0,0,0,0,0,0,0,0,0,0,0,
0,0,0,0,0,0,0,0,0,0,0,0,0,0,0,0,
0,0,0,0,0,0,0,0,0,0,0,0,0,0,0,0,
0,0,0,0,0,0,0,0,0,0,0,0,0,0,0,0
</chunk>
   <chunk x="0" y="0" width="16" height="16">
0,0,0,0,0,0,0,0,0,0,0,0,0,0,0,0,
0,0,0,0,0,0,0,0,0,0,0,0,0,0,0,0,
0,0,0,0,0,0,0,0,0,0,0,0,0,0,0,0,
0,0,0,0,0,0,0,0,0,0,0,0,0,0,0,0,
0,0,0,0,0,0,0,0,0,0,0,0,0,0,0,0,
0,0,0,0,0,0,0,0,0,0,0,0,0,0,0,0,
0,0,0,0,0,0,0,0,0,0,0,0,0,0,0,0,
0,0,0,0,0,0,0,0,0,0,574,571,572,574,0,0,
0,0,0,0,0,0,0,0,0,0,609,606,607,609,0,0,
0,0,0,0,0,0,0,0,0,0,0,0,0,0,0,571,
0,0,0,0,0,0,0,0,0,0,0,0,0,0,609,606,
0,0,0,0,0,0,0,0,0,0,0,0,0,0,0,0,
0,0,0,0,0,0,0,0,0,0,0,0,0,0,0,0,
0,0,0,0,0,0,0,0,0,0,0,0,0,0,0,0,
0,0,0,0,0,0,0,0,0,0,0,0,0,0,0,0,
0,0,0,0,0,0,0,0,0,0,0,0,0,0,0,0
</chunk>
   <chunk x="16" y="0" width="16" height="16">
0,0,0,0,0,0,0,0,0,0,0,0,0,0,0,0,
0,0,0,0,0,0,0,0,0,0,0,0,0,0,0,0,
0,0,0,0,0,0,0,0,0,0,0,0,0,0,0,0,
0,0,0,0,0,0,0,0,0,0,0,0,0,0,0,0,
0,0,0,0,0,0,0,0,0,0,0,0,0,0,0,0,
0,0,0,0,0,0,0,0,0,0,0,0,0,0,0,0,
0,0,0,0,0,0,0,0,0,0,0,0,0,0,0,0,
0,0,0,0,0,574,571,572,574,0,0,0,0,0,0,0,
0,0,0,0,0,609,606,607,609,0,0,0,0,0,0,0,
572,574,571,572,0,0,0,0,0,0,0,0,0,0,0,0,
607,609,606,607,609,0,0,0,0,0,0,0,0,0,0,0,
0,0,0,0,0,0,0,0,0,0,0,0,0,0,0,0,
0,0,0,0,0,0,0,0,0,0,0,0,0,0,0,0,
0,0,0,0,0,0,0,0,0,0,0,0,0,0,0,0,
0,0,0,0,0,0,0,0,0,0,0,0,0,0,0,0,
0,0,0,0,0,0,0,0,0,0,0,0,0,0,0,0
</chunk>
   <chunk x="32" y="16" width="16" height="16">
0,0,0,0,0,0,0,0,0,0,0,0,0,0,0,0,
0,0,0,0,2017,2017,2017,2017,2017,0,0,0,0,0,0,0,
0,0,0,0,2027,2027,2027,2027,2027,0,0,0,0,0,0,0,
0,0,0,0,2037,2037,2037,2037,2037,0,0,0,0,0,0,0,
0,0,0,0,0,0,0,0,0,0,0,0,0,0,0,0,
0,0,0,0,0,0,0,0,0,0,0,0,0,0,0,0,
0,0,0,0,0,0,0,0,0,0,0,0,0,0,0,0,
0,0,0,0,0,0,0,0,0,0,0,0,0,0,0,0,
0,0,0,0,0,0,0,0,0,0,0,0,0,0,0,0,
0,0,0,0,0,0,0,0,0,0,0,0,0,0,0,0,
0,0,0,0,0,0,0,0,0,0,0,0,0,0,0,0,
0,0,0,0,0,0,0,0,0,0,0,0,0,0,0,0,
0,0,0,0,0,0,0,0,0,0,0,0,0,0,0,0,
0,0,0,0,0,0,0,0,0,0,0,0,0,0,0,0,
0,0,0,0,0,0,0,0,0,0,0,0,0,0,0,0,
0,0,0,0,0,0,0,0,0,0,0,0,0,0,0,0
</chunk>
  </data>
 </layer>
 <layer id="222" name="Wall_B_1" width="32" height="32">
  <data encoding="csv">
   <chunk x="0" y="-80" width="16" height="16">
0,0,0,0,0,0,0,0,0,0,0,0,0,0,0,0,
0,0,0,0,0,0,0,0,0,0,0,0,0,0,0,0,
0,0,0,0,0,0,0,0,0,0,0,0,0,0,0,0,
0,0,0,0,0,0,0,0,0,0,0,0,0,0,0,0,
0,0,0,0,0,0,0,0,0,0,0,0,0,0,0,0,
0,0,0,0,0,0,0,0,0,0,0,0,0,0,0,0,
0,0,0,0,0,0,0,0,0,0,0,0,0,0,0,0,
0,0,0,0,0,0,0,0,0,0,0,0,0,0,0,0,
0,0,0,0,0,0,0,0,0,0,0,0,0,0,0,0,
0,0,0,0,0,0,0,0,0,0,0,0,0,0,0,0,
0,0,0,0,0,0,0,0,0,0,0,0,0,0,0,0,
0,0,0,0,0,0,0,0,0,0,0,0,0,1637,0,0,
0,0,0,0,0,0,0,0,0,0,0,0,0,1672,0,0,
0,0,0,0,0,0,0,0,0,0,0,0,0,1707,0,0,
0,0,0,0,0,0,0,0,0,0,0,0,0,0,0,0,
0,0,0,0,0,0,0,0,0,0,1778,0,0,0,0,0
</chunk>
   <chunk x="16" y="-80" width="16" height="16">
0,0,0,0,0,0,0,0,0,0,0,0,0,0,0,0,
0,0,0,0,0,0,0,0,0,0,0,0,0,0,0,0,
0,0,0,0,0,0,0,0,0,0,0,0,0,0,0,0,
0,0,0,0,0,0,0,0,0,0,0,0,0,0,0,0,
0,0,0,0,0,0,0,0,0,0,0,0,0,0,0,0,
0,0,0,0,0,0,0,0,0,0,0,0,0,0,0,0,
0,0,0,0,0,0,0,0,0,0,0,0,0,0,0,0,
0,0,0,0,0,0,0,0,0,0,0,0,0,0,0,0,
0,0,0,0,0,0,0,0,0,0,0,0,0,0,0,0,
0,0,0,0,0,0,0,0,0,0,0,0,0,0,0,0,
0,0,0,0,0,0,0,0,0,0,0,0,0,0,0,0,
0,0,0,0,0,1649,0,0,0,0,0,0,0,0,0,0,
0,0,0,0,0,1684,0,0,0,0,0,0,0,0,0,0,
0,0,0,0,0,1719,0,0,0,0,0,0,0,0,0,0,
0,0,0,0,0,0,0,0,0,0,0,0,0,0,0,0,
0,0,0,0,0,0,0,0,0,0,0,0,0,0,0,0
</chunk>
   <chunk x="0" y="-64" width="16" height="16">
0,0,0,0,0,0,0,0,0,0,1813,0,0,0,0,0,
0,0,0,0,0,0,0,0,0,0,0,0,0,0,0,0,
0,0,0,0,0,0,0,0,0,0,0,0,0,0,0,0,
0,0,0,0,0,0,0,0,0,0,0,0,0,0,0,0,
0,0,0,0,0,0,0,0,0,0,0,0,0,0,0,0,
0,0,0,0,0,0,0,0,0,0,0,0,0,0,0,0,
0,0,0,0,0,0,0,0,0,536,0,0,0,0,0,0,
0,0,0,0,0,0,0,0,0,0,0,0,0,0,0,0,
0,0,0,0,0,0,0,0,0,0,0,0,0,0,0,0,
0,0,0,0,0,0,0,0,0,0,0,0,0,0,0,0,
0,0,0,0,0,0,0,0,0,0,0,0,0,0,0,0,
0,0,0,0,0,0,0,0,0,0,0,0,0,0,0,0,
0,0,0,0,0,0,0,0,0,0,0,0,0,0,0,0,
0,0,0,0,0,0,0,0,0,0,0,0,0,0,0,0,
0,0,0,0,0,0,0,0,0,0,0,0,0,0,0,0,
0,0,0,0,0,0,0,0,0,0,0,0,0,0,0,0
</chunk>
   <chunk x="16" y="-64" width="16" height="16">
0,0,0,0,0,0,0,0,0,0,0,0,0,0,0,0,
0,0,0,0,0,0,0,0,0,0,0,0,0,0,0,0,
0,0,0,0,0,0,0,0,0,0,0,0,0,0,0,0,
0,0,0,0,0,0,0,0,0,0,0,0,0,0,0,0,
0,0,0,0,0,0,0,0,0,0,0,0,0,0,0,0,
0,0,0,0,0,0,0,0,0,0,0,0,0,0,0,0,
0,0,0,0,0,0,0,0,0,536,0,0,0,0,0,0,
0,0,0,0,0,0,0,0,0,0,0,0,0,0,0,0,
0,0,0,0,0,0,0,0,0,0,0,0,0,0,0,0,
0,0,0,0,0,0,0,0,0,0,0,0,0,0,0,0,
0,0,0,0,0,0,0,0,0,0,0,0,0,0,0,0,
0,0,0,0,0,0,0,0,0,0,0,0,0,0,0,0,
0,0,0,0,0,0,0,0,0,0,0,0,0,0,0,0,
0,0,0,0,0,0,0,0,0,0,0,0,0,0,0,0,
0,0,0,0,0,0,0,0,0,0,0,0,0,0,0,0,
0,0,0,0,0,0,0,0,0,0,0,0,0,0,0,0
</chunk>
   <chunk x="0" y="-48" width="16" height="16">
0,0,0,0,0,0,0,0,0,0,0,0,0,0,0,0,
0,0,0,0,0,0,0,0,0,0,0,0,0,0,0,0,
0,0,0,0,0,0,0,0,0,0,0,0,0,0,0,0,
0,0,0,0,0,0,0,0,0,0,0,0,0,0,0,0,
0,0,0,0,0,0,0,0,0,0,0,0,0,0,0,0,
0,0,0,0,0,0,0,0,0,0,0,0,0,1637,0,0,
0,0,0,0,0,0,0,0,0,0,0,0,0,1672,0,0,
0,0,0,0,0,0,0,0,0,0,0,0,0,1707,0,0,
0,0,0,0,0,0,0,0,0,0,0,0,0,0,0,0,
0,0,0,0,0,0,0,0,0,0,1778,0,0,0,0,0,
0,0,0,0,0,0,0,0,0,0,1813,0,0,0,0,0,
0,0,0,0,0,0,0,0,0,0,0,0,0,0,0,0,
0,0,0,0,0,0,0,0,0,0,0,0,0,0,0,0,
0,0,0,0,0,0,0,0,0,0,0,0,0,0,0,0,
0,0,0,0,0,0,0,0,0,0,0,0,0,0,0,0,
0,0,0,0,0,0,0,0,0,0,0,0,0,0,0,0
</chunk>
   <chunk x="16" y="-48" width="16" height="16">
0,0,0,0,0,0,0,0,0,0,0,0,0,0,0,0,
0,0,0,0,0,0,0,0,0,0,0,0,0,0,0,0,
0,0,0,0,0,0,0,0,0,0,0,0,0,0,0,0,
0,0,0,0,0,0,0,0,0,0,0,0,0,0,0,0,
0,0,0,0,0,0,0,0,0,0,0,0,0,0,0,0,
0,0,0,0,0,1649,0,0,0,0,0,0,0,0,0,0,
0,0,0,0,0,1684,0,0,0,0,0,0,0,0,0,0,
0,0,0,0,0,1719,0,0,0,0,0,0,0,0,0,0,
0,0,0,0,0,0,0,0,0,0,0,0,0,0,0,0,
0,0,0,0,0,0,0,0,1788,0,0,0,0,0,0,0,
0,0,0,0,0,0,0,0,1823,0,0,0,0,0,0,0,
0,0,0,0,0,0,0,0,0,0,0,0,0,0,0,0,
0,0,0,0,0,0,0,0,0,0,0,0,0,0,0,0,
0,0,0,0,0,0,0,0,0,0,0,0,0,0,0,0,
0,0,0,510,511,0,0,0,0,0,0,0,0,0,0,0,
0,0,0,545,546,0,0,0,0,0,0,0,0,0,0,0
</chunk>
   <chunk x="0" y="-32" width="16" height="16">
0,0,0,0,0,0,0,0,0,536,0,0,0,0,0,0,
0,0,0,0,0,0,0,0,0,0,0,0,0,0,0,0,
0,0,0,0,0,0,0,0,0,0,0,0,0,0,0,0,
0,0,0,0,0,0,0,0,0,0,0,0,0,0,0,0,
0,0,0,0,0,0,0,0,0,0,0,0,0,0,0,0,
0,0,0,0,0,0,0,0,0,0,0,0,0,0,0,0,
0,0,0,0,0,0,0,0,0,0,0,0,0,0,0,0,
0,0,0,0,0,0,0,0,0,0,0,0,0,0,0,0,
0,0,0,0,0,0,0,0,0,0,0,0,0,0,0,0,
0,0,0,0,0,0,0,0,0,0,0,0,0,0,0,0,
0,0,0,0,0,0,0,0,0,0,0,0,0,0,0,0,
0,0,0,0,0,0,0,0,0,0,0,0,0,0,0,0,
0,0,0,0,0,0,0,0,0,0,0,0,0,0,0,0,
0,0,0,0,0,0,0,0,0,0,0,0,0,0,0,0,
0,0,0,0,0,0,0,0,0,0,579,579,579,579,579,579,
0,0,0,0,0,0,0,0,0,0,0,0,0,0,0,0
</chunk>
   <chunk x="16" y="-32" width="16" height="16">
0,0,0,0,0,0,0,0,0,536,0,0,0,0,0,0,
0,0,0,0,0,0,0,0,0,0,0,0,0,0,0,0,
0,0,0,0,0,0,0,0,0,0,0,0,0,0,0,0,
0,0,0,0,0,0,0,0,0,0,0,0,0,0,0,0,
0,0,0,0,0,0,0,0,0,0,0,0,0,0,0,0,
0,0,0,0,0,0,0,0,0,0,0,0,0,0,0,0,
0,0,0,0,0,0,0,0,0,0,0,0,0,0,0,0,
0,0,0,0,0,0,0,0,0,0,0,0,0,0,0,0,
0,0,0,0,0,0,0,0,0,0,0,0,0,0,0,0,
0,0,0,0,0,0,0,0,0,0,0,0,0,0,0,0,
0,0,0,0,0,0,0,0,0,0,0,0,0,0,0,0,
0,0,0,0,0,0,0,0,0,0,0,0,0,0,0,0,
0,0,0,0,0,0,0,0,0,0,0,0,0,0,0,0,
0,0,0,0,0,0,0,0,0,0,0,0,0,0,0,0,
579,0,0,0,579,579,579,579,579,0,0,0,0,0,0,0,
0,0,0,0,0,0,0,0,0,0,0,0,0,0,0,0
</chunk>
   <chunk x="0" y="0" width="16" height="16">
0,0,0,0,0,0,0,0,0,0,0,0,0,0,0,0,
0,0,0,0,0,0,0,0,0,0,0,0,0,0,0,0,
0,0,0,0,0,0,0,0,0,0,0,0,0,0,0,0,
0,0,0,0,0,0,0,0,0,0,0,0,0,0,0,0,
0,0,0,0,0,0,0,0,0,0,0,0,0,0,0,0,
0,0,0,0,0,0,0,0,0,0,0,0,0,0,0,0,
0,0,0,0,0,0,0,0,0,0,0,0,0,0,0,0,
0,0,0,0,0,0,0,0,0,0,579,579,579,579,0,0,
0,0,0,0,0,0,0,0,0,0,0,0,0,0,0,0,
0,0,0,0,0,0,0,0,0,0,0,0,0,0,0,579,
0,0,0,0,0,0,0,0,0,0,0,0,0,0,0,0,
0,0,0,0,0,0,0,0,0,0,0,0,0,0,0,0,
0,0,0,0,0,0,0,0,0,0,0,0,0,0,0,0,
0,0,0,0,0,0,0,0,0,0,0,0,0,0,0,0,
0,0,0,0,0,0,0,0,0,0,0,0,0,0,0,0,
0,0,0,0,0,0,0,0,0,0,0,0,0,0,0,0
</chunk>
   <chunk x="16" y="0" width="16" height="16">
0,0,0,0,0,0,0,0,0,0,0,0,0,0,0,0,
0,0,0,0,0,0,0,0,0,0,0,0,0,0,0,0,
0,0,0,0,0,0,0,0,0,0,0,0,0,0,0,0,
0,0,0,0,0,0,0,0,0,0,0,0,0,0,0,0,
0,0,0,0,0,0,0,0,0,0,0,0,0,0,0,0,
0,0,0,0,0,0,0,0,0,0,0,0,0,0,0,0,
0,0,0,0,0,0,0,0,0,0,0,0,0,0,0,0,
0,0,0,0,0,579,579,579,579,0,0,0,0,0,0,0,
0,0,0,0,0,0,0,0,0,0,0,0,0,0,0,0,
579,579,579,579,0,0,0,0,0,0,0,0,0,0,0,0,
0,0,0,0,0,0,0,0,0,0,0,0,0,0,0,0,
0,0,0,0,0,0,0,0,0,0,0,0,0,0,0,0,
0,0,0,0,0,0,0,0,0,0,0,0,0,0,0,0,
0,0,0,0,0,0,0,0,0,0,0,0,0,0,0,0,
0,0,0,0,0,0,0,0,0,0,0,0,0,0,0,0,
0,0,0,0,0,0,0,0,0,0,0,0,0,0,0,0
</chunk>
   <chunk x="32" y="16" width="16" height="16">
0,0,0,0,0,0,0,0,0,0,0,0,0,0,0,0,
0,0,0,0,0,0,0,0,0,0,0,0,0,0,0,0,
0,0,0,0,2019,2020,2020,2020,2021,0,0,0,0,0,0,0,
0,0,0,0,2029,2030,2030,2030,2031,0,0,0,0,0,0,0,
0,0,0,0,0,0,0,0,0,0,0,0,0,0,0,0,
0,0,0,0,0,0,0,0,0,0,0,0,0,0,0,0,
0,0,0,0,0,0,0,0,0,0,0,0,0,0,0,0,
0,0,0,0,0,0,0,0,0,0,0,0,0,0,0,0,
0,0,0,0,0,0,0,0,0,0,0,0,0,0,0,0,
0,0,0,0,0,0,0,0,0,0,0,0,0,0,0,0,
0,0,0,0,0,0,0,0,0,0,0,0,0,0,0,0,
0,0,0,0,0,0,0,0,0,0,0,0,0,0,0,0,
0,0,0,0,0,0,0,0,0,0,0,0,0,0,0,0,
0,0,0,0,0,0,0,0,0,0,0,0,0,0,0,0,
0,0,0,0,0,0,0,0,0,0,0,0,0,0,0,0,
0,0,0,0,0,0,0,0,0,0,0,0,0,0,0,0
</chunk>
  </data>
 </layer>
 <layer id="223" name="Wall_C_1" width="32" height="32">
  <data encoding="csv">
   <chunk x="0" y="-32" width="16" height="16">
0,0,0,0,0,0,0,0,0,0,0,0,0,0,0,0,
0,0,0,0,0,0,0,0,0,0,0,0,0,0,0,0,
0,0,0,0,0,0,0,0,0,0,0,0,0,0,0,0,
0,0,0,0,0,0,0,0,0,0,0,0,0,0,0,0,
0,0,0,0,0,0,0,0,0,0,0,0,0,0,0,0,
0,0,0,0,0,0,0,0,0,0,0,0,0,0,0,0,
0,0,0,0,0,0,0,0,0,0,0,0,0,0,0,0,
0,0,0,0,0,0,0,0,0,0,0,0,0,0,0,0,
0,0,0,0,0,0,0,0,0,0,0,0,0,0,0,0,
0,0,0,0,0,0,0,0,0,0,0,0,0,0,0,0,
0,0,0,0,0,0,0,0,0,0,0,0,0,0,0,0,
0,0,0,0,0,0,0,0,0,0,0,0,0,0,0,0,
0,0,0,0,0,0,0,0,0,0,0,0,0,0,0,0,
0,0,0,0,0,0,0,0,0,0,0,0,0,0,0,0,
0,0,0,0,0,0,0,0,0,0,0,507,508,509,505,506,
0,0,0,0,0,0,0,0,0,0,0,542,543,544,540,541
</chunk>
   <chunk x="16" y="-32" width="16" height="16">
0,0,0,0,0,0,0,0,0,0,0,0,0,0,0,0,
0,0,0,0,0,0,0,0,0,0,0,0,0,0,0,0,
0,0,0,0,0,0,0,0,0,0,0,0,0,0,0,0,
0,0,0,0,0,0,0,0,0,0,0,0,0,0,0,0,
0,0,0,0,0,0,0,0,0,0,0,0,0,0,0,0,
0,0,0,0,0,0,0,0,0,0,0,0,0,0,0,0,
0,0,0,0,0,0,0,0,0,0,0,0,0,0,0,0,
0,0,0,0,0,0,0,0,0,0,0,0,0,0,0,0,
0,0,0,0,0,0,0,0,0,0,0,0,0,0,0,0,
0,0,0,0,0,0,0,0,0,0,0,0,0,0,0,0,
0,0,0,0,0,0,0,0,0,0,0,0,0,0,0,0,
0,0,0,0,0,0,0,0,0,0,0,0,0,0,0,0,
0,0,0,0,0,0,0,0,0,0,0,0,0,0,0,0,
0,0,0,0,0,0,0,0,0,0,0,0,0,0,0,0,
0,0,0,0,0,507,508,509,0,0,0,0,0,0,0,0,
0,0,0,0,0,542,543,544,0,0,0,0,0,0,0,0
</chunk>
   <chunk x="0" y="0" width="16" height="16">
0,0,0,0,0,0,0,0,0,0,0,0,0,0,0,0,
0,0,0,0,0,0,0,0,0,0,0,0,0,0,0,0,
0,0,0,0,0,0,0,0,0,0,0,0,0,0,0,0,
0,0,0,0,0,0,0,0,0,0,0,0,0,0,0,0,
0,0,0,0,0,0,0,0,0,0,0,0,0,0,0,0,
0,0,0,0,0,0,0,0,0,0,0,0,0,0,0,0,
0,0,0,0,0,0,0,0,0,0,0,0,0,0,0,0,
0,0,0,0,0,0,0,0,0,0,0,505,506,0,0,0,
0,0,0,0,0,0,0,0,0,0,0,540,541,0,0,0,
0,0,0,0,0,0,0,0,0,0,0,0,0,0,0,0,
0,0,0,0,0,0,0,0,0,0,0,0,0,0,0,0,
0,0,0,0,0,0,0,0,0,0,0,0,0,0,0,0,
0,0,0,0,0,0,0,0,0,0,0,0,0,0,0,0,
0,0,0,0,0,0,0,0,0,0,0,0,0,0,0,0,
0,0,0,0,0,0,0,0,0,0,0,0,0,0,0,0,
0,0,0,0,0,0,0,0,0,0,0,0,0,0,0,0
</chunk>
   <chunk x="16" y="0" width="16" height="16">
0,0,0,0,0,0,0,0,0,0,0,0,0,0,0,0,
0,0,0,0,0,0,0,0,0,0,0,0,0,0,0,0,
0,0,0,0,0,0,0,0,0,0,0,0,0,0,0,0,
0,0,0,0,0,0,0,0,0,0,0,0,0,0,0,0,
0,0,0,0,0,0,0,0,0,0,0,0,0,0,0,0,
0,0,0,0,0,0,0,0,0,0,0,0,0,0,0,0,
0,0,0,0,0,0,0,0,0,0,0,0,0,0,0,0,
0,0,0,0,0,0,505,506,0,0,0,0,0,0,0,0,
0,0,0,0,0,0,540,541,0,0,0,0,0,0,0,0,
0,0,0,0,0,0,0,0,0,0,0,0,0,0,0,0,
0,0,0,0,0,0,0,0,0,0,0,0,0,0,0,0,
0,0,0,0,0,0,0,0,0,0,0,0,0,0,0,0,
0,0,0,0,0,0,0,0,0,0,0,0,0,0,0,0,
0,0,0,0,0,0,0,0,0,0,0,0,0,0,0,0,
0,0,0,0,0,0,0,0,0,0,0,0,0,0,0,0,
0,0,0,0,0,0,0,0,0,0,0,0,0,0,0,0
</chunk>
   <chunk x="32" y="16" width="16" height="16">
0,0,0,0,0,0,0,0,0,0,0,0,0,0,0,0,
0,0,0,0,2056,2057,2058,2059,2060,0,0,0,0,0,0,0,
0,0,0,0,2066,2067,2068,2069,2070,0,0,0,0,0,0,0,
0,0,0,0,0,0,0,0,0,0,0,0,0,0,0,0,
0,0,0,0,0,0,0,0,0,0,0,0,0,0,0,0,
0,0,0,0,0,0,0,0,0,0,0,0,0,0,0,0,
0,0,0,0,0,0,0,0,0,0,0,0,0,0,0,0,
0,0,0,0,0,0,0,0,0,0,0,0,0,0,0,0,
0,0,0,0,0,0,0,0,0,0,0,0,0,0,0,0,
0,0,0,0,0,0,0,0,0,0,0,0,0,0,0,0,
0,0,0,0,0,0,0,0,0,0,0,0,0,0,0,0,
0,0,0,0,0,0,0,0,0,0,0,0,0,0,0,0,
0,0,0,0,0,0,0,0,0,0,0,0,0,0,0,0,
0,0,0,0,0,0,0,0,0,0,0,0,0,0,0,0,
0,0,0,0,0,0,0,0,0,0,0,0,0,0,0,0,
0,0,0,0,0,0,0,0,0,0,0,0,0,0,0,0
</chunk>
  </data>
 </layer>
 <layer id="207" name="Shadow_A_1" width="32" height="32">
  <data encoding="csv">
   <chunk x="16" y="-32" width="16" height="16">
0,0,0,0,0,0,0,0,0,0,0,0,0,0,0,0,
0,0,0,0,0,0,0,0,0,0,0,0,0,0,0,0,
0,0,0,0,0,0,0,0,0,0,0,0,0,0,0,0,
1677,1678,1679,0,0,0,0,0,0,0,0,0,0,0,0,0,
1712,1713,1714,0,0,0,0,0,0,0,0,0,0,0,0,0,
1747,1748,1749,0,0,0,0,0,0,0,0,0,0,0,0,0,
0,0,0,0,0,0,0,0,0,0,0,0,0,0,0,0,
0,0,0,0,0,0,0,0,0,0,0,0,0,0,0,0,
0,0,0,0,0,0,0,0,0,0,0,0,0,0,0,0,
0,0,0,0,0,0,0,0,0,0,0,0,0,0,0,0,
0,0,0,0,0,0,0,0,0,0,0,0,0,0,0,0,
0,0,0,0,0,0,0,0,0,0,0,0,0,0,0,0,
0,0,0,0,0,0,0,0,0,0,0,0,0,0,0,0,
0,0,0,0,0,0,0,0,0,0,0,0,0,0,0,0,
0,0,0,0,0,0,0,0,0,0,0,0,0,0,0,0,
0,0,0,0,0,0,0,0,0,0,0,0,0,0,0,0
</chunk>
   <chunk x="0" y="-16" width="16" height="16">
0,0,0,0,0,0,0,0,0,0,715,642,642,642,642,642,
0,0,0,0,0,0,0,0,0,0,715,0,0,0,0,0,
0,0,0,0,0,0,0,0,0,0,715,0,0,0,0,0,
0,0,0,0,0,0,0,0,0,0,715,0,0,0,0,0,
0,0,0,0,0,0,0,0,0,0,715,0,0,0,0,0,
0,0,0,0,0,0,0,0,0,0,715,0,0,0,0,0,
0,0,0,0,0,0,0,0,0,0,715,0,0,0,0,0,
0,0,0,0,0,0,0,0,0,0,715,0,0,0,0,0,
0,0,0,0,0,0,0,0,0,0,715,0,0,0,0,0,
0,0,0,0,0,0,0,0,0,0,715,0,0,0,0,0,
0,0,0,0,0,0,0,0,0,0,715,0,0,0,0,641,
0,0,0,0,0,0,0,0,0,0,715,0,0,0,0,0,
0,0,0,0,0,0,0,0,0,0,715,0,0,0,0,0,
0,0,0,0,0,0,0,0,0,0,715,0,0,0,0,0,
0,0,0,0,0,0,0,0,0,0,715,0,0,0,0,0,
0,0,0,0,0,0,0,0,0,0,0,0,0,0,0,0
</chunk>
   <chunk x="16" y="-16" width="16" height="16">
642,0,0,0,715,642,642,642,642,0,0,0,0,0,0,0,
0,0,0,0,715,0,0,0,0,0,0,0,0,0,0,0,
0,0,0,0,715,0,0,0,0,0,0,0,0,0,0,0,
0,0,0,0,715,0,0,0,0,0,0,0,0,0,0,0,
0,0,0,0,715,0,0,0,0,0,0,0,0,0,0,0,
0,0,0,0,715,0,0,0,0,0,0,0,0,0,0,0,
0,0,0,0,715,0,0,0,0,0,0,0,0,0,0,0,
0,0,0,0,715,0,0,0,0,0,0,0,0,0,0,0,
0,0,0,0,715,0,0,0,0,0,0,0,0,0,0,0,
0,0,0,0,715,0,0,0,0,0,0,0,0,0,0,0,
642,642,642,642,642,0,0,0,0,0,0,0,0,0,0,0,
0,0,0,0,0,0,0,0,0,0,0,0,0,0,0,0,
0,0,0,0,0,0,0,0,0,0,0,0,0,0,0,0,
0,0,0,0,0,0,0,0,0,0,0,0,0,0,0,0,
0,0,0,0,0,0,0,0,0,0,0,0,0,0,0,0,
0,0,0,0,0,0,0,0,0,0,0,0,0,0,0,0
</chunk>
   <chunk x="0" y="0" width="16" height="16">
0,0,0,0,0,0,0,0,0,0,0,0,0,0,0,0,
0,0,0,0,0,0,0,0,0,0,0,0,0,0,0,0,
0,0,0,0,0,0,0,0,0,0,0,0,0,0,0,0,
0,0,0,0,0,0,0,0,0,0,0,0,0,0,0,0,
0,0,0,0,0,0,0,0,0,0,0,0,0,0,0,0,
0,0,0,0,0,0,0,0,0,0,0,0,0,0,0,0,
0,0,0,0,0,0,0,0,0,0,0,0,0,0,0,0,
0,0,0,0,0,0,0,0,0,0,0,0,0,0,0,0,
0,0,0,0,0,0,0,0,0,0,0,0,0,0,0,0,
0,0,0,0,0,0,0,0,0,0,715,642,642,642,0,0,
0,0,0,0,0,0,0,0,0,0,715,0,0,0,0,0,
0,0,0,0,0,0,0,0,0,0,715,0,0,0,641,642,
0,0,0,0,0,0,0,0,0,0,715,0,0,0,0,0,
0,0,0,0,0,0,0,0,0,0,715,0,0,0,0,0,
0,0,0,0,0,0,0,0,0,0,715,0,0,0,0,0,
0,0,0,0,0,0,0,0,0,0,715,0,0,0,0,0
</chunk>
   <chunk x="16" y="0" width="16" height="16">
0,0,0,0,0,0,0,0,0,0,0,0,0,0,0,0,
0,0,0,0,0,0,0,0,0,0,0,0,0,0,0,0,
0,0,0,0,0,0,0,0,0,0,0,0,0,0,0,0,
0,0,0,0,0,0,0,0,0,0,0,0,0,0,0,0,
0,0,0,0,0,0,0,0,0,0,0,0,0,0,0,0,
0,0,0,0,0,0,0,0,0,0,0,0,0,0,0,0,
0,0,0,0,0,0,0,0,0,0,0,0,0,0,0,0,
0,0,0,0,0,0,0,0,0,0,0,0,0,0,0,0,
0,0,0,0,0,0,0,0,0,0,0,0,0,0,0,0,
0,0,0,0,0,715,642,642,642,0,0,0,0,0,0,0,
0,0,0,0,0,715,0,0,0,0,0,0,0,0,0,0,
642,642,642,642,642,642,0,0,0,0,0,0,0,0,0,0,
0,0,0,0,0,0,0,0,0,0,0,0,0,0,0,0,
0,0,0,0,0,0,0,0,0,0,0,0,0,0,0,0,
0,0,0,0,0,0,0,0,0,0,0,0,0,0,0,0,
0,0,0,0,0,0,0,0,0,0,0,0,0,0,0,0
</chunk>
   <chunk x="0" y="16" width="16" height="16">
0,0,0,0,0,0,0,0,0,0,715,0,0,0,0,0,
0,0,0,0,0,0,0,0,0,0,715,0,0,0,0,0,
0,0,0,0,0,0,0,0,0,0,715,0,0,0,0,0,
0,0,0,0,0,0,0,0,0,0,715,0,0,0,0,0,
0,0,0,0,0,0,0,0,0,0,715,0,0,0,0,0,
0,0,0,0,0,0,0,0,0,0,715,0,0,0,0,0,
0,0,0,0,0,0,0,0,0,0,715,0,0,0,0,0,
0,0,0,0,0,0,0,0,0,0,715,0,0,0,0,0,
0,0,0,0,0,0,0,0,0,0,0,0,0,0,0,0,
0,0,0,0,0,0,0,0,0,0,0,0,0,0,0,0,
0,0,0,0,0,0,0,0,0,0,0,0,0,0,0,0,
0,0,0,0,0,0,0,0,0,0,0,0,0,0,0,0,
0,0,0,0,0,0,0,0,0,0,0,0,0,0,0,0,
0,0,0,0,0,0,0,0,0,0,0,0,0,0,0,0,
0,0,0,0,0,0,0,0,0,0,0,0,0,0,0,0,
0,0,0,0,0,0,0,0,0,0,0,0,0,0,0,0
</chunk>
   <chunk x="32" y="16" width="16" height="16">
0,0,0,0,0,0,0,0,0,0,0,0,0,0,0,0,
0,0,0,0,0,0,0,0,0,0,0,0,0,0,0,0,
0,0,0,0,0,0,0,0,0,0,0,0,0,0,0,0,
0,0,0,0,0,0,0,0,0,0,0,0,0,0,0,0,
0,0,0,0,2061,2062,2062,2062,2063,0,0,0,0,0,0,0,
0,0,0,0,2071,0,0,0,2073,0,0,0,0,0,0,0,
0,0,0,0,2071,0,0,0,2073,0,0,0,0,0,0,0,
0,0,0,0,2071,0,0,0,2073,0,0,0,0,0,0,0,
0,0,0,0,0,0,0,0,0,0,0,0,0,0,0,0,
0,0,0,0,0,0,0,0,0,0,0,0,0,0,0,0,
0,0,0,0,0,0,0,0,0,0,0,0,0,0,0,0,
0,0,0,0,0,0,0,0,0,0,0,0,0,0,0,0,
0,0,0,0,0,0,0,0,0,0,0,0,0,0,0,0,
0,0,0,0,0,0,0,0,0,0,0,0,0,0,0,0,
0,0,0,0,0,0,0,0,0,0,0,0,0,0,0,0,
0,0,0,0,0,0,0,0,0,0,0,0,0,0,0,0
</chunk>
  </data>
 </layer>
 <layer id="43" name="Props_A_1" width="32" height="32">
  <data encoding="csv">
   <chunk x="0" y="-80" width="16" height="16">
0,0,0,0,0,0,0,0,0,0,0,0,0,0,0,0,
0,0,0,0,0,0,0,0,0,0,0,0,0,0,0,0,
0,0,0,0,0,0,0,0,0,0,0,0,0,0,0,0,
0,0,0,0,0,0,0,0,0,0,0,0,0,0,0,0,
0,0,0,0,0,0,0,0,0,0,0,0,0,0,0,0,
0,0,0,0,0,0,0,0,0,0,0,0,0,0,0,0,
0,0,0,0,0,0,0,0,0,0,0,0,0,0,0,0,
0,0,0,0,0,0,0,0,0,0,0,0,0,0,0,0,
0,0,0,0,0,0,0,0,0,0,0,0,0,0,0,0,
0,0,0,0,0,0,0,0,0,0,0,0,0,0,0,0,
0,0,0,0,0,0,0,0,0,0,0,0,0,0,0,0,
0,0,0,0,0,0,0,0,0,0,0,0,0,0,0,0,
0,0,0,0,0,0,0,0,0,0,0,0,0,1675,1676,0,
0,0,0,0,0,0,0,0,0,0,0,0,0,0,1711,0,
0,0,0,0,0,0,0,0,0,0,0,894,895,896,0,0,
0,0,0,0,0,0,0,0,0,0,1779,0,0,0,929,930
</chunk>
   <chunk x="16" y="-80" width="16" height="16">
0,0,0,0,0,0,0,0,0,0,0,0,0,0,0,0,
0,0,0,0,0,0,0,0,0,0,0,0,0,0,0,0,
0,0,0,0,0,0,0,0,0,0,0,0,0,0,0,0,
0,0,0,0,0,0,0,0,0,0,0,0,0,0,0,0,
0,0,0,0,0,0,0,0,0,0,0,0,0,0,0,0,
0,0,0,0,0,0,0,0,0,0,0,0,0,0,0,0,
0,0,0,0,0,0,0,0,0,0,0,0,0,0,0,0,
0,0,0,0,0,0,0,0,0,0,0,0,0,0,0,0,
0,0,0,0,0,0,0,0,0,0,0,0,0,0,0,0,
0,0,0,0,0,0,0,0,0,0,0,0,0,0,0,0,
0,0,0,0,0,0,0,0,0,0,0,0,0,0,0,0,
0,0,0,0,0,0,0,0,0,0,0,0,0,0,0,0,
0,0,0,0,1680,1681,0,0,0,0,0,0,0,0,0,0,
0,0,0,0,1715,0,0,0,0,0,0,0,0,0,0,0,
0,0,0,0,0,0,0,0,0,0,0,0,0,0,0,0,
931,0,929,930,931,0,0,0,0,0,0,0,0,0,0,0
</chunk>
   <chunk x="0" y="-64" width="16" height="16">
0,0,0,0,0,0,0,0,0,0,1814,1815,0,0,964,965,
0,0,0,0,0,0,0,0,0,0,0,0,0,0,999,1000,
0,0,0,0,0,0,0,0,0,0,0,0,0,0,0,0,
0,0,0,0,0,0,0,0,0,0,0,0,0,0,0,0,
0,0,0,0,0,0,0,0,0,0,0,0,0,0,0,0,
0,0,0,0,0,0,0,0,0,0,0,0,0,0,0,0,
0,0,0,0,0,0,0,0,0,0,0,0,0,0,0,0,
0,0,0,0,0,0,0,0,0,0,0,0,0,0,0,0,
0,0,0,0,0,0,0,0,0,0,0,0,0,0,0,0,
0,0,0,0,0,0,0,0,0,0,0,0,0,0,0,0,
0,0,0,0,0,0,0,0,0,0,0,0,0,0,0,0,
0,0,0,0,0,0,0,0,0,0,0,0,0,0,0,0,
0,0,0,0,0,0,0,0,0,0,0,0,0,0,0,0,
0,0,0,0,0,0,0,0,0,0,0,0,0,0,0,0,
0,0,0,0,0,0,0,0,0,0,0,0,0,0,0,0,
0,0,0,0,0,0,0,0,0,0,0,0,0,0,0,0
</chunk>
   <chunk x="16" y="-64" width="16" height="16">
966,0,964,965,966,0,0,0,0,0,0,0,0,0,0,0,
1001,0,999,1000,1001,0,0,0,0,0,0,0,0,0,0,0,
0,0,0,0,0,0,0,0,0,0,0,0,0,0,0,0,
0,0,0,0,0,0,0,0,0,0,0,0,0,0,0,0,
0,0,0,0,0,0,0,0,0,0,0,0,0,0,0,0,
0,0,0,0,0,0,0,0,0,0,0,0,0,0,0,0,
0,0,0,0,0,0,0,0,0,0,0,0,0,0,0,0,
0,0,0,0,0,0,0,0,0,0,0,0,0,0,0,0,
0,0,0,0,0,0,0,0,0,0,0,0,0,0,0,0,
0,0,0,0,0,0,0,0,0,0,0,0,0,0,0,0,
0,0,0,0,0,0,0,0,0,0,0,0,0,0,0,0,
0,0,0,0,0,0,0,0,0,0,0,0,0,0,0,0,
0,0,0,0,0,0,0,0,0,0,0,0,0,0,0,0,
0,0,0,0,0,0,0,0,0,0,0,0,0,0,0,0,
0,0,0,0,0,0,0,0,0,0,0,0,0,0,0,0,
0,0,0,0,0,0,0,0,0,0,0,0,0,0,0,0
</chunk>
   <chunk x="0" y="-48" width="16" height="16">
0,0,0,0,0,0,0,0,0,0,0,0,0,0,0,0,
0,0,0,0,0,0,0,0,0,0,0,0,0,0,0,0,
0,0,0,0,0,0,0,0,0,0,0,0,0,0,0,0,
0,0,0,0,0,0,0,0,0,0,0,0,0,0,0,0,
0,0,0,0,0,0,0,0,0,0,0,0,0,0,0,0,
0,0,0,0,0,0,0,0,0,0,0,0,0,0,0,0,
0,0,0,0,0,0,0,0,0,0,0,0,0,1675,1676,0,
0,0,0,0,0,0,0,0,0,0,0,0,0,0,1711,0,
0,0,0,0,0,0,0,0,0,0,0,0,0,0,0,0,
0,0,0,0,0,0,0,0,0,0,1779,0,0,0,0,0,
0,0,0,0,0,0,0,0,0,0,1814,1815,0,0,894,895,
0,0,0,0,0,0,0,0,0,0,0,0,0,0,0,0,
0,0,0,0,0,0,0,0,0,0,0,0,0,0,0,0,
0,0,0,0,0,0,0,0,0,0,0,0,0,0,0,0,
0,0,0,0,0,0,0,0,0,0,0,0,0,0,0,0,
0,0,0,0,0,0,0,0,0,0,0,0,0,0,0,0
</chunk>
   <chunk x="16" y="-48" width="16" height="16">
0,0,0,0,0,0,0,0,0,0,0,0,0,0,0,0,
0,0,0,0,0,0,0,0,0,0,0,0,0,0,0,0,
0,0,0,0,0,0,0,0,0,0,0,0,0,0,0,0,
0,0,0,0,0,0,0,0,0,0,0,0,0,0,0,0,
0,0,0,0,0,0,0,0,0,0,0,0,0,0,0,0,
0,0,0,0,0,0,0,0,0,0,0,0,0,0,0,0,
0,0,0,0,1680,1681,0,0,0,0,0,0,0,0,0,0,
0,0,0,0,1715,0,0,0,0,0,0,0,0,0,0,0,
0,0,0,0,0,0,0,0,0,0,0,0,0,0,0,0,
0,0,0,0,0,929,930,931,1787,0,0,0,0,0,0,0,
896,0,894,895,896,964,965,966,1822,0,0,0,0,0,0,0,
0,0,0,0,0,999,1000,1001,0,0,0,0,0,0,0,0,
0,0,0,0,0,0,0,0,0,0,0,0,0,0,0,0,
0,0,0,0,0,0,0,0,0,0,0,0,0,0,0,0,
0,0,0,0,0,0,0,0,0,0,0,0,0,0,0,0,
0,0,0,0,0,0,0,0,0,0,0,0,0,0,0,0
</chunk>
   <chunk x="0" y="-32" width="16" height="16">
0,0,0,0,0,0,0,0,0,0,0,0,0,0,0,0,
0,0,0,0,0,0,0,0,0,0,0,0,0,0,0,0,
0,0,0,0,0,0,0,0,0,0,0,0,0,0,0,0,
0,0,0,0,0,0,0,0,0,0,0,0,0,0,0,0,
0,0,0,0,0,0,0,0,0,0,0,0,0,0,0,0,
0,0,0,0,0,0,0,0,0,0,0,0,0,0,0,0,
0,0,0,0,0,0,0,0,0,0,0,0,0,0,0,0,
0,0,0,0,0,0,0,0,0,0,0,0,0,0,0,0,
0,0,0,0,0,0,0,0,0,0,0,0,0,0,0,0,
0,0,0,0,0,0,0,0,0,0,0,0,0,0,0,0,
0,0,0,0,0,0,0,0,0,0,0,0,0,0,0,0,
0,0,0,0,0,0,0,0,0,0,0,0,0,0,0,0,
0,0,0,0,0,0,0,0,0,0,0,0,0,0,0,0,
0,0,0,0,0,0,0,0,0,0,0,0,0,0,0,0,
0,0,0,0,0,0,0,0,0,0,0,0,0,0,0,0,
0,0,0,0,0,0,0,0,0,0,0,0,1173,1174,0,0
</chunk>
   <chunk x="16" y="-32" width="16" height="16">
0,0,0,0,0,0,0,0,0,0,0,0,0,0,0,0,
0,0,0,0,0,0,0,0,0,0,0,0,0,0,0,0,
0,0,0,0,0,0,0,0,0,0,0,0,0,0,0,0,
0,0,0,0,0,0,0,0,0,0,0,0,0,0,0,0,
0,0,0,0,0,0,0,0,0,0,0,0,0,0,0,0,
719,720,721,0,0,0,0,0,0,0,0,0,0,0,0,0,
0,0,0,0,0,0,0,0,0,0,0,0,0,0,0,0,
0,0,0,0,0,0,0,0,0,0,0,0,0,0,0,0,
0,0,0,0,0,0,0,0,0,0,0,0,0,0,0,0,
0,0,0,0,0,0,0,0,0,0,0,0,0,0,0,0,
0,0,0,0,0,0,0,0,0,0,0,0,0,0,0,0,
0,0,0,0,0,0,0,0,0,0,0,0,0,0,0,0,
0,0,0,0,0,0,0,0,0,0,0,0,0,0,0,0,
0,0,0,0,0,0,0,0,0,0,0,0,0,0,0,0,
0,0,0,0,0,0,0,0,0,0,0,0,0,0,0,0,
0,0,0,0,0,0,0,0,0,0,0,0,0,0,0,0
</chunk>
   <chunk x="0" y="-16" width="16" height="16">
0,0,0,0,0,0,0,0,0,0,0,0,1208,1209,1105,0,
0,0,0,0,0,0,0,0,0,0,0,0,1206,1207,1140,0,
0,0,0,0,0,0,0,0,0,0,0,0,0,0,0,0,
0,0,0,0,0,0,0,0,0,0,0,0,0,0,0,0,
0,0,0,0,0,0,0,0,0,0,0,0,0,0,0,0,
0,0,0,0,0,0,0,0,0,0,0,0,0,0,0,0,
0,0,0,0,0,0,0,0,0,0,0,0,0,0,0,0,
0,0,0,0,0,0,0,0,0,0,0,0,0,0,0,0,
0,0,0,0,0,0,0,0,0,0,0,0,0,0,0,0,
0,0,0,0,0,0,0,0,0,0,0,0,0,0,0,0,
0,0,0,0,0,0,0,0,0,0,0,0,0,0,0,0,
0,0,0,0,0,0,0,0,0,0,0,0,0,0,0,0,
0,0,0,0,0,0,0,0,0,0,0,0,0,0,0,0,
0,0,0,0,0,0,0,0,0,0,0,0,0,0,0,0,
0,0,0,0,0,0,0,0,0,0,0,0,0,0,0,0,
0,0,0,0,0,0,0,0,0,0,0,0,0,0,0,0
</chunk>
   <chunk x="16" y="-16" width="16" height="16">
0,0,0,0,0,0,0,0,0,0,0,0,0,0,0,0,
0,0,0,0,0,0,0,0,0,0,0,0,0,0,0,0,
0,0,0,0,0,0,0,0,0,0,0,0,0,0,0,0,
0,0,0,0,0,894,895,896,0,0,0,0,0,0,0,0,
0,0,0,0,0,0,0,0,0,0,0,0,0,0,0,0,
0,0,0,0,0,0,0,0,0,0,0,0,0,0,0,0,
0,0,0,0,0,0,0,0,0,0,0,0,0,0,0,0,
0,0,0,0,0,0,0,0,0,0,0,0,0,0,0,0,
0,0,0,0,0,0,0,0,0,0,0,0,0,0,0,0,
0,0,0,0,960,0,0,0,960,0,0,0,0,0,0,0,
0,0,0,0,0,0,0,0,0,0,0,0,0,0,0,0,
0,0,0,0,0,0,0,0,0,0,0,0,0,0,0,0,
0,0,0,0,0,0,0,0,0,0,0,0,0,0,0,0,
0,0,0,0,0,0,0,0,0,0,0,0,0,0,0,0,
0,0,0,0,0,0,0,0,0,0,0,0,0,0,0,0,
0,0,0,0,0,0,0,0,0,0,0,0,0,0,0,0
</chunk>
   <chunk x="0" y="0" width="16" height="16">
0,0,0,0,0,0,0,0,0,0,0,0,0,0,0,0,
0,0,0,0,0,0,0,0,0,0,0,0,0,0,0,0,
0,0,0,0,0,0,0,0,0,0,0,0,0,0,0,0,
0,0,0,0,0,0,0,0,0,0,0,0,0,0,0,0,
0,0,0,0,0,0,0,0,0,0,0,0,0,0,0,0,
0,0,0,0,0,0,0,0,0,0,0,0,0,0,0,0,
0,0,0,0,0,0,0,0,0,0,0,0,0,0,0,0,
0,0,0,0,0,0,0,0,0,0,0,0,1027,1028,0,0,
0,0,0,0,0,0,0,0,0,0,0,0,1062,1063,0,0,
0,0,0,0,0,0,0,0,0,0,0,1105,1097,1098,0,0,
0,0,0,0,0,0,0,0,0,0,0,1140,1132,1133,0,0,
0,0,0,0,0,0,0,0,0,0,0,0,0,0,0,0,
0,0,0,0,0,0,0,0,0,0,0,0,0,0,0,0,
0,0,0,0,0,0,0,0,0,0,0,0,0,0,0,0,
0,0,0,0,0,0,0,0,0,0,0,995,959,0,0,960,
0,0,0,0,0,0,0,0,0,0,0,995,994,0,0,0
</chunk>
   <chunk x="16" y="0" width="16" height="16">
0,0,0,0,0,0,0,0,0,0,0,0,0,0,0,0,
0,0,0,0,0,0,0,0,0,0,0,0,0,0,0,0,
0,0,0,0,0,0,0,0,0,0,0,0,0,0,0,0,
0,0,0,0,0,0,0,0,0,0,0,0,0,0,0,0,
0,0,0,0,0,0,0,0,0,0,0,0,0,0,0,0,
0,0,0,0,0,0,0,0,0,0,0,0,0,0,0,0,
0,0,0,0,0,0,0,0,0,0,0,0,0,0,0,0,
0,0,0,0,0,0,0,0,0,0,0,0,0,0,0,0,
0,0,0,0,0,0,0,0,0,0,0,0,0,0,0,0,
0,0,0,0,0,0,0,0,0,0,0,0,0,0,0,0,
649,650,651,0,0,0,0,0,0,0,0,0,0,0,0,0,
684,0,686,0,0,0,0,0,0,0,0,0,0,0,0,0,
0,0,0,0,0,0,0,0,0,0,0,0,0,0,0,0,
0,0,0,0,0,0,0,0,0,0,0,0,0,0,0,0,
0,0,0,960,0,0,959,995,0,0,0,0,0,0,0,0,
0,0,0,0,0,0,994,995,0,0,0,0,0,0,0,0
</chunk>
   <chunk x="0" y="16" width="16" height="16">
0,0,0,0,0,0,0,0,0,0,0,0,0,0,0,0,
0,0,0,0,0,0,0,0,0,0,0,0,0,0,0,960,
0,0,0,0,0,0,0,0,0,0,0,0,0,0,0,0,
0,0,0,0,0,0,0,0,0,0,0,995,959,0,0,0,
0,0,0,0,0,0,0,0,0,0,0,995,994,0,0,960,
0,0,0,0,0,0,0,0,0,0,0,0,0,0,0,0,
0,0,0,0,0,0,0,0,0,0,0,0,0,0,0,0,
0,0,0,0,0,0,0,0,0,0,0,0,0,0,0,0,
0,0,0,0,0,0,0,0,0,0,0,0,0,0,0,0,
0,0,0,0,0,0,0,0,0,0,0,0,0,0,0,0,
0,0,0,0,0,0,0,0,0,0,0,0,0,0,0,0,
0,0,0,0,0,0,0,0,0,0,0,0,0,0,0,0,
0,0,0,0,0,0,0,0,0,0,0,0,0,0,0,0,
0,0,0,0,0,0,0,0,0,0,0,0,0,0,0,0,
0,0,0,0,0,0,0,0,0,0,0,0,0,0,0,0,
0,0,0,0,0,0,0,0,0,0,0,0,0,0,0,0
</chunk>
   <chunk x="16" y="16" width="16" height="16">
0,0,0,0,0,0,0,0,0,0,0,0,0,0,0,0,
0,0,0,960,0,0,0,0,0,0,0,0,0,0,0,0,
0,0,0,0,0,0,0,0,0,0,0,0,0,0,0,0,
0,0,0,0,0,0,959,995,0,0,0,0,0,0,0,0,
0,0,0,960,0,0,994,995,0,0,0,0,0,0,0,0,
0,0,0,0,0,0,0,0,0,0,0,0,0,0,0,0,
0,0,0,0,0,0,0,0,0,0,0,0,0,0,0,0,
0,0,0,0,0,0,0,0,0,0,0,0,0,0,0,0,
0,0,0,0,0,0,0,0,0,0,0,0,0,0,0,0,
0,0,0,0,0,0,0,0,0,0,0,0,0,0,0,0,
0,0,0,0,0,0,0,0,0,0,0,0,0,0,0,0,
0,0,0,0,0,0,0,0,0,0,0,0,0,0,0,0,
0,0,0,0,0,0,0,0,0,0,0,0,0,0,0,0,
0,0,0,0,0,0,0,0,0,0,0,0,0,0,0,0,
0,0,0,0,0,0,0,0,0,0,0,0,0,0,0,0,
0,0,0,0,0,0,0,0,0,0,0,0,0,0,0,0
</chunk>
  </data>
 </layer>
 <layer id="44" name="Props_B_1" width="32" height="32">
  <data encoding="csv">
   <chunk x="0" y="-64" width="16" height="16">
0,0,0,0,0,0,0,0,0,0,0,0,0,0,0,858,
0,0,0,0,0,0,0,0,0,0,0,0,0,0,0,0,
0,0,0,0,0,0,0,0,0,0,0,0,0,0,0,0,
0,0,0,0,0,0,0,0,0,0,0,0,0,0,0,0,
0,0,0,0,0,0,0,0,0,0,0,0,0,0,0,0,
0,0,0,0,0,0,0,0,0,0,0,0,0,0,0,0,
0,0,0,0,0,0,0,0,0,0,0,0,0,0,0,0,
0,0,0,0,0,0,0,0,0,0,0,0,0,0,0,0,
0,0,0,0,0,0,0,0,0,0,0,0,0,0,0,0,
0,0,0,0,0,0,0,0,0,0,0,0,0,0,0,0,
0,0,0,0,0,0,0,0,0,0,0,0,0,0,0,0,
0,0,0,0,0,0,0,0,0,0,0,0,0,0,0,0,
0,0,0,0,0,0,0,0,0,0,0,0,0,0,0,0,
0,0,0,0,0,0,0,0,0,0,0,0,0,0,0,0,
0,0,0,0,0,0,0,0,0,0,0,0,0,0,0,0,
0,0,0,0,0,0,0,0,0,0,0,0,0,0,0,0
</chunk>
   <chunk x="16" y="-64" width="16" height="16">
0,0,0,858,0,0,0,0,0,0,0,0,0,0,0,0,
0,0,0,0,0,0,0,0,0,0,0,0,0,0,0,0,
0,0,0,0,0,0,0,0,0,0,0,0,0,0,0,0,
0,0,0,0,0,0,0,0,0,0,0,0,0,0,0,0,
0,0,0,0,0,0,0,0,0,0,0,0,0,0,0,0,
0,0,0,0,0,0,0,0,0,0,0,0,0,0,0,0,
0,0,0,0,0,0,0,0,0,0,0,0,0,0,0,0,
0,0,0,0,0,0,0,0,0,0,0,0,0,0,0,0,
0,0,0,0,0,0,0,0,0,0,0,0,0,0,0,0,
0,0,0,0,0,0,0,0,0,0,0,0,0,0,0,0,
0,0,0,0,0,0,0,0,0,0,0,0,0,0,0,0,
0,0,0,0,0,0,0,0,0,0,0,0,0,0,0,0,
0,0,0,0,0,0,0,0,0,0,0,0,0,0,0,0,
0,0,0,0,0,0,0,0,0,0,0,0,0,0,0,0,
0,0,0,0,0,0,0,0,0,0,0,0,0,0,0,0,
0,0,0,0,0,0,0,0,0,0,0,0,0,0,0,0
</chunk>
   <chunk x="16" y="-48" width="16" height="16">
0,0,0,0,0,0,0,0,0,0,0,0,0,0,0,0,
0,0,0,0,0,0,0,0,0,0,0,0,0,0,0,0,
0,0,0,0,0,0,0,0,0,0,0,0,0,0,0,0,
0,0,0,0,0,0,0,0,0,0,0,0,0,0,0,0,
0,0,0,0,0,0,0,0,0,0,0,0,0,0,0,0,
0,0,0,0,0,0,0,0,0,0,0,0,0,0,0,0,
0,0,0,0,0,0,0,0,0,0,0,0,0,0,0,0,
0,0,0,0,0,0,0,0,0,0,0,0,0,0,0,0,
0,0,0,0,0,0,0,0,0,0,0,0,0,0,0,0,
0,0,0,0,0,0,0,0,0,0,0,0,0,0,0,0,
0,0,0,0,0,0,858,0,0,0,0,0,0,0,0,0,
0,0,0,0,0,0,0,0,0,0,0,0,0,0,0,0,
0,0,0,0,0,0,0,0,0,0,0,0,0,0,0,0,
0,0,0,0,0,0,0,0,0,0,0,0,0,0,0,0,
0,0,0,0,0,0,0,0,0,0,0,0,0,0,0,0,
0,0,0,0,0,0,0,0,0,0,0,0,0,0,0,0
</chunk>
   <chunk x="0" y="0" width="16" height="16">
0,0,0,0,0,0,0,0,0,0,0,0,0,0,0,0,
0,0,0,0,0,0,0,0,0,0,0,0,0,0,0,0,
0,0,0,0,0,0,0,0,0,0,0,0,0,0,0,0,
0,0,0,0,0,0,0,0,0,0,0,0,0,0,0,0,
0,0,0,0,0,0,0,0,0,0,0,0,0,0,0,0,
0,0,0,0,0,0,0,0,0,0,0,0,0,0,0,0,
0,0,0,0,0,0,0,0,0,0,0,0,0,0,0,0,
0,0,0,0,0,0,0,0,0,0,0,0,0,0,0,0,
0,0,0,0,0,0,0,0,0,0,0,0,0,0,0,0,
0,0,0,0,0,0,0,0,0,0,0,0,0,0,0,0,
0,0,0,0,0,0,0,0,0,0,0,0,1134,1135,0,0,
0,0,0,0,0,0,0,0,0,0,0,0,0,0,0,0,
0,0,0,0,0,0,0,0,0,0,0,0,0,0,0,0,
0,0,0,0,0,0,0,0,0,0,0,0,0,0,0,0,
0,0,0,0,0,0,0,0,0,0,0,0,0,0,0,0,
0,0,0,0,0,0,0,0,0,0,0,0,0,0,0,0
</chunk>
  </data>
 </layer>
 <layer id="175" name="Props_C_1" width="32" height="32">
  <data encoding="csv"/>
 </layer>
 <layer id="211" name="Props_D_1" width="32" height="32">
  <data encoding="csv"/>
 </layer>
 <group id="4" name="Z=0"/>
 <layer id="208" name="Wall_A_2" width="32" height="32">
  <data encoding="csv"/>
 </layer>
 <layer id="210" name="Wall_B_2" width="32" height="32">
  <data encoding="csv"/>
 </layer>
 <layer id="224" name="Wall_C_2" width="32" height="32">
  <data encoding="csv"/>
 </layer>
 <layer id="45" name="Props_A_2" width="32" height="32">
  <data encoding="csv">
   <chunk x="0" y="-80" width="16" height="16">
0,0,0,0,0,0,0,0,0,0,0,0,0,0,0,0,
0,0,0,0,0,0,0,0,0,0,0,0,0,0,0,0,
0,0,0,0,0,0,0,0,0,0,0,0,0,0,0,0,
0,0,0,0,0,0,0,0,0,0,0,0,0,0,0,0,
0,0,0,0,0,0,0,0,0,0,0,0,0,0,0,0,
0,0,0,0,0,0,0,0,0,0,0,0,0,0,0,0,
0,0,0,0,0,0,0,0,0,0,0,0,0,0,0,0,
0,0,0,0,0,0,0,0,0,0,0,0,0,0,0,0,
0,0,0,0,0,0,0,0,0,0,0,0,0,0,0,0,
0,0,0,0,0,0,0,0,0,0,0,0,0,0,0,0,
0,0,0,0,0,0,0,0,0,0,0,0,0,0,0,0,
0,0,0,0,0,0,0,0,0,0,0,0,0,0,0,0,
0,0,0,0,0,0,0,0,0,0,0,0,0,0,0,0,
0,0,0,0,0,0,0,0,0,0,0,0,0,1708,0,0,
0,0,0,0,0,0,0,0,0,0,0,0,0,0,0,0,
0,0,0,0,0,0,0,0,0,0,0,0,0,0,0,823
</chunk>
   <chunk x="16" y="-80" width="16" height="16">
0,0,0,0,0,0,0,0,0,0,0,0,0,0,0,0,
0,0,0,0,0,0,0,0,0,0,0,0,0,0,0,0,
0,0,0,0,0,0,0,0,0,0,0,0,0,0,0,0,
0,0,0,0,0,0,0,0,0,0,0,0,0,0,0,0,
0,0,0,0,0,0,0,0,0,0,0,0,0,0,0,0,
0,0,0,0,0,0,0,0,0,0,0,0,0,0,0,0,
0,0,0,0,0,0,0,0,0,0,0,0,0,0,0,0,
0,0,0,0,0,0,0,0,0,0,0,0,0,0,0,0,
0,0,0,0,0,0,0,0,0,0,0,0,0,0,0,0,
0,0,0,0,0,0,0,0,0,0,0,0,0,0,0,0,
0,0,0,0,0,0,0,0,0,0,0,0,0,0,0,0,
0,0,0,0,0,0,0,0,0,0,0,0,0,0,0,0,
0,0,0,0,0,0,0,0,0,0,0,0,0,0,0,0,
0,0,0,0,0,1718,0,0,0,0,0,0,0,0,0,0,
0,0,0,0,0,0,0,0,0,0,0,0,0,0,0,0,
0,0,0,823,0,0,0,0,0,0,0,0,0,0,0,0
</chunk>
   <chunk x="0" y="-64" width="16" height="16">
0,0,0,0,0,0,0,0,0,0,1816,1817,0,0,0,0,
0,0,0,0,0,0,0,0,0,0,0,0,0,0,0,0,
0,0,0,0,0,0,0,0,0,0,0,0,0,0,0,0,
0,0,0,0,0,0,0,0,0,0,0,0,0,0,0,0,
0,0,0,0,0,0,0,0,0,0,0,0,0,0,0,0,
0,0,0,0,0,0,0,0,0,0,0,0,0,0,0,0,
0,0,0,0,0,0,0,0,0,0,0,0,0,0,0,0,
0,0,0,0,0,0,0,0,0,0,0,0,0,0,0,0,
0,0,0,0,0,0,0,0,0,0,0,0,0,0,0,0,
0,0,0,0,0,0,0,0,0,0,0,0,0,0,0,0,
0,0,0,0,0,0,0,0,0,0,0,0,0,0,0,0,
0,0,0,0,0,0,0,0,0,0,0,0,0,0,0,0,
0,0,0,0,0,0,0,0,0,0,0,0,0,0,0,0,
0,0,0,0,0,0,0,0,0,0,0,0,0,0,0,0,
0,0,0,0,0,0,0,0,0,0,0,0,0,0,0,0,
0,0,0,0,0,0,0,0,0,0,0,0,0,0,0,0
</chunk>
   <chunk x="0" y="-48" width="16" height="16">
0,0,0,0,0,0,0,0,0,0,0,0,0,0,0,0,
0,0,0,0,0,0,0,0,0,0,0,0,0,0,0,0,
0,0,0,0,0,0,0,0,0,0,0,0,0,0,0,0,
0,0,0,0,0,0,0,0,0,0,0,0,0,0,0,0,
0,0,0,0,0,0,0,0,0,0,0,0,0,0,0,0,
0,0,0,0,0,0,0,0,0,0,0,0,0,0,0,0,
0,0,0,0,0,0,0,0,0,0,0,0,0,0,0,0,
0,0,0,0,0,0,0,0,0,0,0,0,0,1708,0,0,
0,0,0,0,0,0,0,0,0,0,0,0,0,0,0,0,
0,0,0,0,0,0,0,0,0,0,0,0,0,0,859,860,
0,0,0,0,0,0,0,0,0,0,1816,1817,0,0,0,0,
0,0,0,0,0,0,0,0,0,0,0,0,0,0,0,0,
0,0,0,0,0,0,0,0,0,0,0,0,0,0,0,0,
0,0,0,0,0,0,0,0,0,0,0,0,0,0,0,0,
0,0,0,0,0,0,0,0,0,0,0,0,0,0,0,0,
0,0,0,0,0,0,0,0,0,0,0,0,0,0,0,0
</chunk>
   <chunk x="16" y="-48" width="16" height="16">
0,0,0,0,0,0,0,0,0,0,0,0,0,0,0,0,
0,0,0,0,0,0,0,0,0,0,0,0,0,0,0,0,
0,0,0,0,0,0,0,0,0,0,0,0,0,0,0,0,
0,0,0,0,0,0,0,0,0,0,0,0,0,0,0,0,
0,0,0,0,0,0,0,0,0,0,0,0,0,0,0,0,
0,0,0,0,0,0,0,0,0,0,0,0,0,0,0,0,
0,0,0,0,0,0,0,0,0,0,0,0,0,0,0,0,
0,0,0,0,0,1718,0,0,0,0,0,0,0,0,0,0,
0,0,0,0,0,0,0,0,0,0,0,0,0,0,0,0,
861,0,859,860,861,0,823,0,0,0,0,0,0,0,0,0,
0,0,0,0,0,0,0,1819,1820,0,0,0,0,0,0,0,
0,0,0,0,0,0,0,0,0,0,0,0,0,0,0,0,
0,0,0,0,0,0,0,0,0,0,0,0,0,0,0,0,
0,0,0,0,0,0,0,0,0,0,0,0,0,0,0,0,
0,0,0,0,0,0,0,0,0,0,0,0,0,0,0,0,
0,0,0,0,0,0,0,0,0,0,0,0,0,0,0,0
</chunk>
   <chunk x="0" y="-16" width="16" height="16">
0,0,0,0,0,0,0,0,0,0,0,0,1171,1172,0,0,
0,0,0,0,0,0,0,0,0,0,0,0,0,0,0,0,
0,0,0,0,0,0,0,0,0,0,0,0,0,0,0,0,
0,0,0,0,0,0,0,0,0,0,0,0,0,0,0,0,
0,0,0,0,0,0,0,0,0,0,0,0,0,0,0,0,
0,0,0,0,0,0,0,0,0,0,0,0,0,0,0,0,
0,0,0,0,0,0,0,0,0,0,0,0,0,0,0,0,
0,0,0,0,0,0,0,0,0,0,0,0,0,0,0,0,
0,0,0,0,0,0,0,0,0,0,0,0,0,0,0,0,
0,0,0,0,0,0,0,0,0,0,0,0,0,0,0,0,
0,0,0,0,0,0,0,0,0,0,0,0,0,0,0,0,
0,0,0,0,0,0,0,0,0,0,0,0,0,0,0,0,
0,0,0,0,0,0,0,0,0,0,0,0,0,0,0,0,
0,0,0,0,0,0,0,0,0,0,0,0,0,0,0,0,
0,0,0,0,0,0,0,0,0,0,0,0,0,0,0,0,
0,0,0,0,0,0,0,0,0,0,0,0,0,0,0,0
</chunk>
   <chunk x="16" y="-16" width="16" height="16">
0,0,0,0,0,0,0,0,0,0,0,0,0,0,0,0,
0,0,0,0,0,0,0,0,0,0,0,0,0,0,0,0,
0,0,0,0,0,859,860,861,0,0,0,0,0,0,0,0,
0,0,0,0,0,0,0,0,0,0,0,0,0,0,0,0,
0,0,0,0,0,0,0,0,0,0,0,0,0,0,0,0,
0,0,0,0,0,0,0,0,0,0,0,0,0,0,0,0,
0,0,0,0,0,0,0,0,0,0,0,0,0,0,0,0,
0,0,0,0,0,0,0,0,0,0,0,0,0,0,0,0,
0,0,0,0,925,0,0,0,925,0,0,0,0,0,0,0,
0,0,0,0,0,0,0,0,0,0,0,0,0,0,0,0,
0,0,0,0,0,0,0,0,0,0,0,0,0,0,0,0,
0,0,0,0,0,0,0,0,0,0,0,0,0,0,0,0,
0,0,0,0,0,0,0,0,0,0,0,0,0,0,0,0,
0,0,0,0,0,0,0,0,0,0,0,0,0,0,0,0,
0,0,0,0,0,0,0,0,0,0,0,0,0,0,0,0,
0,0,0,0,0,0,0,0,0,0,0,0,0,0,0,0
</chunk>
   <chunk x="0" y="0" width="16" height="16">
0,0,0,0,0,0,0,0,0,0,0,0,0,0,0,0,
0,0,0,0,0,0,0,0,0,0,0,0,0,0,0,0,
0,0,0,0,0,0,0,0,0,0,0,0,0,0,0,0,
0,0,0,0,0,0,0,0,0,0,0,0,0,0,0,0,
0,0,0,0,0,0,0,0,0,0,0,0,0,0,0,0,
0,0,0,0,0,0,0,0,0,0,0,0,0,0,0,0,
0,0,0,0,0,0,0,0,0,0,0,0,0,0,0,0,
0,0,0,0,0,0,0,0,0,0,0,0,0,0,0,0,
0,0,0,0,0,0,0,0,0,0,0,0,0,0,0,0,
0,0,0,0,0,0,0,0,0,0,0,0,1099,1100,0,0,
0,0,0,0,0,0,0,0,0,0,0,0,0,0,0,0,
0,0,0,0,0,0,0,0,0,0,0,0,0,0,0,0,
0,0,0,0,0,0,0,0,0,0,0,0,0,0,0,0,
0,0,0,0,0,0,0,0,0,0,0,0,924,0,0,925,
0,0,0,0,0,0,0,0,0,0,0,0,0,0,0,0,
0,0,0,0,0,0,0,0,0,0,0,0,0,0,0,0
</chunk>
   <chunk x="16" y="0" width="16" height="16">
0,0,0,0,0,0,0,0,0,0,0,0,0,0,0,0,
0,0,0,0,0,0,0,0,0,0,0,0,0,0,0,0,
0,0,0,0,0,0,0,0,0,0,0,0,0,0,0,0,
0,0,0,0,0,0,0,0,0,0,0,0,0,0,0,0,
0,0,0,0,0,0,0,0,0,0,0,0,0,0,0,0,
0,0,0,0,0,0,0,0,0,0,0,0,0,0,0,0,
0,0,0,0,0,0,0,0,0,0,0,0,0,0,0,0,
0,0,0,0,0,0,0,0,0,0,0,0,0,0,0,0,
0,0,0,0,0,0,0,0,0,0,0,0,0,0,0,0,
0,0,0,0,0,0,0,0,0,0,0,0,0,0,0,0,
0,0,0,0,0,0,0,0,0,0,0,0,0,0,0,0,
0,0,0,0,0,0,0,0,0,0,0,0,0,0,0,0,
0,0,0,0,0,0,0,0,0,0,0,0,0,0,0,0,
0,0,0,925,0,0,924,0,0,0,0,0,0,0,0,0,
0,0,0,0,0,0,0,0,0,0,0,0,0,0,0,0,
0,0,0,0,0,0,0,0,0,0,0,0,0,0,0,0
</chunk>
   <chunk x="0" y="16" width="16" height="16">
0,0,0,0,0,0,0,0,0,0,0,0,0,0,0,925,
0,0,0,0,0,0,0,0,0,0,0,0,0,0,0,0,
0,0,0,0,0,0,0,0,0,0,0,0,924,0,0,0,
0,0,0,0,0,0,0,0,0,0,0,0,0,0,0,925,
0,0,0,0,0,0,0,0,0,0,0,0,0,0,0,0,
0,0,0,0,0,0,0,0,0,0,0,0,0,0,0,0,
0,0,0,0,0,0,0,0,0,0,0,0,0,0,0,0,
0,0,0,0,0,0,0,0,0,0,0,0,0,0,0,0,
0,0,0,0,0,0,0,0,0,0,0,0,0,0,0,0,
0,0,0,0,0,0,0,0,0,0,0,0,0,0,0,0,
0,0,0,0,0,0,0,0,0,0,0,0,0,0,0,0,
0,0,0,0,0,0,0,0,0,0,0,0,0,0,0,0,
0,0,0,0,0,0,0,0,0,0,0,0,0,0,0,0,
0,0,0,0,0,0,0,0,0,0,0,0,0,0,0,0,
0,0,0,0,0,0,0,0,0,0,0,0,0,0,0,0,
0,0,0,0,0,0,0,0,0,0,0,0,0,0,0,0
</chunk>
   <chunk x="16" y="16" width="16" height="16">
0,0,0,925,0,0,0,0,0,0,0,0,0,0,0,0,
0,0,0,0,0,0,0,0,0,0,0,0,0,0,0,0,
0,0,0,0,0,0,924,0,0,0,0,0,0,0,0,0,
0,0,0,925,0,0,0,0,0,0,0,0,0,0,0,0,
0,0,0,0,0,0,0,0,0,0,0,0,0,0,0,0,
0,0,0,0,0,0,0,0,0,0,0,0,0,0,0,0,
0,0,0,0,0,0,0,0,0,0,0,0,0,0,0,0,
0,0,0,0,0,0,0,0,0,0,0,0,0,0,0,0,
0,0,0,0,0,0,0,0,0,0,0,0,0,0,0,0,
0,0,0,0,0,0,0,0,0,0,0,0,0,0,0,0,
0,0,0,0,0,0,0,0,0,0,0,0,0,0,0,0,
0,0,0,0,0,0,0,0,0,0,0,0,0,0,0,0,
0,0,0,0,0,0,0,0,0,0,0,0,0,0,0,0,
0,0,0,0,0,0,0,0,0,0,0,0,0,0,0,0,
0,0,0,0,0,0,0,0,0,0,0,0,0,0,0,0,
0,0,0,0,0,0,0,0,0,0,0,0,0,0,0,0
</chunk>
  </data>
 </layer>
 <layer id="62" name="Props_B_2" width="32" height="32">
  <data encoding="csv">
   <chunk x="0" y="-80" width="16" height="16">
0,0,0,0,0,0,0,0,0,0,0,0,0,0,0,0,
0,0,0,0,0,0,0,0,0,0,0,0,0,0,0,0,
0,0,0,0,0,0,0,0,0,0,0,0,0,0,0,0,
0,0,0,0,0,0,0,0,0,0,0,0,0,0,0,0,
0,0,0,0,0,0,0,0,0,0,0,0,0,0,0,0,
0,0,0,0,0,0,0,0,0,0,0,0,0,0,0,0,
0,0,0,0,0,0,0,0,0,0,0,0,0,0,0,0,
0,0,0,0,0,0,0,0,0,0,0,0,0,0,0,0,
0,0,0,0,0,0,0,0,0,0,0,0,0,0,0,0,
0,0,0,0,0,0,0,0,0,0,0,0,0,0,0,0,
0,0,0,0,0,0,0,0,0,0,0,0,0,0,0,0,
0,0,0,0,0,0,0,0,0,0,0,0,0,0,0,0,
0,0,0,0,0,0,0,0,0,0,0,0,0,0,0,0,
0,0,0,0,0,0,0,0,0,0,0,859,860,861,0,0,
0,0,0,0,0,0,0,0,0,0,0,0,0,0,0,0,
0,0,0,0,0,0,0,0,0,0,0,0,0,0,0,0
</chunk>
  </data>
 </layer>
 <group id="3" name="Z=1"/>
 <layer id="217" name="Wall_A_3" width="32" height="32">
  <data encoding="csv">
   <chunk x="16" y="-64" width="16" height="16">
0,0,0,0,0,0,0,0,0,0,0,0,0,0,0,0,
0,0,0,0,0,0,0,0,0,0,0,0,0,0,0,0,
0,0,0,0,0,0,0,0,0,0,0,0,0,0,0,0,
0,0,0,0,0,0,0,0,0,0,0,0,0,0,0,0,
0,0,515,0,0,0,0,0,0,0,0,0,0,0,0,0,
0,0,0,0,0,0,0,0,0,0,0,0,0,0,0,0,
0,0,0,0,0,0,0,0,0,0,0,0,0,0,0,0,
0,0,0,0,0,0,0,0,0,0,0,0,0,0,0,0,
0,0,0,0,0,0,0,0,0,0,0,0,0,0,0,0,
0,0,0,0,0,0,0,0,0,0,0,0,0,0,0,0,
0,0,0,0,0,0,0,0,0,0,0,0,0,0,0,0,
0,0,0,0,0,0,0,0,0,0,0,0,0,0,0,0,
0,0,0,0,0,0,0,0,0,0,0,0,0,0,0,0,
0,0,0,0,0,0,0,0,0,0,0,0,0,0,0,0,
0,0,0,0,0,0,0,0,0,0,0,0,0,0,0,0,
0,0,0,0,0,0,0,0,0,0,0,0,0,0,0,0
</chunk>
   <chunk x="16" y="-48" width="16" height="16">
0,0,0,0,0,0,0,0,0,0,0,0,0,0,0,0,
0,0,0,0,0,0,0,0,0,0,0,0,0,0,0,0,
0,0,0,0,0,0,0,0,0,0,0,0,0,0,0,0,
0,0,0,0,0,0,0,0,0,0,0,0,0,0,0,0,
0,0,0,0,0,0,0,0,0,0,0,0,0,0,0,0,
0,0,0,0,0,0,0,0,0,0,0,0,0,0,0,0,
0,0,0,0,0,0,0,0,0,0,0,0,0,0,0,0,
0,0,0,0,0,0,0,0,0,0,0,0,0,0,0,0,
0,0,0,0,0,0,0,0,0,0,0,0,0,0,0,0,
0,0,0,0,0,0,0,0,0,0,0,0,0,0,0,0,
0,0,0,0,0,0,0,0,0,0,0,0,0,0,0,0,
0,0,0,0,0,0,0,0,0,0,0,0,0,0,0,0,
0,0,0,0,0,0,0,0,0,0,0,0,0,0,0,0,
0,0,0,0,0,0,0,0,0,0,0,0,0,0,0,0,
514,0,0,0,0,0,0,0,0,0,0,0,0,0,0,0,
0,0,0,0,0,0,0,0,0,0,0,0,0,0,0,0
</chunk>
   <chunk x="0" y="-16" width="16" height="16">
0,0,0,0,0,0,0,0,0,0,0,0,0,0,0,0,
0,0,0,0,0,0,0,0,0,0,0,0,0,0,0,0,
0,0,0,0,0,0,0,0,0,0,0,0,0,0,0,0,
0,0,0,0,0,0,0,0,0,0,0,0,0,0,0,0,
0,0,0,0,0,0,0,0,0,0,0,0,0,0,0,0,
0,0,0,0,0,0,0,0,0,0,0,0,0,0,0,0,
0,0,0,0,0,0,0,0,0,0,0,0,0,0,0,0,
0,0,0,0,0,0,0,0,0,0,0,0,0,0,0,0,
0,0,0,0,0,0,0,0,0,0,0,0,0,0,0,574,
0,0,0,0,0,0,0,0,0,0,0,0,0,0,0,0,
0,0,0,0,0,0,0,0,0,0,0,0,0,0,0,0,
0,0,0,0,0,0,0,0,0,0,0,0,0,0,0,0,
0,0,0,0,0,0,0,0,0,0,0,0,0,0,0,0,
0,0,0,0,0,0,0,0,0,0,0,0,0,0,0,0,
0,0,0,0,0,0,0,0,0,0,0,0,0,0,0,0,
0,0,0,0,0,0,0,0,0,0,0,0,0,0,0,0
</chunk>
   <chunk x="16" y="-16" width="16" height="16">
0,0,0,0,0,0,0,0,0,0,0,0,0,0,0,0,
0,0,0,0,0,0,0,0,0,0,0,0,0,0,0,0,
0,0,0,0,0,0,0,0,0,0,0,0,0,0,0,0,
0,0,0,0,0,0,0,0,0,0,0,0,0,0,0,0,
0,0,0,0,0,0,0,0,0,0,0,0,0,0,0,0,
0,0,0,0,0,0,0,0,0,0,0,0,0,0,0,0,
0,0,0,0,0,0,0,0,0,0,0,0,0,0,0,0,
0,0,0,0,0,0,0,0,0,0,0,0,0,0,0,0,
573,574,571,572,0,0,0,0,0,0,0,0,0,0,0,0,
0,0,0,0,0,0,0,0,0,0,0,0,0,0,0,0,
0,0,0,0,0,0,0,0,0,0,0,0,0,0,0,0,
0,0,0,0,0,0,0,0,0,0,0,0,0,0,0,0,
0,0,0,0,0,0,0,0,0,0,0,0,0,0,0,0,
0,0,0,0,0,0,0,0,0,0,0,0,0,0,0,0,
0,0,0,0,0,0,0,0,0,0,0,0,0,0,0,0,
0,0,0,0,0,0,0,0,0,0,0,0,0,0,0,0
</chunk>
   <chunk x="0" y="0" width="16" height="16">
0,0,0,0,0,0,0,0,0,0,0,0,0,0,0,0,
0,0,0,0,0,0,0,0,0,0,0,0,0,0,0,0,
0,0,0,0,0,0,0,0,0,0,0,0,0,0,0,0,
0,0,0,0,0,0,0,0,0,0,0,0,0,0,0,0,
0,0,0,0,0,0,0,0,0,0,0,0,0,0,0,0,
0,0,0,0,0,0,0,0,0,0,0,0,0,0,0,0,
0,0,0,0,0,0,0,0,0,0,0,0,0,0,0,0,
0,0,0,0,0,0,0,0,0,0,0,0,0,0,0,0,
0,0,0,0,0,0,0,0,0,0,0,0,0,0,0,0,
0,0,0,0,0,0,0,0,0,0,0,0,0,0,574,0,
0,0,0,0,0,0,0,0,0,0,0,0,0,0,0,0,
0,0,0,0,0,0,0,0,0,0,0,0,0,0,0,0,
0,0,0,0,0,0,0,0,0,0,0,0,0,0,0,0,
0,0,0,0,0,0,0,0,0,0,0,0,0,0,0,0,
0,0,0,0,0,0,0,0,0,0,0,0,0,0,0,0,
0,0,0,0,0,0,0,0,0,0,0,0,0,0,0,0
</chunk>
   <chunk x="16" y="0" width="16" height="16">
0,0,0,0,0,0,0,0,0,0,0,0,0,0,0,0,
0,0,0,0,0,0,0,0,0,0,0,0,0,0,0,0,
0,0,0,0,0,0,0,0,0,0,0,0,0,0,0,0,
0,0,0,0,0,0,0,0,0,0,0,0,0,0,0,0,
0,0,0,0,0,0,0,0,0,0,0,0,0,0,0,0,
0,0,0,0,0,0,0,0,0,0,0,0,0,0,0,0,
0,0,0,0,0,0,0,0,0,0,0,0,0,0,0,0,
0,0,0,0,0,0,0,0,0,0,0,0,0,0,0,0,
0,0,0,0,0,0,0,0,0,0,0,0,0,0,0,0,
0,0,0,0,574,0,0,0,0,0,0,0,0,0,0,0,
0,0,0,0,0,0,0,0,0,0,0,0,0,0,0,0,
0,0,0,0,0,0,0,0,0,0,0,0,0,0,0,0,
0,0,0,0,0,0,0,0,0,0,0,0,0,0,0,0,
0,0,0,0,0,0,0,0,0,0,0,0,0,0,0,0,
0,0,0,0,0,0,0,0,0,0,0,0,0,0,0,0,
0,0,0,0,0,0,0,0,0,0,0,0,0,0,0,0
</chunk>
  </data>
 </layer>
 <layer id="218" name="Wall_B_3" width="32" height="32">
  <data encoding="csv">
   <chunk x="0" y="-16" width="16" height="16">
0,0,0,0,0,0,0,0,0,0,0,0,0,0,0,0,
0,0,0,0,0,0,0,0,0,0,0,0,0,0,0,0,
0,0,0,0,0,0,0,0,0,0,0,0,0,0,0,0,
0,0,0,0,0,0,0,0,0,0,0,0,0,0,0,0,
0,0,0,0,0,0,0,0,0,0,0,0,0,0,0,0,
0,0,0,0,0,0,0,0,0,0,0,0,0,0,0,0,
0,0,0,0,0,0,0,0,0,0,0,0,0,0,0,0,
0,0,0,0,0,0,0,0,0,0,0,0,0,0,0,0,
0,0,0,0,0,0,0,0,0,0,0,0,0,0,0,579,
0,0,0,0,0,0,0,0,0,0,0,0,0,0,0,0,
0,0,0,0,0,0,0,0,0,0,0,0,0,0,0,0,
0,0,0,0,0,0,0,0,0,0,0,0,0,0,0,0,
0,0,0,0,0,0,0,0,0,0,0,0,0,0,0,0,
0,0,0,0,0,0,0,0,0,0,0,0,0,0,0,0,
0,0,0,0,0,0,0,0,0,0,0,0,0,0,0,0,
0,0,0,0,0,0,0,0,0,0,0,0,0,0,0,0
</chunk>
   <chunk x="16" y="-16" width="16" height="16">
0,0,0,0,0,0,0,0,0,0,0,0,0,0,0,0,
0,0,0,0,0,0,0,0,0,0,0,0,0,0,0,0,
0,0,0,0,0,0,0,0,0,0,0,0,0,0,0,0,
0,0,0,0,0,0,0,0,0,0,0,0,0,0,0,0,
0,0,0,0,0,0,0,0,0,0,0,0,0,0,0,0,
0,0,0,0,0,0,0,0,0,0,0,0,0,0,0,0,
0,0,0,0,0,0,0,0,0,0,0,0,0,0,0,0,
0,0,0,0,0,0,0,0,0,0,0,0,0,0,0,0,
579,579,579,579,0,0,0,0,0,0,0,0,0,0,0,0,
0,0,0,0,0,0,0,0,0,0,0,0,0,0,0,0,
0,0,0,0,0,0,0,0,0,0,0,0,0,0,0,0,
0,0,0,0,0,0,0,0,0,0,0,0,0,0,0,0,
0,0,0,0,0,0,0,0,0,0,0,0,0,0,0,0,
0,0,0,0,0,0,0,0,0,0,0,0,0,0,0,0,
0,0,0,0,0,0,0,0,0,0,0,0,0,0,0,0,
0,0,0,0,0,0,0,0,0,0,0,0,0,0,0,0
</chunk>
   <chunk x="0" y="0" width="16" height="16">
0,0,0,0,0,0,0,0,0,0,0,0,0,0,0,0,
0,0,0,0,0,0,0,0,0,0,0,0,0,0,0,0,
0,0,0,0,0,0,0,0,0,0,0,0,0,0,0,0,
0,0,0,0,0,0,0,0,0,0,0,0,0,0,0,0,
0,0,0,0,0,0,0,0,0,0,0,0,0,0,0,0,
0,0,0,0,0,0,0,0,0,0,0,0,0,0,0,0,
0,0,0,0,0,0,0,0,0,0,0,0,0,0,0,0,
0,0,0,0,0,0,0,0,0,0,0,0,0,0,0,0,
0,0,0,0,0,0,0,0,0,0,0,0,0,0,0,0,
0,0,0,0,0,0,0,0,0,0,0,0,0,0,579,0,
0,0,0,0,0,0,0,0,0,0,0,0,0,0,0,0,
0,0,0,0,0,0,0,0,0,0,0,0,0,0,0,0,
0,0,0,0,0,0,0,0,0,0,0,0,0,0,0,0,
0,0,0,0,0,0,0,0,0,0,0,0,0,0,0,0,
0,0,0,0,0,0,0,0,0,0,0,0,0,0,0,0,
0,0,0,0,0,0,0,0,0,0,0,0,0,0,0,0
</chunk>
   <chunk x="16" y="0" width="16" height="16">
0,0,0,0,0,0,0,0,0,0,0,0,0,0,0,0,
0,0,0,0,0,0,0,0,0,0,0,0,0,0,0,0,
0,0,0,0,0,0,0,0,0,0,0,0,0,0,0,0,
0,0,0,0,0,0,0,0,0,0,0,0,0,0,0,0,
0,0,0,0,0,0,0,0,0,0,0,0,0,0,0,0,
0,0,0,0,0,0,0,0,0,0,0,0,0,0,0,0,
0,0,0,0,0,0,0,0,0,0,0,0,0,0,0,0,
0,0,0,0,0,0,0,0,0,0,0,0,0,0,0,0,
0,0,0,0,0,0,0,0,0,0,0,0,0,0,0,0,
0,0,0,0,579,0,0,0,0,0,0,0,0,0,0,0,
0,0,0,0,0,0,0,0,0,0,0,0,0,0,0,0,
0,0,0,0,0,0,0,0,0,0,0,0,0,0,0,0,
0,0,0,0,0,0,0,0,0,0,0,0,0,0,0,0,
0,0,0,0,0,0,0,0,0,0,0,0,0,0,0,0,
0,0,0,0,0,0,0,0,0,0,0,0,0,0,0,0,
0,0,0,0,0,0,0,0,0,0,0,0,0,0,0,0
</chunk>
  </data>
 </layer>
 <layer id="225" name="Wall_C_3" width="32" height="32">
  <data encoding="csv"/>
 </layer>
 <layer id="63" name="Props_A_3" width="32" height="32">
  <data encoding="csv">
   <chunk x="0" y="-80" width="16" height="16">
0,0,0,0,0,0,0,0,0,0,0,0,0,0,0,0,
0,0,0,0,0,0,0,0,0,0,0,0,0,0,0,0,
0,0,0,0,0,0,0,0,0,0,0,0,0,0,0,0,
0,0,0,0,0,0,0,0,0,0,0,0,0,0,0,0,
0,0,0,0,0,0,0,0,0,0,0,0,0,0,0,0,
0,0,0,0,0,0,0,0,0,0,0,0,0,0,0,0,
0,0,0,0,0,0,0,0,0,0,0,0,0,0,0,0,
0,0,0,0,0,0,0,0,0,0,0,0,0,0,0,0,
0,0,0,0,0,0,0,0,0,0,0,0,0,0,0,0,
0,0,0,0,0,0,0,0,0,0,0,0,0,0,0,0,
0,0,0,0,0,0,0,0,0,0,0,0,0,0,0,0,
0,0,0,0,0,0,0,0,0,0,0,0,0,0,0,0,
0,0,0,0,0,0,0,0,0,0,0,0,0,1673,1674,0,
0,0,0,0,0,0,0,0,0,0,0,0,0,0,0,0,
0,0,0,0,0,0,0,0,0,0,0,0,0,0,0,0,
0,0,0,0,0,0,0,0,0,0,1781,1782,0,0,0,0
</chunk>
   <chunk x="16" y="-80" width="16" height="16">
0,0,0,0,0,0,0,0,0,0,0,0,0,0,0,0,
0,0,0,0,0,0,0,0,0,0,0,0,0,0,0,0,
0,0,0,0,0,0,0,0,0,0,0,0,0,0,0,0,
0,0,0,0,0,0,0,0,0,0,0,0,0,0,0,0,
0,0,0,0,0,0,0,0,0,0,0,0,0,0,0,0,
0,0,0,0,0,0,0,0,0,0,0,0,0,0,0,0,
0,0,0,0,0,0,0,0,0,0,0,0,0,0,0,0,
0,0,0,0,0,0,0,0,0,0,0,0,0,0,0,0,
0,0,0,0,0,0,0,0,0,0,0,0,0,0,0,0,
0,0,0,0,0,0,0,0,0,0,0,0,0,0,0,0,
0,0,0,0,0,0,0,0,0,0,0,0,0,0,0,0,
0,0,0,0,0,0,0,0,0,0,0,0,0,0,0,0,
0,0,0,0,1682,1683,0,0,0,0,0,0,0,0,0,0,
0,0,0,0,0,0,0,0,0,0,0,0,0,0,0,0,
0,0,0,0,0,0,0,0,0,0,0,0,0,0,0,0,
0,0,0,0,0,0,0,1784,0,0,0,0,0,0,0,0
</chunk>
   <chunk x="0" y="-48" width="16" height="16">
0,0,0,0,0,0,0,0,0,0,0,0,0,0,0,0,
0,0,0,0,0,0,0,0,0,0,0,0,0,0,0,0,
0,0,0,0,0,0,0,0,0,0,0,0,0,0,0,0,
0,0,0,0,0,0,0,0,0,0,0,0,0,0,0,0,
0,0,0,0,0,0,0,0,0,0,0,0,0,0,0,0,
0,0,0,0,0,0,0,0,0,0,0,0,0,0,0,0,
0,0,0,0,0,0,0,0,0,0,0,0,0,1673,1674,0,
0,0,0,0,0,0,0,0,0,0,0,0,0,0,0,0,
0,0,0,0,0,0,0,0,0,0,0,0,0,0,824,825,
0,0,0,0,0,0,0,0,0,0,1781,1782,0,0,0,0,
0,0,0,0,0,0,0,0,0,0,0,0,0,0,0,0,
0,0,0,0,0,0,0,0,0,0,0,0,0,0,0,0,
0,0,0,0,0,0,0,0,0,0,0,0,0,0,0,0,
0,0,0,0,0,0,0,0,0,0,0,0,0,0,0,0,
0,0,0,0,0,0,0,0,0,0,0,0,0,0,0,0,
0,0,0,0,0,0,0,0,0,0,0,0,0,0,0,0
</chunk>
   <chunk x="16" y="-48" width="16" height="16">
0,0,0,0,0,0,0,0,0,0,0,0,0,0,0,0,
0,0,0,0,0,0,0,0,0,0,0,0,0,0,0,0,
0,0,0,0,0,0,0,0,0,0,0,0,0,0,0,0,
0,0,0,0,0,0,0,0,0,0,0,0,0,0,0,0,
0,0,0,0,0,0,0,0,0,0,0,0,0,0,0,0,
0,0,0,0,0,0,0,0,0,0,0,0,0,0,0,0,
0,0,0,0,1682,1683,0,0,0,0,0,0,0,0,0,0,
0,0,0,0,0,0,0,0,0,0,0,0,0,0,0,0,
826,0,824,825,826,0,0,0,0,0,0,0,0,0,0,0,
0,0,0,0,0,0,0,1784,1785,0,0,0,0,0,0,0,
0,0,0,0,0,0,0,0,0,0,0,0,0,0,0,0,
0,0,0,0,0,0,0,0,0,0,0,0,0,0,0,0,
0,0,0,0,0,0,0,0,0,0,0,0,0,0,0,0,
0,0,0,0,0,0,0,0,0,0,0,0,0,0,0,0,
0,0,0,0,0,0,0,0,0,0,0,0,0,0,0,0,
0,0,0,0,0,0,0,0,0,0,0,0,0,0,0,0
</chunk>
   <chunk x="16" y="-16" width="16" height="16">
0,0,0,0,0,0,0,0,0,0,0,0,0,0,0,0,
0,0,0,0,0,824,825,826,0,0,0,0,0,0,0,0,
0,0,0,0,0,0,0,0,0,0,0,0,0,0,0,0,
0,0,0,0,0,0,0,0,0,0,0,0,0,0,0,0,
0,0,0,0,0,0,0,0,0,0,0,0,0,0,0,0,
0,0,0,0,0,0,0,0,0,0,0,0,0,0,0,0,
0,0,0,0,0,0,0,0,0,0,0,0,0,0,0,0,
0,0,0,0,0,0,0,0,0,0,0,0,0,0,0,0,
0,0,0,0,0,0,0,0,0,0,0,0,0,0,0,0,
0,0,0,0,0,0,0,0,0,0,0,0,0,0,0,0,
0,0,0,0,0,0,0,0,0,0,0,0,0,0,0,0,
0,0,0,0,0,0,0,0,0,0,0,0,0,0,0,0,
0,0,0,0,0,0,0,0,0,0,0,0,0,0,0,0,
0,0,0,0,0,0,0,0,0,0,0,0,0,0,0,0,
0,0,0,0,0,0,0,0,0,0,0,0,0,0,0,0,
0,0,0,0,0,0,0,0,0,0,0,0,0,0,0,0
</chunk>
   <chunk x="0" y="0" width="16" height="16">
0,0,0,0,0,0,0,0,0,0,0,0,0,0,0,0,
0,0,0,0,0,0,0,0,0,0,0,0,0,0,0,0,
0,0,0,0,0,0,0,0,0,0,0,0,0,0,0,0,
0,0,0,0,0,0,0,0,0,0,0,0,0,0,0,0,
0,0,0,0,0,0,0,0,0,0,0,0,0,0,0,0,
0,0,0,0,0,0,0,0,0,0,0,0,0,0,0,0,
0,0,0,0,0,0,0,0,0,0,0,0,0,0,0,0,
0,0,0,0,0,0,0,0,0,0,0,0,0,0,0,0,
0,0,0,0,0,0,0,0,0,0,0,0,0,1065,0,0,
0,0,0,0,0,0,0,0,0,0,0,0,0,0,0,0,
0,0,0,0,0,0,0,0,0,0,0,0,0,0,0,0,
0,0,0,0,0,0,0,0,0,0,0,0,0,0,0,0,
0,0,0,0,0,0,0,0,0,0,0,0,0,0,0,0,
0,0,0,0,0,0,0,0,0,0,0,0,0,0,0,0,
0,0,0,0,0,0,0,0,0,0,0,0,0,0,0,0,
0,0,0,0,0,0,0,0,0,0,0,0,0,0,0,0
</chunk>
  </data>
 </layer>
 <layer id="64" name="Props_B_3" width="32" height="32">
  <data encoding="csv">
   <chunk x="0" y="-80" width="16" height="16">
0,0,0,0,0,0,0,0,0,0,0,0,0,0,0,0,
0,0,0,0,0,0,0,0,0,0,0,0,0,0,0,0,
0,0,0,0,0,0,0,0,0,0,0,0,0,0,0,0,
0,0,0,0,0,0,0,0,0,0,0,0,0,0,0,0,
0,0,0,0,0,0,0,0,0,0,0,0,0,0,0,0,
0,0,0,0,0,0,0,0,0,0,0,0,0,0,0,0,
0,0,0,0,0,0,0,0,0,0,0,0,0,0,0,0,
0,0,0,0,0,0,0,0,0,0,0,0,0,0,0,0,
0,0,0,0,0,0,0,0,0,0,0,0,0,0,0,0,
0,0,0,0,0,0,0,0,0,0,0,0,0,0,0,0,
0,0,0,0,0,0,0,0,0,0,0,0,0,0,0,0,
0,0,0,0,0,0,0,0,0,0,0,0,0,0,0,0,
0,0,0,0,0,0,0,0,0,0,0,824,825,826,0,0,
0,0,0,0,0,0,0,0,0,0,0,0,0,0,0,0,
0,0,0,0,0,0,0,0,0,0,0,0,0,0,0,0,
0,0,0,0,0,0,0,0,0,0,0,0,0,0,0,0
</chunk>
  </data>
 </layer>
 <group id="2" name="Z=2"/>
 <layer id="219" name="Wall_A_4" width="32" height="32">
  <data encoding="csv"/>
 </layer>
 <layer id="220" name="Wall_B_4" width="32" height="32">
  <data encoding="csv"/>
 </layer>
 <layer id="226" name="Wall_C_4" width="32" height="32">
  <data encoding="csv"/>
 </layer>
 <layer id="199" name="Props_A_4" width="32" height="32">
  <data encoding="csv">
   <chunk x="0" y="-80" width="16" height="16">
0,0,0,0,0,0,0,0,0,0,0,0,0,0,0,0,
0,0,0,0,0,0,0,0,0,0,0,0,0,0,0,0,
0,0,0,0,0,0,0,0,0,0,0,0,0,0,0,0,
0,0,0,0,0,0,0,0,0,0,0,0,0,0,0,0,
0,0,0,0,0,0,0,0,0,0,0,0,0,0,0,0,
0,0,0,0,0,0,0,0,0,0,0,0,0,0,0,0,
0,0,0,0,0,0,0,0,0,0,0,0,0,0,0,0,
0,0,0,0,0,0,0,0,0,0,0,0,0,0,0,0,
0,0,0,0,0,0,0,0,0,0,0,0,0,0,0,0,
0,0,0,0,0,0,0,0,0,0,0,0,0,0,0,0,
0,0,0,0,0,0,0,0,0,0,0,0,0,0,0,0,
0,0,0,0,0,0,0,0,0,0,0,789,790,791,0,0,
0,0,0,0,0,0,0,0,0,0,0,0,0,0,0,0,
0,0,0,0,0,0,0,0,0,0,0,0,0,0,0,0,
0,0,0,0,0,0,0,0,0,0,0,0,0,0,0,0,
0,0,0,0,0,0,0,0,0,0,0,0,0,0,0,0
</chunk>
   <chunk x="16" y="-80" width="16" height="16">
0,0,0,0,0,0,0,0,0,0,0,0,0,0,0,0,
0,0,0,0,0,0,0,0,0,0,0,0,0,0,0,0,
0,0,0,0,0,0,0,0,0,0,0,0,0,0,0,0,
0,0,0,0,0,0,0,0,0,0,0,0,0,0,0,0,
0,0,0,0,0,0,0,0,0,0,0,0,0,0,0,0,
0,0,0,0,0,0,0,0,0,0,0,0,0,0,0,0,
0,0,0,0,0,0,0,0,0,0,0,0,0,0,0,0,
0,0,0,0,0,0,0,0,0,0,0,0,0,0,0,0,
0,0,0,0,0,0,0,0,0,0,0,0,0,0,0,0,
0,0,0,0,0,0,0,0,0,0,0,0,0,0,0,0,
0,0,0,0,0,0,0,0,0,0,0,0,0,0,0,0,
0,0,0,0,0,1648,0,0,0,0,0,0,0,0,0,0,
0,0,0,0,0,0,0,0,0,0,0,0,0,0,0,0,
0,0,0,0,0,0,0,0,0,0,0,0,0,0,0,0,
0,0,0,0,0,0,0,0,0,0,0,0,0,0,0,0,
0,0,0,0,0,0,0,0,0,0,0,0,0,0,0,0
</chunk>
   <chunk x="0" y="-48" width="16" height="16">
0,0,0,0,0,0,0,0,0,0,0,0,0,0,0,0,
0,0,0,0,0,0,0,0,0,0,0,0,0,0,0,0,
0,0,0,0,0,0,0,0,0,0,0,0,0,0,0,0,
0,0,0,0,0,0,0,0,0,0,0,0,0,0,0,0,
0,0,0,0,0,0,0,0,0,0,0,0,0,0,0,0,
0,0,0,0,0,0,0,0,0,0,0,0,0,1638,0,0,
0,0,0,0,0,0,0,0,0,0,0,0,0,0,0,0,
0,0,0,0,0,0,0,0,0,0,0,0,0,0,789,790,
0,0,0,0,0,0,0,0,0,0,0,0,0,0,0,0,
0,0,0,0,0,0,0,0,0,0,0,0,0,0,0,0,
0,0,0,0,0,0,0,0,0,0,0,0,0,0,0,0,
0,0,0,0,0,0,0,0,0,0,0,0,0,0,0,0,
0,0,0,0,0,0,0,0,0,0,0,0,0,0,0,0,
0,0,0,0,0,0,0,0,0,0,0,0,0,0,0,0,
0,0,0,0,0,0,0,0,0,0,0,0,0,0,0,0,
0,0,0,0,0,0,0,0,0,0,0,0,0,0,0,0
</chunk>
   <chunk x="16" y="-48" width="16" height="16">
0,0,0,0,0,0,0,0,0,0,0,0,0,0,0,0,
0,0,0,0,0,0,0,0,0,0,0,0,0,0,0,0,
0,0,0,0,0,0,0,0,0,0,0,0,0,0,0,0,
0,0,0,0,0,0,0,0,0,0,0,0,0,0,0,0,
0,0,0,0,0,0,0,0,0,0,0,0,0,0,0,0,
0,0,0,0,0,1648,0,0,0,0,0,0,0,0,0,0,
0,0,0,0,0,0,0,0,0,0,0,0,0,0,0,0,
791,0,789,790,791,0,0,0,0,0,0,0,0,0,0,0,
0,0,0,0,0,0,0,0,0,0,0,0,0,0,0,0,
0,0,0,0,0,0,0,0,0,0,0,0,0,0,0,0,
0,0,0,0,0,0,0,0,0,0,0,0,0,0,0,0,
0,0,0,0,0,0,0,0,0,0,0,0,0,0,0,0,
0,0,0,0,0,0,0,0,0,0,0,0,0,0,0,0,
0,0,0,0,0,0,0,0,0,0,0,0,0,0,0,0,
0,0,0,0,0,0,0,0,0,0,0,0,0,0,0,0,
0,0,0,0,0,0,0,0,0,0,0,0,0,0,0,0
</chunk>
   <chunk x="16" y="-16" width="16" height="16">
0,0,0,0,0,789,790,791,0,0,0,0,0,0,0,0,
0,0,0,0,0,0,0,0,0,0,0,0,0,0,0,0,
0,0,0,0,0,0,0,0,0,0,0,0,0,0,0,0,
0,0,0,0,0,0,0,0,0,0,0,0,0,0,0,0,
0,0,0,0,0,0,0,0,0,0,0,0,0,0,0,0,
0,0,0,0,0,0,0,0,0,0,0,0,0,0,0,0,
0,0,0,0,0,0,0,0,0,0,0,0,0,0,0,0,
0,0,0,0,0,0,0,0,0,0,0,0,0,0,0,0,
0,0,0,0,0,0,0,0,0,0,0,0,0,0,0,0,
0,0,0,0,0,0,0,0,0,0,0,0,0,0,0,0,
0,0,0,0,0,0,0,0,0,0,0,0,0,0,0,0,
0,0,0,0,0,0,0,0,0,0,0,0,0,0,0,0,
0,0,0,0,0,0,0,0,0,0,0,0,0,0,0,0,
0,0,0,0,0,0,0,0,0,0,0,0,0,0,0,0,
0,0,0,0,0,0,0,0,0,0,0,0,0,0,0,0,
0,0,0,0,0,0,0,0,0,0,0,0,0,0,0,0
</chunk>
   <chunk x="16" y="0" width="16" height="16">
0,0,0,0,0,0,0,0,0,0,0,0,0,0,0,0,
0,0,0,0,0,0,0,0,0,0,0,0,0,0,0,0,
0,0,0,0,0,0,0,0,0,0,0,0,0,0,0,0,
0,0,0,0,0,0,0,0,0,0,0,0,0,0,0,0,
0,0,0,0,0,0,0,0,0,0,0,0,0,0,0,0,
0,0,0,0,0,0,0,0,0,0,0,0,0,0,0,0,
0,0,0,0,0,0,0,0,0,0,0,0,0,0,0,0,
0,0,0,0,0,0,0,0,0,0,0,0,0,0,0,0,
0,0,0,0,0,0,0,0,0,0,0,0,0,0,0,0,
614,615,616,0,0,0,0,0,0,0,0,0,0,0,0,0,
0,0,0,0,0,0,0,0,0,0,0,0,0,0,0,0,
0,0,0,0,0,0,0,0,0,0,0,0,0,0,0,0,
0,0,0,0,0,0,0,0,0,0,0,0,0,0,0,0,
0,0,0,0,0,0,0,0,0,0,0,0,0,0,0,0,
0,0,0,0,0,0,0,0,0,0,0,0,0,0,0,0,
0,0,0,0,0,0,0,0,0,0,0,0,0,0,0,0
</chunk>
  </data>
 </layer>
 <layer id="212" name="Props_B_4" width="32" height="32">
  <data encoding="csv"/>
 </layer>
 <group id="48" name="Z=3"/>
 <layer id="61" name="Props_A_5" width="32" height="32">
  <data encoding="csv"/>
 </layer>
 <layer id="213" name="Props_B_5" width="32" height="32">
  <data encoding="csv"/>
 </layer>
 <group id="214" name="Z=4"/>
 <layer id="215" name="Props_A_6" width="32" height="32">
  <data encoding="csv"/>
 </layer>
 <layer id="216" name="Props_B_6" width="32" height="32">
  <data encoding="csv"/>
 </layer>
 <layer id="209" name="Black_6" width="32" height="32">
  <data encoding="csv">
   <chunk x="0" y="-80" width="16" height="16">
0,0,0,0,0,0,0,0,0,0,0,0,0,0,0,0,
0,0,0,0,0,0,0,0,0,0,0,0,0,0,0,0,
0,0,0,0,0,0,0,0,0,0,0,0,0,0,0,0,
0,0,0,0,0,0,0,0,0,0,0,0,0,0,0,0,
0,0,0,0,0,0,0,0,0,0,0,0,0,0,0,0,
0,0,0,0,0,0,0,0,0,0,0,0,0,0,0,0,
0,0,0,0,0,0,0,0,0,0,0,0,0,0,0,0,
0,0,0,0,0,0,0,0,0,0,0,0,0,0,0,0,
0,0,0,0,0,0,0,0,0,0,0,0,0,0,0,0,
0,0,0,0,0,0,0,0,536,536,536,536,536,536,536,536,
0,0,0,0,0,0,0,0,536,536,536,536,536,0,0,0,
0,0,0,0,0,0,0,0,536,536,536,536,0,0,0,0,
0,0,0,0,0,0,0,0,536,536,536,0,0,0,0,0,
0,0,0,0,0,0,0,0,536,536,0,0,0,0,0,0,
0,0,0,0,0,0,0,0,536,536,0,0,0,0,0,0,
0,0,0,0,0,0,0,0,536,0,0,0,0,0,0,0
</chunk>
   <chunk x="16" y="-80" width="16" height="16">
0,0,0,0,0,0,0,0,0,0,0,0,0,0,0,0,
0,0,0,0,0,0,0,0,0,0,0,0,0,0,0,0,
0,0,0,0,0,0,0,0,0,0,0,0,0,0,0,0,
0,0,0,0,0,0,0,0,0,0,0,0,0,0,0,0,
0,0,0,0,0,0,0,0,0,0,0,0,0,0,0,0,
0,0,0,0,0,0,0,0,0,0,0,0,0,0,0,0,
0,0,0,0,0,0,0,0,0,0,0,0,0,0,0,0,
0,0,0,0,0,0,0,0,0,0,0,0,0,0,0,0,
0,0,0,0,0,0,0,0,0,0,0,0,0,0,0,0,
536,536,536,536,536,536,536,536,536,536,536,0,0,0,0,0,
502,503,504,0,0,0,536,536,536,536,536,0,0,0,0,0,
537,538,539,0,0,0,0,536,536,536,536,0,0,0,0,0,
537,538,539,0,0,0,0,0,536,536,536,0,0,0,0,0,
537,538,539,0,0,0,0,0,0,536,536,0,0,0,0,0,
537,538,539,0,0,0,0,0,0,536,536,0,0,0,0,0,
537,538,539,0,0,0,0,0,0,0,536,0,0,0,0,0
</chunk>
   <chunk x="0" y="-64" width="16" height="16">
0,0,0,0,0,0,0,0,536,0,0,0,0,0,0,0,
0,0,0,0,0,0,0,0,536,0,0,0,0,0,0,0,
0,0,0,0,0,0,0,0,536,536,536,536,536,536,536,536,
0,0,0,0,0,0,0,0,536,536,536,536,536,536,536,536,
0,0,0,0,0,0,0,0,536,536,0,0,0,0,0,0,
0,0,0,0,0,0,0,0,536,536,0,0,0,0,0,0,
0,0,0,0,0,0,0,0,536,536,0,0,0,0,0,0,
0,0,0,0,0,0,0,0,536,0,0,0,0,0,0,0,
0,0,0,0,0,0,0,0,536,0,0,0,0,0,0,0,
0,0,0,0,0,0,0,0,536,0,0,0,0,0,0,0,
0,0,0,0,0,0,0,0,536,0,0,0,0,0,0,0,
0,0,0,0,0,0,0,0,536,0,0,0,0,0,0,0,
0,0,0,0,0,0,0,0,536,0,0,0,0,0,0,0,
0,0,0,0,0,0,0,0,0,0,0,0,0,0,0,0,
0,0,0,0,0,0,0,0,0,0,0,0,0,0,0,0,
0,0,0,0,0,0,0,0,0,0,0,0,0,0,0,0
</chunk>
   <chunk x="16" y="-64" width="16" height="16">
537,538,539,0,0,0,0,0,0,0,536,0,0,0,0,0,
537,538,539,0,0,0,0,0,0,0,536,0,0,0,0,0,
536,538,539,0,0,0,0,0,0,0,536,0,0,0,0,0,
536,536,539,0,0,0,0,0,0,0,536,0,0,0,0,0,
0,0,0,0,0,0,0,0,0,536,536,0,0,0,0,0,
0,0,0,0,0,0,0,0,0,536,536,0,0,0,0,0,
0,0,0,0,0,0,0,0,0,536,536,0,0,0,0,0,
0,0,0,0,0,0,0,0,0,0,536,0,0,0,0,0,
0,0,0,0,0,0,0,0,0,0,536,0,0,0,0,0,
0,0,0,0,0,0,0,0,0,0,536,0,0,0,0,0,
0,0,0,0,0,0,0,0,0,0,536,0,0,0,0,0,
0,0,0,0,0,0,0,0,0,0,536,0,0,0,0,0,
0,0,0,0,0,0,0,0,0,0,536,0,0,0,0,0,
0,0,0,0,0,0,0,0,0,0,0,0,0,0,0,0,
0,0,0,0,0,0,0,0,0,0,0,0,0,0,0,0,
0,0,0,0,0,0,0,0,0,0,0,0,0,0,0,0
</chunk>
   <chunk x="0" y="-48" width="16" height="16">
0,0,0,0,0,0,0,0,0,0,0,0,0,0,0,0,
0,0,0,0,0,0,0,0,0,0,0,0,0,0,0,0,
0,0,0,0,0,0,0,0,0,0,0,0,0,0,0,0,
0,0,0,0,0,0,0,0,536,536,536,536,536,536,536,536,
0,0,0,0,0,0,0,0,536,536,536,536,536,0,0,0,
0,0,0,0,0,0,0,0,536,536,536,536,0,0,0,0,
0,0,0,0,0,0,0,0,536,536,536,0,0,0,0,0,
0,0,0,0,0,0,0,0,536,536,0,0,0,0,0,0,
0,0,0,0,0,0,0,0,536,536,0,0,0,0,0,0,
0,0,0,0,0,0,0,0,536,0,0,0,0,0,0,0,
0,0,0,0,0,0,0,0,536,0,0,0,0,0,0,0,
0,0,0,0,0,0,0,0,536,0,0,0,0,0,0,0,
0,0,0,0,0,0,0,0,536,0,0,0,0,0,0,0,
0,0,0,0,0,0,0,0,536,0,0,0,0,0,0,0,
0,0,0,0,0,0,0,0,536,536,0,0,0,0,0,0,
0,0,0,0,0,0,0,0,536,536,0,0,0,0,0,0
</chunk>
   <chunk x="16" y="-48" width="16" height="16">
0,0,0,0,0,0,0,0,0,0,0,0,0,0,0,0,
0,0,0,0,0,0,0,0,0,0,0,0,0,0,0,0,
0,0,0,0,0,0,0,0,0,0,0,0,0,0,0,0,
536,536,536,536,536,536,536,536,536,536,536,0,0,0,0,0,
502,503,504,0,0,0,536,536,536,536,536,0,0,0,0,0,
537,538,539,0,0,0,0,536,536,536,536,0,0,0,0,0,
537,538,539,0,0,0,0,0,536,536,536,0,0,0,0,0,
537,538,539,0,0,0,0,0,0,536,536,0,0,0,0,0,
537,538,539,0,0,0,0,0,0,536,536,0,0,0,0,0,
537,538,539,0,0,0,0,0,0,0,536,0,0,0,0,0,
537,538,539,0,0,0,0,0,0,0,536,0,0,0,0,0,
537,538,539,0,0,0,0,0,0,0,536,0,0,0,0,0,
537,538,538,538,538,538,538,538,538,538,536,0,0,0,0,0,
537,536,536,536,536,536,536,536,536,536,536,0,0,0,0,0,
0,0,0,0,0,0,0,0,0,536,536,0,0,0,0,0,
0,0,0,0,0,0,0,0,0,536,536,0,0,0,0,0
</chunk>
   <chunk x="0" y="-32" width="16" height="16">
0,0,0,0,0,0,0,0,536,536,0,0,0,0,0,0,
0,0,0,0,0,0,0,0,536,0,0,0,0,0,0,0,
0,0,0,0,0,0,0,0,536,0,0,0,0,0,0,0,
0,0,0,0,0,0,0,0,536,0,0,0,0,0,0,0,
0,0,0,0,0,0,0,0,536,0,0,0,0,0,0,0,
0,0,0,0,0,0,0,0,536,0,0,0,0,0,0,0,
0,0,0,0,0,0,0,0,536,0,0,0,0,0,0,0,
0,0,0,0,0,0,0,0,0,0,0,0,0,0,0,0,
0,0,0,0,0,0,0,0,0,0,0,0,0,0,0,0,
0,0,0,0,0,0,0,0,0,0,0,0,0,0,0,0,
0,0,0,0,0,0,0,0,0,0,0,0,0,0,0,0,
0,0,0,0,0,0,0,0,0,0,0,0,0,0,0,0,
0,0,0,0,0,0,0,0,0,0,0,0,0,0,0,0,
0,0,0,0,0,0,0,0,0,536,536,536,536,536,536,536,
0,0,0,0,0,0,0,0,0,536,0,0,0,0,0,0,
0,0,0,0,0,0,0,0,0,536,0,0,0,0,0,0
</chunk>
   <chunk x="16" y="-32" width="16" height="16">
0,0,0,0,0,0,0,0,0,536,536,0,0,0,0,0,
0,0,0,0,0,0,0,0,0,0,536,0,0,0,0,0,
0,0,0,0,0,0,0,0,0,0,536,0,0,0,0,0,
0,0,0,0,0,0,0,0,0,0,536,0,0,0,0,0,
0,0,0,0,0,0,0,0,0,0,536,0,0,0,0,0,
0,0,0,0,0,0,0,0,0,0,536,0,0,0,0,0,
0,0,0,0,0,0,0,0,0,0,536,0,0,0,0,0,
0,0,0,0,0,0,0,0,0,0,0,0,0,0,0,0,
0,0,0,0,0,0,0,0,0,0,0,0,0,0,0,0,
0,0,0,0,0,0,0,0,0,0,0,0,0,0,0,0,
0,0,0,0,0,0,0,0,0,0,0,0,0,0,0,0,
0,0,0,0,0,0,0,0,0,0,0,0,0,0,0,0,
0,0,0,0,0,0,0,0,0,0,0,0,0,0,0,0,
536,536,536,536,536,536,536,536,536,536,0,0,0,0,0,0,
0,536,536,536,0,0,0,0,0,536,0,0,0,0,0,0,
0,536,536,536,0,0,0,0,0,536,0,0,0,0,0,0
</chunk>
   <chunk x="0" y="-16" width="16" height="16">
0,0,0,0,0,0,0,0,0,536,0,0,0,0,0,0,
0,0,0,0,0,0,0,0,0,536,0,0,0,0,0,0,
0,0,0,0,0,0,0,0,0,536,0,0,0,0,0,0,
0,0,0,0,0,0,0,0,0,536,0,0,0,0,0,0,
0,0,0,0,0,0,0,0,0,536,0,0,0,0,0,0,
0,0,0,0,0,0,0,0,0,536,0,0,0,0,0,501,
0,0,0,0,0,0,0,0,0,536,0,0,0,0,0,536,
0,0,0,0,0,0,0,0,0,536,0,0,0,0,0,536,
0,0,0,0,0,0,0,0,0,536,0,0,0,0,0,0,
0,0,0,0,0,0,0,0,0,536,0,0,0,0,0,0,
0,0,0,0,0,0,0,0,0,536,0,0,0,0,0,0,
0,0,0,0,0,0,0,0,0,536,0,0,0,0,0,0,
0,0,0,0,0,0,0,0,0,536,0,0,0,0,0,0,
0,0,0,0,0,0,0,0,536,536,0,0,0,0,0,0,
0,0,0,0,0,0,0,0,536,0,0,0,0,0,0,0,
0,0,0,0,0,0,0,0,536,0,0,0,0,0,0,0
</chunk>
   <chunk x="16" y="-16" width="16" height="16">
0,536,536,536,0,0,0,0,0,536,0,0,0,0,0,0,
0,536,536,536,0,0,0,0,0,536,0,0,0,0,0,0,
0,536,536,536,0,0,0,0,0,536,0,0,0,0,0,0,
0,536,536,536,0,0,0,0,0,536,0,0,0,0,0,0,
0,536,536,536,0,0,0,0,0,536,0,0,0,0,0,0,
501,536,536,536,0,0,0,0,0,536,0,0,0,0,0,0,
536,536,536,536,0,0,0,0,0,536,0,0,0,0,0,0,
536,536,536,536,0,0,0,0,0,536,0,0,0,0,0,0,
0,0,0,0,0,0,0,0,0,536,0,0,0,0,0,0,
0,0,0,0,0,0,0,0,0,536,0,0,0,0,0,0,
0,0,0,0,0,0,0,0,0,536,0,0,0,0,0,0,
0,0,0,0,0,0,0,0,0,536,536,0,0,0,0,0,
0,0,0,0,0,0,0,0,0,536,536,0,0,0,0,0,
0,0,0,0,0,0,0,0,0,536,536,0,0,0,0,0,
0,0,0,0,0,0,0,0,0,0,536,0,0,0,0,0,
0,0,0,0,0,0,0,0,0,0,536,0,0,0,0,0
</chunk>
   <chunk x="0" y="0" width="16" height="16">
49,49,49,49,49,49,49,49,536,536,536,536,536,536,536,536,
49,49,49,49,49,49,49,49,49,49,0,0,0,0,0,0,
49,49,49,49,49,49,49,49,49,49,0,0,0,0,0,0,
49,49,49,49,49,49,49,49,49,49,0,0,0,0,0,0,
49,49,49,49,49,49,49,49,49,49,0,0,0,0,0,0,
49,49,49,49,49,49,49,49,49,49,0,0,0,0,0,0,
49,49,49,49,49,49,49,49,49,536,536,536,536,536,536,536,
49,49,49,49,49,49,49,49,49,536,0,0,0,0,536,536,
0,0,0,0,0,0,0,0,0,536,0,0,0,0,536,536,
0,0,0,0,0,0,0,0,0,536,0,0,0,0,0,0,
0,0,0,0,0,0,0,0,0,536,0,0,0,0,0,0,
0,0,0,0,0,0,0,0,0,536,0,0,0,0,0,0,
0,0,0,0,0,0,0,0,0,536,0,0,0,0,0,0,
0,0,0,0,0,0,0,0,0,536,0,0,0,0,0,0,
0,0,0,0,0,0,0,0,0,536,0,0,0,0,0,0,
0,0,0,0,0,0,0,0,0,536,0,0,0,0,0,0
</chunk>
   <chunk x="16" y="0" width="16" height="16">
536,536,536,536,536,536,536,536,536,536,536,0,0,0,0,0,
0,0,0,0,0,0,0,0,0,0,0,0,0,0,0,0,
0,0,0,0,0,0,0,0,0,0,0,0,0,0,0,0,
0,0,0,0,0,0,0,0,0,0,0,0,0,0,0,0,
0,0,0,0,0,0,0,0,0,0,0,0,0,0,0,0,
0,0,0,0,0,0,0,0,0,0,0,0,0,0,0,0,
536,536,536,536,536,536,536,536,536,536,0,0,0,0,0,0,
536,536,536,536,536,0,0,0,0,536,0,0,0,0,0,0,
536,536,536,536,536,0,0,0,0,536,0,0,0,0,0,0,
0,0,0,0,0,0,0,0,0,536,0,0,0,0,0,0,
0,0,0,0,0,0,0,0,0,536,0,0,0,0,0,0,
0,0,0,0,0,0,0,0,0,536,0,0,0,0,0,0,
0,0,0,0,0,0,0,0,0,536,0,0,0,0,0,0,
0,0,0,0,0,0,0,0,0,536,0,0,0,0,0,0,
0,0,0,0,0,0,0,0,0,536,0,0,0,0,0,0,
0,0,0,0,0,0,0,0,0,536,0,0,0,0,0,0
</chunk>
   <chunk x="0" y="16" width="16" height="16">
0,0,0,0,0,0,0,0,0,536,0,0,0,0,0,0,
0,0,0,0,0,0,0,0,0,536,0,0,0,0,0,0,
0,0,0,0,0,0,0,0,0,536,0,0,0,0,0,0,
0,0,0,0,0,0,0,0,0,536,0,0,0,0,0,0,
0,0,0,0,0,0,0,0,0,536,0,0,0,0,0,0,
0,0,0,0,0,0,0,0,536,536,0,0,0,0,0,0,
0,0,0,0,0,0,0,0,536,536,0,0,0,0,0,0,
0,0,0,0,0,0,0,0,536,0,0,0,0,0,0,0,
0,0,0,0,0,0,0,0,536,0,0,0,0,0,0,0,
0,0,0,0,0,0,0,0,536,536,536,536,536,536,536,536,
0,0,0,0,0,0,0,0,0,0,0,0,0,0,0,0,
0,0,0,0,0,0,0,0,0,0,0,0,0,0,0,0,
0,0,0,0,0,0,0,0,0,0,0,0,0,0,0,0,
0,0,0,0,0,0,0,0,0,0,0,0,0,0,0,0,
0,0,0,0,0,0,0,0,0,0,0,0,0,0,0,0,
0,0,0,0,0,0,0,0,0,0,0,0,0,0,0,0
</chunk>
   <chunk x="16" y="16" width="16" height="16">
0,0,0,0,0,0,0,0,0,536,0,0,0,0,0,0,
0,0,0,0,0,0,0,0,0,536,0,0,0,0,0,0,
0,0,0,0,0,0,0,0,0,536,0,0,0,0,0,0,
0,0,0,0,0,0,0,0,0,536,0,0,0,0,0,0,
0,0,0,0,0,0,0,0,0,536,0,0,0,0,0,0,
0,0,0,0,0,0,0,0,0,536,536,0,0,0,0,0,
0,0,0,0,0,0,0,0,0,536,536,0,0,0,0,0,
0,0,0,0,0,0,0,0,0,0,536,0,0,0,0,0,
0,0,0,0,0,0,0,0,0,0,536,0,0,0,0,0,
536,536,536,536,536,536,536,536,536,536,536,0,0,0,0,0,
0,0,0,0,0,0,0,0,0,0,0,0,0,0,0,0,
0,0,0,0,0,0,0,0,0,0,0,0,0,0,0,0,
0,0,0,0,0,0,0,0,0,0,0,0,0,0,0,0,
0,0,0,0,0,0,0,0,0,0,0,0,0,0,0,0,
0,0,0,0,0,0,0,0,0,0,0,0,0,0,0,0,
0,0,0,0,0,0,0,0,0,0,0,0,0,0,0,0
</chunk>
   <chunk x="32" y="16" width="16" height="16">
0,0,536,536,536,536,536,536,536,536,536,0,0,0,0,0,
0,0,536,2016,0,0,0,0,0,2018,536,0,0,0,0,0,
0,0,536,2016,0,0,0,0,0,2018,536,0,0,0,0,0,
0,0,536,2016,0,0,0,0,0,2018,536,0,0,0,0,0,
0,0,536,2016,0,0,0,0,0,2018,536,0,0,0,0,0,
0,0,536,2026,0,0,0,0,0,2028,536,0,0,0,0,0,
0,0,536,2036,0,0,0,0,0,2038,536,0,0,0,0,0,
0,0,536,2046,0,0,0,0,0,2048,536,0,0,0,0,0,
0,0,536,0,0,0,0,0,0,0,536,0,0,0,0,0,
0,0,536,536,536,536,536,536,536,536,536,0,0,0,0,0,
0,0,0,0,0,0,0,0,0,0,0,0,0,0,0,0,
0,0,0,0,0,0,0,0,0,0,0,0,0,0,0,0,
0,0,0,0,0,0,0,0,0,0,0,0,0,0,0,0,
0,0,0,0,0,0,0,0,0,0,0,0,0,0,0,0,
0,0,0,0,0,0,0,0,0,0,0,0,0,0,0,0,
0,0,0,0,0,0,0,0,0,0,0,0,0,0,0,0
</chunk>
  </data>
 </layer>
 <group id="49" name="Z=5"/>
 <layer id="168" name="systemtags" width="32" height="32">
  <data encoding="csv"/>
 </layer>
 <layer id="15" name="passages" width="32" height="32" opacity="0.34">
  <data encoding="csv">
   <chunk x="0" y="-80" width="16" height="16">
0,0,0,0,0,0,0,0,0,0,0,0,0,0,0,0,
0,0,0,0,0,0,0,0,0,0,0,0,0,0,0,0,
0,0,0,0,0,0,0,0,0,0,0,0,0,0,0,0,
0,0,0,0,0,0,0,0,0,0,0,0,0,0,0,0,
0,0,0,0,0,0,0,0,0,0,0,0,0,0,0,0,
0,0,0,0,0,0,0,0,0,0,0,0,0,0,0,0,
0,0,0,0,0,0,0,0,0,0,0,0,0,0,0,0,
0,0,0,0,0,0,0,0,0,0,0,0,0,0,0,0,
0,0,0,0,0,0,0,0,0,0,0,0,0,0,0,0,
0,0,0,0,0,0,0,0,336,336,336,336,336,336,336,336,
0,0,0,0,0,0,0,0,336,336,336,336,336,336,336,336,
0,0,0,0,0,0,0,0,336,336,336,336,336,336,336,336,
0,0,0,0,0,0,0,0,336,336,336,336,336,336,336,0,
0,0,0,0,0,0,0,0,336,336,336,336,336,0,0,0,
0,0,0,0,0,0,0,0,336,336,336,336,0,0,0,0,
0,0,0,0,0,0,0,0,336,336,336,0,0,0,0,0
</chunk>
   <chunk x="16" y="-80" width="16" height="16">
0,0,0,0,0,0,0,0,0,0,0,0,0,0,0,0,
0,0,0,0,0,0,0,0,0,0,0,0,0,0,0,0,
0,0,0,0,0,0,0,0,0,0,0,0,0,0,0,0,
0,0,0,0,0,0,0,0,0,0,0,0,0,0,0,0,
0,0,0,0,0,0,0,0,0,0,0,0,0,0,0,0,
0,0,0,0,0,0,0,0,0,0,0,0,0,0,0,0,
0,0,0,0,0,0,0,0,0,0,0,0,0,0,0,0,
0,0,0,0,0,0,0,0,0,0,0,0,0,0,0,0,
0,0,0,0,0,0,0,0,0,0,0,0,0,0,0,0,
336,336,336,336,336,336,336,336,336,336,336,0,0,0,0,0,
336,336,336,336,336,336,336,336,336,336,336,0,0,0,0,0,
336,336,336,336,336,336,336,336,336,336,336,0,0,0,0,0,
336,336,336,0,336,336,336,336,336,336,336,0,0,0,0,0,
336,336,336,0,0,0,336,336,336,336,336,0,0,0,0,0,
336,336,336,0,0,0,0,336,336,336,336,0,0,0,0,0,
336,336,336,0,0,0,0,0,336,336,336,0,0,0,0,0
</chunk>
   <chunk x="0" y="-64" width="16" height="16">
0,0,0,0,0,0,0,0,336,336,0,0,0,0,0,0,
0,0,0,0,0,0,0,0,336,336,0,0,0,0,0,0,
0,0,0,0,0,0,0,0,336,336,336,336,336,336,336,336,
0,0,0,0,0,0,0,0,336,336,336,336,336,336,336,336,
0,0,0,0,0,0,0,0,336,336,336,336,336,336,336,336,
0,0,0,0,0,0,0,0,336,336,336,336,336,336,336,336,
0,0,0,0,0,0,0,0,336,336,0,0,0,0,0,0,
0,0,0,0,0,0,0,0,336,336,336,0,0,0,0,0,
0,0,0,0,0,0,0,0,336,336,336,0,0,0,0,0,
0,0,0,0,0,0,0,0,336,336,336,336,0,0,0,0,
0,0,0,0,0,0,0,0,336,336,336,336,336,0,0,0,
0,0,0,0,0,0,0,0,336,336,336,336,336,336,336,0,
0,0,0,0,0,0,0,0,336,336,336,336,336,336,336,336,
0,0,0,0,0,0,0,0,0,0,0,0,0,0,0,0,
0,0,0,0,0,0,0,0,0,0,0,0,0,0,0,0,
0,0,0,0,0,0,0,0,0,0,0,0,0,0,0,0
</chunk>
   <chunk x="16" y="-64" width="16" height="16">
336,336,336,0,0,0,0,0,0,336,336,0,0,0,0,0,
336,336,336,0,0,0,0,0,0,336,336,0,0,0,0,0,
336,336,336,0,0,0,0,0,0,336,336,0,0,0,0,0,
336,336,336,0,0,0,0,0,0,336,336,0,0,0,0,0,
336,336,336,0,0,0,0,0,0,336,336,0,0,0,0,0,
336,336,336,0,0,0,0,0,0,336,336,0,0,0,0,0,
0,0,0,0,0,0,0,0,0,336,336,0,0,0,0,0,
0,0,0,0,0,0,0,0,336,336,336,0,0,0,0,0,
0,0,0,0,0,0,0,0,336,336,336,0,0,0,0,0,
0,0,0,0,0,0,0,336,336,336,336,0,0,0,0,0,
0,0,0,0,0,0,336,336,336,336,336,0,0,0,0,0,
0,0,0,0,336,336,336,336,336,336,336,0,0,0,0,0,
336,336,336,336,336,336,336,336,336,336,336,0,0,0,0,0,
0,0,0,0,0,0,0,0,0,0,0,0,0,0,0,0,
0,0,0,0,0,0,0,0,0,0,0,0,0,0,0,0,
0,0,0,0,0,0,0,0,0,0,0,0,0,0,0,0
</chunk>
   <chunk x="0" y="-48" width="16" height="16">
0,0,0,0,0,0,0,0,0,0,0,0,0,0,0,0,
0,0,0,0,0,0,0,0,0,0,0,0,0,0,0,0,
0,0,0,0,0,0,0,0,0,0,0,0,0,0,0,0,
0,0,0,0,0,0,0,0,336,336,336,336,336,336,336,336,
0,0,0,0,0,0,0,0,336,336,336,336,336,336,336,336,
0,0,0,0,0,0,0,0,336,336,336,336,336,336,336,336,
0,0,0,0,0,0,0,0,336,336,336,336,336,336,336,0,
0,0,0,0,0,0,0,0,336,336,336,336,336,0,0,0,
0,0,0,0,0,0,0,0,336,336,336,336,0,0,0,0,
0,0,0,0,0,0,0,0,336,336,336,0,0,0,0,0,
0,0,0,0,0,0,0,0,336,336,336,0,0,0,0,0,
0,0,0,0,0,0,0,0,336,336,0,0,0,0,0,0,
0,0,0,0,0,0,0,0,336,336,0,0,0,0,0,0,
0,0,0,0,0,0,0,0,336,336,0,0,0,0,0,0,
0,0,0,0,0,0,0,0,336,336,0,0,0,0,0,0,
0,0,0,0,0,0,0,0,336,336,0,0,0,0,0,0
</chunk>
   <chunk x="16" y="-48" width="16" height="16">
0,0,0,0,0,0,0,0,0,0,0,0,0,0,0,0,
0,0,0,0,0,0,0,0,0,0,0,0,0,0,0,0,
0,0,0,0,0,0,0,0,0,0,0,0,0,0,0,0,
336,336,336,336,336,336,336,336,336,336,336,0,0,0,0,0,
336,336,336,336,336,336,336,336,336,336,336,0,0,0,0,0,
336,336,336,336,336,336,336,336,336,336,336,0,0,0,0,0,
336,336,336,0,336,336,336,336,336,336,336,0,0,0,0,0,
336,336,336,0,0,0,336,336,336,336,336,0,0,0,0,0,
336,336,336,0,0,0,0,336,336,336,336,0,0,0,0,0,
336,336,336,0,0,0,0,0,336,336,336,0,0,0,0,0,
336,336,336,0,0,0,0,0,336,336,336,0,0,0,0,0,
336,336,336,0,0,0,0,0,0,336,336,0,0,0,0,0,
336,336,336,336,336,336,336,336,336,336,336,0,0,0,0,0,
336,336,336,336,336,336,336,336,336,336,336,0,0,0,0,0,
336,336,336,336,336,336,336,336,336,336,336,0,0,0,0,0,
336,336,336,336,336,336,336,336,336,336,336,0,0,0,0,0
</chunk>
   <chunk x="0" y="-32" width="16" height="16">
0,0,0,0,0,0,0,0,336,336,0,0,0,0,0,0,
0,0,0,0,0,0,0,0,336,336,336,0,0,0,0,0,
0,0,0,0,0,0,0,0,336,336,336,0,0,0,0,0,
0,0,0,0,0,0,0,0,336,336,336,336,0,0,0,0,
0,0,0,0,0,0,0,0,336,336,336,336,336,0,0,0,
0,0,0,0,0,0,0,0,336,336,336,336,336,336,336,0,
0,0,0,0,0,0,0,0,336,336,336,336,336,336,336,336,
0,0,0,0,0,0,0,0,0,0,0,0,0,0,0,0,
0,0,0,0,0,0,0,0,0,0,0,0,0,0,0,0,
0,0,0,0,0,0,0,0,0,0,0,0,0,0,0,0,
0,0,0,0,0,0,0,0,0,0,0,0,0,0,0,0,
0,0,0,0,0,0,0,0,0,0,0,0,0,0,0,0,
0,0,0,0,0,0,0,0,0,0,0,0,0,0,0,0,
0,0,0,0,0,0,0,0,0,336,336,336,336,336,336,336,
0,0,0,0,0,0,0,0,0,336,336,336,336,336,336,336,
0,0,0,0,0,0,0,0,0,336,336,336,336,336,336,336
</chunk>
   <chunk x="16" y="-32" width="16" height="16">
0,0,0,0,0,0,0,0,0,336,336,0,0,0,0,0,
0,0,0,0,0,0,0,0,336,336,336,0,0,0,0,0,
0,0,0,0,0,0,0,0,336,336,336,0,0,0,0,0,
0,0,0,0,0,0,0,336,336,336,336,0,0,0,0,0,
0,0,0,0,0,0,336,336,336,336,336,0,0,0,0,0,
0,0,0,0,336,336,336,336,336,336,336,0,0,0,0,0,
336,336,336,336,336,336,336,336,336,336,336,0,0,0,0,0,
0,0,0,0,0,0,0,0,0,0,0,0,0,0,0,0,
0,0,0,0,0,0,0,0,0,0,0,0,0,0,0,0,
0,0,0,0,0,0,0,0,0,0,0,0,0,0,0,0,
0,0,0,0,0,0,0,0,0,0,0,0,0,0,0,0,
0,0,0,0,0,0,0,0,0,0,0,0,0,0,0,0,
0,0,0,0,0,0,0,0,0,0,0,0,0,0,0,0,
336,336,336,336,336,336,336,336,336,336,0,0,0,0,0,0,
336,336,336,336,336,336,336,336,336,336,0,0,0,0,0,0,
336,336,336,336,336,336,336,336,336,336,0,0,0,0,0,0
</chunk>
   <chunk x="0" y="-16" width="16" height="16">
0,0,0,0,0,0,0,0,0,336,0,0,336,336,0,0,
0,0,0,0,0,0,0,0,0,336,0,0,0,0,0,0,
0,0,0,0,0,0,0,0,0,336,0,0,0,0,0,0,
0,0,0,0,0,0,0,0,0,336,0,0,0,0,0,0,
0,0,0,0,0,0,0,0,0,336,0,0,0,0,0,0,
0,0,0,0,0,0,0,0,0,336,0,0,0,0,0,0,
0,0,0,0,0,0,0,0,0,336,0,0,0,0,0,336,
0,0,0,0,0,0,0,0,0,336,0,0,0,0,0,336,
0,0,0,0,0,0,0,0,0,336,0,0,0,0,0,336,
0,0,0,0,0,0,0,0,0,336,0,0,0,0,0,336,
0,0,0,0,0,0,0,0,0,336,0,0,0,0,0,0,
0,0,0,0,0,0,0,0,0,336,0,0,0,0,0,0,
0,0,0,0,0,0,0,0,0,336,0,0,0,0,0,0,
0,0,0,0,0,0,0,0,0,336,0,0,0,0,0,0,
0,0,0,0,0,0,0,0,0,336,0,0,0,0,0,0,
0,0,0,0,0,0,0,0,0,336,336,336,336,336,336,336
</chunk>
   <chunk x="16" y="-16" width="16" height="16">
0,336,336,336,0,0,0,0,0,336,0,0,0,0,0,0,
0,336,336,336,0,0,0,0,0,336,0,0,0,0,0,0,
0,336,336,336,0,0,0,0,0,336,0,0,0,0,0,0,
0,336,336,336,0,0,336,0,0,336,0,0,0,0,0,0,
0,336,336,336,0,0,0,0,0,336,0,0,0,0,0,0,
0,336,336,336,0,0,0,0,0,336,0,0,0,0,0,0,
336,336,336,336,0,0,0,0,0,336,0,0,0,0,0,0,
336,336,336,336,0,0,0,0,0,336,0,0,0,0,0,0,
336,336,336,336,0,0,0,0,0,336,0,0,0,0,0,0,
336,336,336,336,336,0,0,0,336,336,0,0,0,0,0,0,
0,0,0,0,0,0,0,0,0,336,0,0,0,0,0,0,
0,0,0,0,0,0,0,0,0,336,0,0,0,0,0,0,
0,0,0,0,0,0,0,0,0,336,0,0,0,0,0,0,
0,0,0,0,0,0,0,0,0,336,0,0,0,0,0,0,
0,0,0,0,0,0,0,0,0,336,0,0,0,0,0,0,
336,336,336,336,336,336,336,336,336,336,0,0,0,0,0,0
</chunk>
   <chunk x="0" y="0" width="16" height="16">
0,0,0,0,0,0,0,0,0,0,0,0,0,0,0,0,
0,0,0,0,0,0,0,0,0,0,0,0,0,0,0,0,
0,0,0,0,0,0,0,0,0,0,0,0,0,0,0,0,
0,0,0,0,0,0,0,0,0,0,0,0,0,0,0,0,
0,0,0,0,0,0,0,0,0,0,0,0,0,0,0,0,
0,0,0,0,0,0,0,0,0,0,0,0,0,0,0,0,
0,0,0,0,0,0,0,0,0,336,336,336,336,336,336,336,
0,0,0,0,0,0,0,0,0,336,336,336,336,336,336,336,
0,0,0,0,0,0,0,0,0,336,336,336,336,336,336,336,
0,0,0,0,0,0,0,0,0,336,0,0,0,0,336,336,
0,0,0,0,0,0,0,0,0,336,0,0,0,0,336,336,
0,0,0,0,0,0,0,0,0,336,0,0,0,0,0,0,
0,0,0,0,0,0,0,0,0,336,0,0,0,0,0,0,
0,0,0,0,0,0,0,0,0,336,0,0,0,0,0,0,
0,0,0,0,0,0,0,0,0,336,0,0,336,0,0,336,
0,0,0,0,0,0,0,0,0,336,0,0,336,0,0,0
</chunk>
   <chunk x="16" y="0" width="16" height="16">
0,0,0,0,0,0,0,0,0,0,0,0,0,0,0,0,
0,0,0,0,0,0,0,0,0,0,0,0,0,0,0,0,
0,0,0,0,0,0,0,0,0,0,0,0,0,0,0,0,
0,0,0,0,0,0,0,0,0,0,0,0,0,0,0,0,
0,0,0,0,0,0,0,0,0,0,0,0,0,0,0,0,
0,0,0,0,0,0,0,0,0,0,0,0,0,0,0,0,
336,336,336,336,336,336,336,336,336,336,0,0,0,0,0,0,
336,336,336,336,336,336,336,336,336,336,0,0,0,0,0,0,
336,336,336,336,336,336,336,336,336,336,0,0,0,0,0,0,
336,336,336,336,336,0,0,0,0,336,0,0,0,0,0,0,
336,336,336,336,336,0,0,0,0,336,0,0,0,0,0,0,
0,0,0,0,0,0,0,0,0,336,0,0,0,0,0,0,
0,0,0,0,0,0,0,0,0,336,0,0,0,0,0,0,
0,0,0,0,0,0,0,0,0,336,0,0,0,0,0,0,
0,0,0,336,0,0,336,0,0,336,0,0,0,0,0,0,
0,0,0,0,0,0,336,0,0,336,0,0,0,0,0,0
</chunk>
   <chunk x="0" y="16" width="16" height="16">
0,0,0,0,0,0,0,0,0,336,0,0,0,0,0,0,
0,0,0,0,0,0,0,0,0,336,0,0,0,0,0,336,
0,0,0,0,0,0,0,0,0,336,0,0,0,0,0,0,
0,0,0,0,0,0,0,0,0,336,0,0,336,0,0,0,
0,0,0,0,0,0,0,0,0,336,0,0,336,0,0,336,
0,0,0,0,0,0,0,0,0,336,0,0,0,0,0,0,
0,0,0,0,0,0,0,0,0,336,0,0,0,0,0,0,
0,0,0,0,0,0,0,0,0,336,0,0,0,0,0,0,
0,0,0,0,0,0,0,0,0,336,336,336,336,336,336,336,
0,0,0,0,0,0,0,0,0,0,0,0,0,0,0,0,
0,0,0,0,0,0,0,0,0,0,0,0,0,0,0,0,
0,0,0,0,0,0,0,0,0,0,0,0,0,0,0,0,
0,0,0,0,0,0,0,0,0,0,0,0,0,0,0,0,
0,0,0,0,0,0,0,0,0,0,0,0,0,0,0,0,
0,0,0,0,0,0,0,0,0,0,0,0,0,0,0,0,
0,0,0,0,0,0,0,0,0,0,0,0,0,0,0,0
</chunk>
   <chunk x="16" y="16" width="16" height="16">
0,0,0,0,0,0,0,0,0,336,0,0,0,0,0,0,
0,0,0,336,0,0,0,0,0,336,0,0,0,0,0,0,
0,0,0,0,0,0,0,0,0,336,0,0,0,0,0,0,
0,0,0,0,0,0,336,0,0,336,0,0,0,0,0,0,
0,0,0,336,0,0,336,0,0,336,0,0,0,0,0,0,
0,0,0,0,0,0,0,0,0,336,0,0,0,0,0,0,
0,0,0,0,0,0,0,0,0,336,0,0,0,0,0,0,
0,0,0,0,0,0,0,0,0,336,0,0,0,0,0,0,
336,336,336,336,336,336,336,336,336,336,0,0,0,0,0,0,
0,0,0,0,0,0,0,0,0,0,0,0,0,0,0,0,
0,0,0,0,0,0,0,0,0,0,0,0,0,0,0,0,
0,0,0,0,0,0,0,0,0,0,0,0,0,0,0,0,
0,0,0,0,0,0,0,0,0,0,0,0,0,0,0,0,
0,0,0,0,0,0,0,0,0,0,0,0,0,0,0,0,
0,0,0,0,0,0,0,0,0,0,0,0,0,0,0,0,
0,0,0,0,0,0,0,0,0,0,0,0,0,0,0,0
</chunk>
   <chunk x="32" y="16" width="16" height="16">
0,0,336,336,336,336,336,336,336,336,336,0,0,0,0,0,
0,0,336,336,336,336,336,336,336,336,336,0,0,0,0,0,
0,0,336,336,336,336,336,336,336,336,336,0,0,0,0,0,
0,0,336,336,336,336,336,336,336,336,336,0,0,0,0,0,
0,0,336,336,0,0,0,0,0,336,336,0,0,0,0,0,
0,0,336,336,0,0,0,0,0,336,336,0,0,0,0,0,
0,0,336,336,0,0,0,0,0,336,336,0,0,0,0,0,
0,0,336,336,0,0,0,0,0,336,336,0,0,0,0,0,
0,0,336,336,336,336,336,336,336,336,336,0,0,0,0,0,
0,0,336,336,336,336,336,336,336,336,336,0,0,0,0,0,
0,0,0,0,0,0,0,0,0,0,0,0,0,0,0,0,
0,0,0,0,0,0,0,0,0,0,0,0,0,0,0,0,
0,0,0,0,0,0,0,0,0,0,0,0,0,0,0,0,
0,0,0,0,0,0,0,0,0,0,0,0,0,0,0,0,
0,0,0,0,0,0,0,0,0,0,0,0,0,0,0,0,
0,0,0,0,0,0,0,0,0,0,0,0,0,0,0,0
</chunk>
  </data>
 </layer>
 <layer id="1" name="borders" width="32" height="32" visible="0">
  <data encoding="csv">
   <chunk x="0" y="-64" width="16" height="16">
0,0,0,0,0,0,0,0,0,0,0,0,0,0,0,0,
0,0,0,0,0,0,0,0,0,0,0,0,0,0,0,0,
0,0,0,0,0,0,0,0,0,0,0,0,0,0,0,0,
0,0,0,0,0,0,0,0,0,0,0,0,0,0,0,0,
0,0,0,0,0,0,0,0,0,0,0,0,0,0,0,0,
0,0,0,0,0,0,0,0,0,0,0,0,0,0,0,0,
0,0,0,0,0,0,0,0,0,0,0,0,0,0,0,0,
0,0,0,0,0,0,0,0,0,0,0,0,0,0,0,0,
0,0,0,0,0,0,0,0,0,0,0,0,0,0,0,0,
0,0,0,0,0,0,0,0,0,0,0,0,0,0,0,0,
0,0,0,0,0,0,0,0,0,0,0,0,0,0,0,0,
0,0,0,0,0,0,0,0,0,0,0,0,0,0,0,0,
65,66,67,68,69,70,71,72,73,74,0,0,0,0,0,0,
81,0,0,0,0,0,0,0,0,90,0,0,0,0,0,0,
97,0,0,0,0,0,0,0,0,106,0,0,0,0,0,0,
113,0,0,0,0,0,0,0,0,122,0,0,0,0,0,0
</chunk>
   <chunk x="16" y="-64" width="16" height="16">
0,0,0,0,0,0,0,0,0,0,0,0,0,0,0,0,
0,0,0,0,0,0,0,0,0,0,0,0,0,0,0,0,
0,0,0,0,0,0,0,0,0,0,0,0,0,0,0,0,
0,0,0,0,0,0,0,0,0,0,0,0,0,0,0,0,
0,0,0,0,0,0,0,0,0,0,0,0,0,0,0,0,
0,0,0,0,0,0,0,0,0,0,0,0,0,0,0,0,
0,0,0,0,0,0,0,0,0,0,0,0,0,0,0,0,
0,0,0,0,0,0,0,0,0,0,0,0,0,0,0,0,
0,0,0,0,0,0,0,0,0,0,0,0,0,0,0,0,
0,0,0,0,0,0,0,0,0,0,0,0,0,0,0,0,
0,0,0,0,0,0,0,0,0,0,0,0,0,0,0,0,
0,0,0,0,0,0,0,0,0,0,0,0,0,0,0,0,
0,0,0,0,0,0,0,0,0,65,66,67,68,69,70,71,
0,0,0,0,0,0,0,0,0,81,0,0,0,0,0,0,
0,0,0,0,0,0,0,0,0,97,0,0,0,0,0,0,
0,0,0,0,0,0,0,0,0,113,0,0,0,0,0,0
</chunk>
   <chunk x="32" y="-64" width="16" height="16">
0,0,0,0,0,0,0,0,0,0,0,0,0,0,0,0,
0,0,0,0,0,0,0,0,0,0,0,0,0,0,0,0,
0,0,0,0,0,0,0,0,0,0,0,0,0,0,0,0,
0,0,0,0,0,0,0,0,0,0,0,0,0,0,0,0,
0,0,0,0,0,0,0,0,0,0,0,0,0,0,0,0,
0,0,0,0,0,0,0,0,0,0,0,0,0,0,0,0,
0,0,0,0,0,0,0,0,0,0,0,0,0,0,0,0,
0,0,0,0,0,0,0,0,0,0,0,0,0,0,0,0,
0,0,0,0,0,0,0,0,0,0,0,0,0,0,0,0,
0,0,0,0,0,0,0,0,0,0,0,0,0,0,0,0,
0,0,0,0,0,0,0,0,0,0,0,0,0,0,0,0,
0,0,0,0,0,0,0,0,0,0,0,0,0,0,0,0,
72,73,74,0,0,0,0,0,0,0,0,0,0,0,0,0,
0,0,90,0,0,0,0,0,0,0,0,0,0,0,0,0,
0,0,106,0,0,0,0,0,0,0,0,0,0,0,0,0,
0,0,122,0,0,0,0,0,0,0,0,0,0,0,0,0
</chunk>
   <chunk x="0" y="-48" width="16" height="16">
129,0,0,0,0,0,0,0,0,138,0,0,0,0,0,0,
145,0,0,0,0,0,0,0,0,154,0,0,0,0,0,0,
161,0,0,0,0,0,0,0,0,170,0,0,0,0,0,0,
177,178,179,180,181,182,183,184,185,186,0,0,0,0,0,0,
0,0,0,0,0,0,0,0,0,0,0,0,0,0,0,0,
0,0,0,0,0,0,0,0,0,0,0,0,0,0,0,0,
0,0,0,0,0,0,0,0,0,0,0,0,0,0,0,0,
0,0,0,0,0,0,0,0,0,0,0,0,0,0,0,0,
0,0,0,0,0,0,0,0,0,0,0,0,0,0,0,0,
0,0,0,0,0,0,0,0,0,0,0,0,0,0,0,0,
0,0,0,0,0,0,0,0,0,0,0,0,0,0,0,0,
0,0,0,0,0,0,0,0,0,0,0,0,0,0,0,0,
0,0,0,0,0,0,0,0,0,0,0,0,0,0,0,0,
0,0,0,0,0,0,0,0,0,0,0,0,0,0,0,0,
0,0,0,0,0,0,0,0,0,0,0,0,0,0,0,0,
0,0,0,0,0,0,0,0,0,0,0,0,0,0,0,0
</chunk>
   <chunk x="16" y="-48" width="16" height="16">
0,0,0,0,0,0,0,0,0,129,0,0,0,0,0,0,
0,0,0,0,0,0,0,0,0,145,0,0,0,0,0,0,
0,0,0,0,0,0,0,0,0,161,0,0,0,0,0,0,
0,0,0,0,0,0,0,0,0,177,178,179,180,181,182,183,
0,0,0,0,0,0,0,0,0,0,0,0,0,0,0,0,
0,0,0,0,0,0,0,0,0,0,0,0,0,0,0,0,
0,0,0,0,0,0,0,0,0,0,0,0,0,0,0,0,
0,0,0,0,0,0,0,0,0,0,0,0,0,0,0,0,
0,0,0,0,0,0,0,0,0,0,0,0,0,0,0,0,
0,0,0,0,0,0,0,0,0,0,0,0,0,0,0,0,
0,0,0,0,0,0,0,0,0,0,0,0,0,0,0,0,
0,0,0,0,0,0,0,0,0,0,0,0,0,0,0,0,
0,0,0,0,0,0,0,0,0,0,0,0,0,0,0,0,
0,0,0,0,0,0,0,0,0,0,0,0,0,0,0,0,
0,0,0,0,0,0,0,0,0,0,0,0,0,0,0,0,
0,0,0,0,0,0,0,0,0,0,0,0,0,0,0,0
</chunk>
   <chunk x="32" y="-48" width="16" height="16">
0,0,138,0,0,0,0,0,0,0,0,0,0,0,0,0,
0,0,154,0,0,0,0,0,0,0,0,0,0,0,0,0,
0,0,170,0,0,0,0,0,0,0,0,0,0,0,0,0,
184,185,186,0,0,0,0,0,0,0,0,0,0,0,0,0,
0,0,0,0,0,0,0,0,0,0,0,0,0,0,0,0,
0,0,0,0,0,0,0,0,0,0,0,0,0,0,0,0,
0,0,0,0,0,0,0,0,0,0,0,0,0,0,0,0,
0,0,0,0,0,0,0,0,0,0,0,0,0,0,0,0,
0,0,0,0,0,0,0,0,0,0,0,0,0,0,0,0,
0,0,0,0,0,0,0,0,0,0,0,0,0,0,0,0,
0,0,0,0,0,0,0,0,0,0,0,0,0,0,0,0,
0,0,0,0,0,0,0,0,0,0,0,0,0,0,0,0,
0,0,0,0,0,0,0,0,0,0,0,0,0,0,0,0,
0,0,0,0,0,0,0,0,0,0,0,0,0,0,0,0,
0,0,0,0,0,0,0,0,0,0,0,0,0,0,0,0,
0,0,0,0,0,0,0,0,0,0,0,0,0,0,0,0
</chunk>
   <chunk x="0" y="-32" width="16" height="16">
0,0,0,0,0,0,0,0,0,0,0,0,0,0,0,0,
0,0,0,0,0,0,0,0,0,0,0,0,0,0,0,0,
0,0,0,0,0,0,0,0,0,0,0,0,0,0,0,0,
0,0,0,0,0,0,0,0,0,0,0,0,0,0,0,0,
0,0,0,0,0,0,0,0,0,0,0,0,0,0,0,0,
0,0,0,0,0,0,0,0,0,0,0,0,0,0,0,0,
65,66,67,68,69,70,71,72,73,74,0,0,0,0,0,0,
81,0,0,0,0,0,0,0,0,90,0,0,0,0,0,0,
97,0,0,0,0,0,0,0,0,106,0,0,0,0,0,0,
113,0,0,0,0,0,0,0,0,122,0,0,0,0,0,0,
129,0,0,0,0,0,0,0,0,138,0,0,0,0,0,0,
145,0,0,0,0,0,0,0,0,154,0,0,0,0,0,0,
161,0,0,0,0,0,0,0,0,170,0,0,0,0,0,0,
177,178,179,180,181,182,183,184,185,186,0,0,0,0,0,0,
0,0,0,0,0,0,0,0,0,0,0,0,0,0,0,0,
0,0,0,0,0,0,0,0,0,0,0,0,0,0,0,0
</chunk>
   <chunk x="16" y="-32" width="16" height="16">
0,0,0,0,0,0,0,0,0,0,0,0,0,0,0,0,
0,0,0,0,0,0,0,0,0,0,0,0,0,0,0,0,
0,0,0,0,0,0,0,0,0,0,0,0,0,0,0,0,
0,0,0,0,0,0,0,0,0,0,0,0,0,0,0,0,
0,0,0,0,0,0,0,0,0,0,0,0,0,0,0,0,
0,0,0,0,0,0,0,0,0,0,0,0,0,0,0,0,
0,0,0,0,0,0,0,0,0,65,66,67,68,69,70,71,
0,0,0,0,0,0,0,0,0,81,0,0,0,0,0,0,
0,0,0,0,0,0,0,0,0,97,0,0,0,0,0,0,
0,0,0,0,0,0,0,0,0,113,0,0,0,0,0,0,
0,0,0,0,0,0,0,0,0,129,0,0,0,0,0,0,
0,0,0,0,0,0,0,0,0,145,0,0,0,0,0,0,
0,0,0,0,0,0,0,0,0,161,0,0,0,0,0,0,
0,0,0,0,0,0,0,0,0,177,178,179,180,181,182,183,
0,0,0,0,0,0,0,0,0,0,0,0,0,0,0,0,
0,0,0,0,0,0,0,0,0,0,0,0,0,0,0,0
</chunk>
   <chunk x="32" y="-32" width="16" height="16">
0,0,0,0,0,0,0,0,0,0,0,0,0,0,0,0,
0,0,0,0,0,0,0,0,0,0,0,0,0,0,0,0,
0,0,0,0,0,0,0,0,0,0,0,0,0,0,0,0,
0,0,0,0,0,0,0,0,0,0,0,0,0,0,0,0,
0,0,0,0,0,0,0,0,0,0,0,0,0,0,0,0,
0,0,0,0,0,0,0,0,0,0,0,0,0,0,0,0,
72,73,74,0,0,0,0,0,0,0,0,0,0,0,0,0,
0,0,90,0,0,0,0,0,0,0,0,0,0,0,0,0,
0,0,106,0,0,0,0,0,0,0,0,0,0,0,0,0,
0,0,122,0,0,0,0,0,0,0,0,0,0,0,0,0,
0,0,138,0,0,0,0,0,0,0,0,0,0,0,0,0,
0,0,154,0,0,0,0,0,0,0,0,0,0,0,0,0,
0,0,170,0,0,0,0,0,0,0,0,0,0,0,0,0,
184,185,186,0,0,0,0,0,0,0,0,0,0,0,0,0,
0,0,0,0,0,0,0,0,0,0,0,0,0,0,0,0,
0,0,0,0,0,0,0,0,0,0,0,0,0,0,0,0
</chunk>
   <chunk x="0" y="-16" width="16" height="16">
0,0,0,0,0,0,0,0,0,0,0,0,0,0,0,0,
0,0,0,0,0,0,0,0,0,0,0,0,0,0,0,0,
0,0,0,0,0,0,0,0,0,0,0,0,0,0,0,0,
0,0,0,0,0,0,0,0,0,0,0,0,0,0,0,0,
0,0,0,0,0,0,0,0,0,0,0,0,0,0,0,0,
0,0,0,0,0,0,0,0,0,0,0,0,0,0,0,0,
0,0,0,0,0,0,0,0,0,0,0,0,0,0,0,0,
0,0,0,0,0,0,0,0,0,0,0,0,0,0,0,0,
0,0,0,0,0,0,0,0,0,0,0,0,0,0,0,0,
0,0,0,0,0,0,0,0,0,0,0,0,0,0,0,0,
0,0,0,0,0,0,0,0,0,0,0,0,0,0,0,0,
0,0,0,0,0,0,0,0,0,0,0,0,0,0,0,0,
0,0,0,0,0,0,0,0,0,0,0,0,0,0,0,0,
0,0,0,0,0,0,0,0,0,0,0,0,0,0,0,0,
0,0,0,0,0,0,0,0,0,0,0,0,0,0,0,0,
65,66,67,68,69,70,71,72,73,74,0,0,0,0,0,0
</chunk>
   <chunk x="16" y="-16" width="16" height="16">
0,0,0,0,0,0,0,0,0,0,0,0,0,0,0,0,
0,0,0,0,0,0,0,0,0,0,0,0,0,0,0,0,
0,0,0,0,0,0,0,0,0,0,0,0,0,0,0,0,
0,0,0,0,0,0,0,0,0,0,0,0,0,0,0,0,
0,0,0,0,0,0,0,0,0,0,0,0,0,0,0,0,
0,0,0,0,0,0,0,0,0,0,0,0,0,0,0,0,
0,0,0,0,0,0,0,0,0,0,0,0,0,0,0,0,
0,0,0,0,0,0,0,0,0,0,0,0,0,0,0,0,
0,0,0,0,0,0,0,0,0,0,0,0,0,0,0,0,
0,0,0,0,0,0,0,0,0,0,0,0,0,0,0,0,
0,0,0,0,0,0,0,0,0,0,0,0,0,0,0,0,
0,0,0,0,0,0,0,0,0,0,0,0,0,0,0,0,
0,0,0,0,0,0,0,0,0,0,0,0,0,0,0,0,
0,0,0,0,0,0,0,0,0,0,0,0,0,0,0,0,
0,0,0,0,0,0,0,0,0,0,0,0,0,0,0,0,
0,0,0,0,0,0,0,0,0,65,66,67,68,69,70,71
</chunk>
   <chunk x="32" y="-16" width="16" height="16">
0,0,0,0,0,0,0,0,0,0,0,0,0,0,0,0,
0,0,0,0,0,0,0,0,0,0,0,0,0,0,0,0,
0,0,0,0,0,0,0,0,0,0,0,0,0,0,0,0,
0,0,0,0,0,0,0,0,0,0,0,0,0,0,0,0,
0,0,0,0,0,0,0,0,0,0,0,0,0,0,0,0,
0,0,0,0,0,0,0,0,0,0,0,0,0,0,0,0,
0,0,0,0,0,0,0,0,0,0,0,0,0,0,0,0,
0,0,0,0,0,0,0,0,0,0,0,0,0,0,0,0,
0,0,0,0,0,0,0,0,0,0,0,0,0,0,0,0,
0,0,0,0,0,0,0,0,0,0,0,0,0,0,0,0,
0,0,0,0,0,0,0,0,0,0,0,0,0,0,0,0,
0,0,0,0,0,0,0,0,0,0,0,0,0,0,0,0,
0,0,0,0,0,0,0,0,0,0,0,0,0,0,0,0,
0,0,0,0,0,0,0,0,0,0,0,0,0,0,0,0,
0,0,0,0,0,0,0,0,0,0,0,0,0,0,0,0,
72,73,74,0,0,0,0,0,0,0,0,0,0,0,0,0
</chunk>
   <chunk x="0" y="0" width="16" height="16">
81,0,0,0,0,0,0,0,0,90,0,0,0,0,0,0,
97,0,0,0,0,0,0,0,0,106,0,0,0,0,0,0,
113,0,0,0,0,0,0,0,0,122,0,0,0,0,0,0,
129,0,0,0,0,0,0,0,0,138,0,0,0,0,0,0,
145,0,0,0,0,0,0,0,0,154,0,0,0,0,0,0,
161,0,0,0,0,0,0,0,0,170,0,0,0,0,0,0,
177,178,179,180,181,182,183,184,185,186,0,0,0,0,0,0,
0,0,0,0,0,0,0,0,0,0,0,0,0,0,0,0,
0,0,0,0,0,0,0,0,0,0,0,0,0,0,0,0,
0,0,0,0,0,0,0,0,0,0,0,0,0,0,0,0,
0,0,0,0,0,0,0,0,0,0,0,0,0,0,0,0,
0,0,0,0,0,0,0,0,0,0,0,0,0,0,0,0,
0,0,0,0,0,0,0,0,0,0,0,0,0,0,0,0,
0,0,0,0,0,0,0,0,0,0,0,0,0,0,0,0,
0,0,0,0,0,0,0,0,0,0,0,0,0,0,0,0,
0,0,0,0,0,0,0,0,0,0,0,0,0,0,0,0
</chunk>
   <chunk x="16" y="0" width="16" height="16">
0,0,0,0,0,0,0,0,0,81,0,0,0,0,0,0,
0,0,0,0,0,0,0,0,0,97,0,0,0,0,0,0,
0,0,0,0,0,0,0,0,0,113,0,0,0,0,0,0,
0,0,0,0,0,0,0,0,0,129,0,0,0,0,0,0,
0,0,0,0,0,0,0,0,0,145,0,0,0,0,0,0,
0,0,0,0,0,0,0,0,0,161,0,0,0,0,0,0,
0,0,0,0,0,0,0,0,0,177,178,179,180,181,182,183,
0,0,0,0,0,0,0,0,0,0,0,0,0,0,0,0,
0,0,0,0,0,0,0,0,0,0,0,0,0,0,0,0,
0,0,0,0,0,0,0,0,0,65,66,67,68,69,70,71,
0,0,0,0,0,0,0,0,0,81,0,0,0,0,0,0,
0,0,0,0,0,0,0,0,0,97,0,0,0,0,0,0,
0,0,0,0,0,0,0,0,0,113,0,0,0,0,0,0,
0,0,0,0,0,0,0,0,0,129,0,0,0,0,0,0,
0,0,0,0,0,0,0,0,0,145,0,0,0,0,0,0,
0,0,0,0,0,0,0,0,0,161,0,0,0,0,0,0
</chunk>
   <chunk x="32" y="0" width="16" height="16">
0,0,90,0,0,0,0,0,0,0,0,0,0,0,0,0,
0,0,106,0,0,0,0,0,0,0,0,0,0,0,0,0,
0,0,122,0,0,0,0,0,0,0,0,0,0,0,0,0,
0,0,138,0,0,0,0,0,0,0,0,0,0,0,0,0,
0,0,154,0,0,0,0,0,0,0,0,0,0,0,0,0,
0,0,170,0,0,0,0,0,0,0,0,0,0,0,0,0,
184,185,186,0,0,0,0,0,0,0,0,0,0,0,0,0,
0,0,0,0,0,0,0,0,0,0,0,0,0,0,0,0,
0,0,0,0,0,0,0,0,0,0,0,0,0,0,0,0,
72,73,74,0,0,0,0,0,0,0,65,66,67,68,69,70,
0,0,90,0,0,0,0,0,0,0,81,0,0,0,0,0,
0,0,106,0,0,0,0,0,0,0,97,0,0,0,0,0,
0,0,122,0,0,0,0,0,0,0,113,0,0,0,0,0,
0,0,138,0,0,0,0,0,0,0,129,0,0,0,0,0,
0,0,154,0,0,0,0,0,0,0,145,0,0,0,0,0,
0,0,170,0,0,0,0,0,0,0,161,0,0,0,0,0
</chunk>
   <chunk x="48" y="0" width="16" height="16">
0,0,0,0,0,0,0,0,0,0,0,0,0,0,0,0,
0,0,0,0,0,0,0,0,0,0,0,0,0,0,0,0,
0,0,0,0,0,0,0,0,0,0,0,0,0,0,0,0,
0,0,0,0,0,0,0,0,0,0,0,0,0,0,0,0,
0,0,0,0,0,0,0,0,0,0,0,0,0,0,0,0,
0,0,0,0,0,0,0,0,0,0,0,0,0,0,0,0,
0,0,0,0,0,0,0,0,0,0,0,0,0,0,0,0,
0,0,0,0,0,0,0,0,0,0,0,0,0,0,0,0,
0,0,0,0,0,0,0,0,0,0,0,0,0,0,0,0,
71,72,73,74,0,0,0,0,0,0,0,0,0,0,0,0,
0,0,0,90,0,0,0,0,0,0,0,0,0,0,0,0,
0,0,0,106,0,0,0,0,0,0,0,0,0,0,0,0,
0,0,0,122,0,0,0,0,0,0,0,0,0,0,0,0,
0,0,0,138,0,0,0,0,0,0,0,0,0,0,0,0,
0,0,0,154,0,0,0,0,0,0,0,0,0,0,0,0,
0,0,0,170,0,0,0,0,0,0,0,0,0,0,0,0
</chunk>
   <chunk x="0" y="16" width="16" height="16">
0,0,0,0,0,0,0,0,0,0,0,0,0,0,0,0,
0,0,0,0,0,0,0,0,0,0,0,0,0,0,0,0,
0,0,0,0,0,0,0,0,0,0,0,0,0,0,0,0,
0,0,0,0,0,0,0,0,0,0,0,0,0,0,0,0,
0,0,0,0,0,0,0,0,0,0,0,0,0,0,0,0,
0,0,0,0,0,0,0,0,0,0,0,0,0,0,0,0,
0,0,0,0,0,0,0,0,0,0,0,0,0,0,0,0,
0,0,0,0,0,0,0,0,0,0,0,0,0,0,0,0,
65,66,67,68,69,70,71,72,73,74,0,0,0,0,0,0,
81,0,0,0,0,0,0,0,0,90,0,0,0,0,0,0,
97,0,0,0,0,0,0,0,0,106,0,0,0,0,0,0,
113,0,0,0,0,0,0,0,0,122,0,0,0,0,0,0,
129,0,0,0,0,0,0,0,0,138,0,0,0,0,0,0,
145,0,0,0,0,0,0,0,0,154,0,0,0,0,0,0,
161,0,0,0,0,0,0,0,0,170,0,0,0,0,0,0,
177,178,179,180,181,182,183,184,185,186,0,0,0,0,0,0
</chunk>
   <chunk x="16" y="16" width="16" height="16">
0,0,0,0,0,0,0,0,0,177,178,179,180,181,182,183,
0,0,0,0,0,0,0,0,0,0,0,0,0,0,0,0,
0,0,0,0,0,0,0,0,0,0,0,0,0,0,0,0,
0,0,0,0,0,0,0,0,0,0,0,0,0,0,0,0,
0,0,0,0,0,0,0,0,0,0,0,0,0,0,0,0,
0,0,0,0,0,0,0,0,0,0,0,0,0,0,0,0,
0,0,0,0,0,0,0,0,0,0,0,0,0,0,0,0,
0,0,0,0,0,0,0,0,0,0,0,0,0,0,0,0,
0,0,0,0,0,0,0,0,0,65,66,67,68,69,70,71,
0,0,0,0,0,0,0,0,0,81,0,0,0,0,0,0,
0,0,0,0,0,0,0,0,0,97,0,0,0,0,0,0,
0,0,0,0,0,0,0,0,0,113,0,0,0,0,0,0,
0,0,0,0,0,0,0,0,0,129,0,0,0,0,0,0,
0,0,0,0,0,0,0,0,0,145,0,0,0,0,0,0,
0,0,0,0,0,0,0,0,0,161,0,0,0,0,0,0,
0,0,0,0,0,0,0,0,0,177,178,179,180,181,182,183
</chunk>
   <chunk x="32" y="16" width="16" height="16">
184,185,186,0,0,0,0,0,0,0,177,178,179,180,181,182,
0,0,0,0,0,0,0,0,0,0,0,0,0,0,0,0,
0,0,0,0,0,0,0,0,0,0,0,0,0,0,0,0,
0,0,0,0,0,0,0,0,0,0,0,0,0,0,0,0,
0,0,0,0,0,0,0,0,0,0,0,0,0,0,0,0,
0,0,0,0,0,0,0,0,0,0,0,0,0,0,0,0,
0,0,0,0,0,0,0,0,0,0,0,0,0,0,0,0,
0,0,0,0,0,0,0,0,0,0,0,0,0,0,0,0,
72,73,74,0,0,0,0,0,0,0,65,66,67,68,69,70,
0,0,90,0,0,0,0,0,0,0,81,0,0,0,0,0,
0,0,106,0,0,0,0,0,0,0,97,0,0,0,0,0,
0,0,122,0,0,0,0,0,0,0,113,0,0,0,0,0,
0,0,138,0,0,0,0,0,0,0,129,0,0,0,0,0,
0,0,154,0,0,0,0,0,0,0,145,0,0,0,0,0,
0,0,170,0,0,0,0,0,0,0,161,0,0,0,0,0,
184,185,186,0,0,0,0,0,0,0,177,178,179,180,181,182
</chunk>
   <chunk x="48" y="16" width="16" height="16">
183,184,185,186,0,0,0,0,0,0,0,0,0,0,0,0,
0,0,0,0,0,0,0,0,0,0,0,0,0,0,0,0,
0,0,0,0,0,0,0,0,0,0,0,0,0,0,0,0,
0,0,0,0,0,0,0,0,0,0,0,0,0,0,0,0,
0,0,0,0,0,0,0,0,0,0,0,0,0,0,0,0,
0,0,0,0,0,0,0,0,0,0,0,0,0,0,0,0,
0,0,0,0,0,0,0,0,0,0,0,0,0,0,0,0,
0,0,0,0,0,0,0,0,0,0,0,0,0,0,0,0,
71,72,73,74,0,0,0,0,0,0,0,0,0,0,0,0,
0,0,0,90,0,0,0,0,0,0,0,0,0,0,0,0,
0,0,0,106,0,0,0,0,0,0,0,0,0,0,0,0,
0,0,0,122,0,0,0,0,0,0,0,0,0,0,0,0,
0,0,0,138,0,0,0,0,0,0,0,0,0,0,0,0,
0,0,0,154,0,0,0,0,0,0,0,0,0,0,0,0,
0,0,0,170,0,0,0,0,0,0,0,0,0,0,0,0,
183,184,185,186,0,0,0,0,0,0,0,0,0,0,0,0
</chunk>
  </data>
 </layer>
</map>
